; generated by PrusaSlicer 2.3.3+win64 on 2022-02-22 at 13:00:38 UTC

; 

; external perimeters extrusion width = 0.45mm
; perimeters extrusion width = 0.45mm
; infill extrusion width = 0.45mm
; solid infill extrusion width = 0.45mm
; top infill extrusion width = 0.40mm
; support material extrusion width = 0.38mm
; first layer extrusion width = 0.42mm

M201 X500 Y500 Z100 E5000 ; sets maximum accelerations, mm/sec^2
M203 X500 Y500 Z10 E60 ; sets maximum feedrates, mm/sec
M204 P500 R1000 T500 ; sets acceleration (P, T) and retract acceleration (R), mm/sec^2
M205 X8.00 Y8.00 Z0.40 E5.00 ; sets the jerk limits, mm/sec
M205 S0 T0 ; sets the minimum extruding and travel feed rate, mm/sec
M107
;TYPE:Custom
G90 ; use absolute coordinates
M83 ; extruder relative mode
M140 S60 ; set final bed temp
M104 S150 ; set temporary nozzle temp to prevent oozing during homing
G4 S10 ; allow partial nozzle warmup
G28 ; home all axis
G1 Z50 F240
G1 X2 Y10 F3000
M104 S205 ; set final nozzle temp
M190 S60 ; wait for bed temp to stabilize
M109 S205 ; wait for nozzle temp to stabilize
G1 Z0.28 F240
G92 E0
G1 Y140 E10 F1500 ; prime the nozzle
G1 X2.3 F5000
G92 E0
G1 Y10 E10 F1200 ; prime the nozzle
G92 E0
G21 ; set units to millimeters
G90 ; use absolute coordinates
M83 ; use relative distances for extrusion
; Filament gcode
;LAYER_CHANGE
;Z:0.2
;HEIGHT:0.2
;BEFORE_LAYER_CHANGE
G92 E0
;0.2


G1 E-5.00000 F3600.000
G1 Z0.200 F9000.000
;AFTER_LAYER_CHANGE
;0.2
G1 X89.760 Y67.886
G1 E5.00000 F2400.000
M204 S500
;TYPE:Skirt
;WIDTH:0.42
G1 F1200.000
G1 X90.457 Y67.296 E0.02867
G1 X91.253 Y66.924 E0.02754
G1 X92.253 Y66.729 E0.03194
G1 X127.579 Y66.725 E1.10761
G1 X128.441 Y66.838 E0.02726
G1 X129.397 Y67.208 E0.03214
G1 X130.117 Y67.756 E0.02838
G1 X130.665 Y68.476 E0.02838
G1 X136.502 Y80.396 E0.41613
G1 X140.912 Y89.664 E0.32181
G1 X141.220 Y90.760 E0.03570
G1 X141.228 Y91.369 E0.01911
G1 X136.745 Y149.749 E1.83583
G1 X136.633 Y150.383 E0.02018
G1 X136.403 Y150.984 E0.02018
G1 X135.889 Y151.740 E0.02867
G1 X135.195 Y152.328 E0.02853
G1 X134.369 Y152.710 E0.02853
G1 X133.467 Y152.857 E0.02867
G1 X94.126 Y152.858 E1.23350
G1 X86.427 Y152.683 E0.24146
G1 X85.756 Y152.576 E0.02132
G1 X85.120 Y152.336 E0.02132
G1 X84.411 Y151.865 E0.02669
G1 X83.845 Y151.235 E0.02655
G1 X83.454 Y150.484 E0.02655
G1 X83.262 Y149.659 E0.02655
G1 X78.766 Y90.944 E1.84637
G1 X78.862 Y90.294 E0.02061
G1 X79.083 Y89.674 E0.02061
G1 X83.496 Y80.401 E0.32201
G1 X89.246 Y68.643 E0.41039
G1 X89.726 Y67.936 E0.02679
G1 E-3.50000 F3600.000
;WIPE_START
G1 F7200.000
G1 X90.457 Y67.296 E-0.46180
G1 X91.253 Y66.924 E-0.41718
G1 X92.253 Y66.729 E-0.48382
G1 X92.384 Y66.729 E-0.06220
;WIPE_END
G1 E-0.07500 F3600.000
G1 X89.726 Y67.936 F9000.000
G1 X89.726 Y67.936
G1 X79.506 Y103.080
G1 E5.00000 F2400.000
G1 F1200.000
G1 X77.801 Y90.230 E0.40643
G1 X77.822 Y89.764 E0.01462
G1 X78.132 Y88.562 E0.03894
G1 X81.997 Y80.441 E0.28198
G1 X88.383 Y67.643 E0.44848
G1 X89.263 Y66.587 E0.04310
G1 X90.389 Y65.835 E0.04246
G1 X92.000 Y65.389 E0.05240
G1 X128.038 Y65.396 E1.12993
G1 X129.238 Y65.676 E0.03864
G1 X130.326 Y66.252 E0.03861
G1 X131.593 Y67.600 E0.05802
G1 X134.933 Y74.222 E0.23252
G1 X138.028 Y80.494 E0.21930
G1 X141.868 Y88.562 E0.28016
G1 X142.195 Y89.901 E0.04321
G1 X142.194 Y90.319 E0.01311
G1 X140.544 Y102.737 E0.39276
G1 E-3.50000 F3600.000
;WIPE_START
G1 F7200.000
G1 X140.939 Y99.763 E-1.42500
;WIPE_END
G1 E-0.07500 F3600.000
G1 X140.544 Y102.737 F9000.000
G1 X140.544 Y102.737
G1 X139.648 Y109.486
G1 E5.00000 F2400.000
G1 F1200.000
G1 X136.009 Y136.885 E0.86661
G1 X136.458 Y137.161 E0.01652
G1 X137.440 Y138.242 E0.04581
G1 X137.767 Y138.905 F9000.000
G1 F1200.000
G1 X138.135 Y139.717 E0.02794
G1 X138.275 Y140.584 E0.02755
G1 X138.281 Y150.018 E0.29579
G1 X137.753 Y151.727 E0.05609
G1 X137.158 Y152.560 E0.03209
G1 X136.312 Y153.348 E0.03626
G1 X135.388 Y153.866 E0.03321
G1 X134.460 Y154.140 E0.03033
G1 X133.259 Y154.183 E0.03770
G1 X132.972 Y154.214 E0.00905
G1 X131.554 Y154.214 E0.04447
G1 X130.949 Y154.188 E0.01898
G1 X130.709 Y154.214 E0.00755
G1 X127.783 Y154.214 E0.09175
G1 X127.178 Y154.188 E0.01898
G1 X126.938 Y154.214 E0.00755
G1 X125.505 Y154.214 E0.04494
G1 X124.730 Y154.116 E0.02449
G1 X123.193 Y153.460 E0.05241
G1 X122.739 Y153.046 E0.01925
G1 X122.327 Y152.669 F9000.000
G1 F1200.000
G1 X121.943 Y152.318 E0.01630
G1 X121.144 Y150.798 E0.05386
G1 X120.946 Y149.787 E0.03227
G1 X120.937 Y149.261 E0.01651
G1 X110.000 Y147.807 E0.34592
G1 X99.047 Y149.263 E0.34644
G1 X99.024 Y150.274 E0.03171
G1 X98.625 Y151.551 E0.04194
G1 X98.044 Y152.444 E0.03339
G1 X97.813 Y152.670 E0.01012
G1 X97.428 Y153.047 F9000.000
G1 F1200.000
G1 X97.196 Y153.274 E0.01018
G1 X95.468 Y154.105 E0.06014
G1 X94.808 Y154.191 E0.02086
G1 X94.010 Y154.187 E0.02500
G1 X93.755 Y154.214 E0.00803
G1 X86.138 Y154.214 E0.23883
G1 X84.267 Y153.640 E0.06136
G1 X83.440 Y153.044 E0.03198
G1 X82.477 Y151.971 E0.04520
G1 X81.990 Y150.979 E0.03465
G1 X81.743 Y149.922 E0.03403
G1 X81.737 Y140.177 E0.30555
G1 X82.024 Y139.070 E0.03587
G1 X82.233 Y138.690 E0.01358
G1 X82.565 Y138.087 F9000.000
G1 F1200.000
G1 X83.627 Y137.008 E0.04748
G1 X83.979 Y136.798 E0.01287
G1 X80.401 Y109.822 E0.85323
G1 E-3.50000 F3600.000
;WIPE_START
G1 F7200.000
G1 X80.795 Y112.795 E-1.42500
;WIPE_END
G1 E-0.07500 F3600.000
G1 X80.401 Y109.822 F9000.000
G1 X80.401 Y109.822
G1 X79.884 Y103.075
G1 E5.00000 F2400.000
G1 F1200.000
G1 X84.387 Y137.004 E1.07313
G1 X83.874 Y137.293 E0.01847
G1 X82.880 Y138.296 E0.04427
G1 X82.617 Y138.768 E0.01693
G1 X82.297 Y139.522 F9000.000
G1 F1200.000
G1 X82.108 Y140.248 E0.02354
G1 X82.120 Y149.899 E0.30260
G1 X82.351 Y150.870 E0.03129
G1 X82.803 Y151.779 E0.03183
G1 X83.705 Y152.775 E0.04214
G1 X84.461 Y153.315 E0.02913
G1 X86.166 Y153.837 E0.05591
G1 X93.745 Y153.837 E0.23762
G1 X93.990 Y153.809 E0.00776
G1 X94.772 Y153.815 E0.02451
G1 X95.388 Y153.735 E0.01948
G1 X96.802 Y153.047 E0.04930
G1 X97.285 Y152.670 F9000.000
G1 F1200.000
G1 X97.740 Y152.220 E0.02007
G1 X98.273 Y151.413 E0.03032
G1 X98.656 Y150.189 E0.04021
G1 X98.673 Y148.933 E0.03939
G1 X110.000 Y147.427 E0.35827
G1 X121.312 Y148.931 E0.35780
G1 X121.319 Y149.733 E0.02515
G1 X121.509 Y150.698 E0.03085
G1 X122.223 Y152.064 E0.04833
G1 X122.877 Y152.669 E0.02792
G1 X123.285 Y153.046 F9000.000
G1 F1200.000
G1 X123.372 Y153.127 E0.00375
G1 X124.805 Y153.745 E0.04892
G1 X125.517 Y153.837 E0.02252
G1 X126.928 Y153.837 E0.04422
G1 X127.165 Y153.810 E0.00748
G1 X127.787 Y153.837 E0.01952
G1 X130.698 Y153.837 E0.09129
G1 X130.936 Y153.810 E0.00748
G1 X131.558 Y153.837 E0.01952
G1 X132.961 Y153.837 E0.04401
G1 X133.232 Y153.806 E0.00855
G1 X134.379 Y153.771 E0.03598
G1 X135.225 Y153.525 E0.02761
G1 X136.072 Y153.056 E0.03038
G1 X136.887 Y152.297 E0.03491
G1 X137.428 Y151.534 E0.02934
G1 X137.904 Y149.990 E0.05066
G1 X137.900 Y140.626 E0.29358
G1 X137.781 Y139.848 E0.02469
G1 X137.707 Y139.686 E0.00559
G1 X137.384 Y138.973 F9000.000
G1 F1200.000
G1 X137.162 Y138.485 E0.01680
G1 X136.201 Y137.438 E0.04457
G1 X135.602 Y137.086 E0.02179
G1 X140.169 Y102.697 E1.08769
G1 E-3.50000 F3600.000
;WIPE_START
G1 F7200.000
G1 X139.774 Y105.671 E-1.42500
;WIPE_END
G1 E-0.07500 F3600.000
G1 X140.169 Y102.697 F9000.000
G1 X140.169 Y102.697
G1 X141.066 Y95.947
G1 E5.00000 F2400.000
G1 F1200.000
G1 X141.818 Y90.282 E0.17919
G1 X141.818 Y89.924 E0.01123
G1 X141.519 Y88.707 E0.03930
G1 X137.690 Y80.659 E0.27943
G1 X134.596 Y74.391 E0.21918
G1 X131.269 Y67.794 E0.23165
G1 X130.120 Y66.570 E0.05264
G1 X129.126 Y66.037 E0.03537
G1 X128.015 Y65.773 E0.03580
G1 X92.026 Y65.766 E1.12840
G1 X90.522 Y66.190 E0.04901
G1 X89.497 Y66.883 E0.03881
G1 X88.711 Y67.830 E0.03859
G1 X82.335 Y80.608 E0.44774
G1 X78.481 Y88.707 E0.28123
G1 X78.193 Y89.837 E0.03656
G1 X78.179 Y90.227 E0.01224
G1 X78.990 Y96.341 E0.19337
G1 X79.368 Y96.338 F9000.000
G1 F1200.000
G1 X84.795 Y137.213 E1.29287
G1 X84.120 Y137.581 E0.02411
G1 X83.195 Y138.504 E0.04099
G1 X82.742 Y139.307 E0.02890
G1 X82.677 Y139.556 E0.00806
G1 E-3.50000 F3600.000
;WIPE_START
G1 F7200.000
G1 X82.742 Y139.307 E-0.12206
G1 X83.195 Y138.504 E-0.43781
G1 X84.120 Y137.581 E-0.62093
G1 X84.572 Y137.335 E-0.24420
;WIPE_END
G1 E-0.07500 F3600.000
G1 X82.677 Y139.556 F9000.000
G1 X82.677 Y139.556
G1 X82.482 Y141.944
G1 E5.00000 F2400.000
G1 F1200.000
G1 X82.497 Y149.876 E0.24870
G1 X82.712 Y150.759 E0.02851
G1 X83.128 Y151.586 E0.02901
G1 X83.970 Y152.507 E0.03914
G1 X84.603 Y152.965 E0.02450
G1 X86.195 Y153.460 E0.05227
G1 X93.733 Y153.460 E0.23636
G1 X93.970 Y153.432 E0.00748
G1 X94.737 Y153.439 E0.02404
G1 X95.308 Y153.365 E0.01807
G1 X95.953 Y153.047 E0.02256
G1 X96.717 Y152.670 F9000.000
G1 F1200.000
G1 X96.807 Y152.625 E0.00315
G1 X97.438 Y151.994 E0.02798
G1 X97.922 Y151.273 E0.02722
G1 X98.287 Y150.104 E0.03843
G1 X98.297 Y148.602 E0.04708
G1 X110.000 Y147.047 E0.37016
G1 X121.689 Y148.600 E0.36971
G1 X121.693 Y149.678 E0.03380
G1 X121.873 Y150.598 E0.02939
G1 X122.541 Y151.859 E0.04474
G1 X123.417 Y152.669 E0.03739
G1 X124.128 Y153.046 F9000.000
G1 F1200.000
G1 X124.881 Y153.375 E0.02576
G1 X125.530 Y153.460 E0.02052
G1 X126.916 Y153.460 E0.04347
G1 X127.151 Y153.432 E0.00739
G1 X127.791 Y153.460 E0.02009
G1 X130.687 Y153.460 E0.09081
G1 X130.921 Y153.432 E0.00740
G1 X131.562 Y153.460 E0.02009
G1 X132.950 Y153.460 E0.04352
G1 X133.205 Y153.430 E0.00807
G1 X134.299 Y153.402 E0.03431
G1 X135.063 Y153.184 E0.02490
G1 X135.833 Y152.763 E0.02750
G1 X136.616 Y152.033 E0.03358
G1 X137.078 Y151.391 E0.02479
G1 X137.527 Y149.960 E0.04702
G1 X137.525 Y142.052 E0.24796
G1 E-3.50000 F3600.000
;WIPE_START
G1 F7200.000
G1 X137.526 Y145.052 E-1.42500
;WIPE_END
G1 E-0.07500 F3600.000
G1 X137.525 Y142.052 F9000.000
G1 X137.525 Y142.052
G1 X137.324 Y139.753
G1 E5.00000 F2400.000
G1 F1200.000
G1 X136.832 Y138.669 E0.03733
G1 X135.946 Y137.717 E0.04077
G1 X135.194 Y137.290 E0.02711
G1 X140.691 Y95.908 E1.30888
G1 E-3.50000 F3600.000
;WIPE_START
G1 F7200.000
G1 X140.296 Y98.882 E-1.42500
;WIPE_END
G1 E-0.07500 F3600.000
G1 X140.691 Y95.908 F9000.000
G1 X140.691 Y95.908
G1 X141.388 Y90.660
G1 E5.00000 F2400.000
G1 F1200.000
G1 X141.443 Y90.246 E0.01311
G1 X141.441 Y89.949 E0.00931
G1 X141.171 Y88.852 E0.03543
G1 X137.350 Y80.823 E0.27880
G1 X134.259 Y74.560 E0.21898
G1 X130.944 Y67.988 E0.23078
G1 X129.915 Y66.888 E0.04725
G1 X128.969 Y66.381 E0.03363
G1 X127.993 Y66.150 E0.03145
G1 X92.053 Y66.143 E1.12688
G1 X90.656 Y66.543 E0.04556
G1 X89.733 Y67.178 E0.03514
G1 X89.039 Y68.018 E0.03415
G1 X82.673 Y80.775 E0.44702
G1 X78.829 Y88.852 E0.28047
G1 X78.564 Y89.907 E0.03412
G1 X78.556 Y90.221 E0.00983
G1 X78.616 Y90.671 E0.01425
G1 X78.996 Y90.681 F9000.000
G1 F1200.000
G1 X85.204 Y137.426 E1.47852
G1 X84.364 Y137.869 E0.02979
G1 X83.508 Y138.715 E0.03771
G1 X83.100 Y139.427 E0.02573
G1 X82.850 Y140.391 E0.03124
G1 X82.854 Y141.860 E0.04605
G1 E-3.50000 F3600.000
;WIPE_START
G1 F7200.000
G1 X82.850 Y140.391 E-0.69760
G1 X83.100 Y139.427 E-0.47320
G1 X83.367 Y138.962 E-0.25420
;WIPE_END
G1 E-0.07500 F3600.000
G1 X82.854 Y141.860 F9000.000
G1 X82.854 Y141.860
G1 X82.867 Y146.965
G1 E5.00000 F2400.000
G1 F1200.000
G1 X82.874 Y149.852 E0.09052
G1 X83.059 Y150.609 E0.02442
G1 X83.452 Y151.392 E0.02750
G1 X84.233 Y152.236 E0.03605
G1 X84.798 Y152.641 E0.02177
G1 X86.223 Y153.082 E0.04680
G1 X93.721 Y153.082 E0.23509
G1 X93.949 Y153.055 E0.00720
G1 X94.702 Y153.064 E0.02360
G1 X94.833 Y153.047 E0.00414
G1 X95.888 Y152.670 F9000.000
G1 F1200.000
G1 X96.562 Y152.337 E0.02357
G1 X97.158 Y151.741 E0.02641
G1 X97.593 Y151.087 E0.02462
G1 X97.910 Y150.073 E0.03332
G1 X97.922 Y148.272 E0.05647
G1 X109.772 Y146.685 E0.37484
G1 X110.000 Y146.670 E0.00718
G1 X110.228 Y146.685 E0.00717
G1 X122.066 Y148.271 E0.37449
G1 X122.066 Y149.624 E0.04244
G1 X122.238 Y150.497 E0.02790
G1 X122.858 Y151.651 E0.04107
G1 X123.783 Y152.495 E0.03925
G1 X124.184 Y152.669 E0.01371
G1 X125.267 Y153.046 F9000.000
G1 F1200.000
G1 X125.542 Y153.082 E0.00870
G1 X126.904 Y153.082 E0.04270
G1 X127.135 Y153.054 E0.00729
G1 X127.795 Y153.082 E0.02070
G1 X130.675 Y153.082 E0.09031
G1 X130.906 Y153.054 E0.00729
G1 X131.566 Y153.082 E0.02070
G1 X132.938 Y153.082 E0.04302
G1 X133.179 Y153.053 E0.00761
G1 X134.222 Y153.032 E0.03272
G1 X134.904 Y152.842 E0.02220
G1 X135.594 Y152.471 E0.02456
G1 X136.345 Y151.771 E0.03219
G1 X136.753 Y151.197 E0.02207
G1 X137.150 Y149.932 E0.04158
G1 X137.150 Y146.945 E0.09366
G1 E-3.50000 F3600.000
;WIPE_START
G1 F7200.000
G1 X137.150 Y149.932 E-1.41893
G1 X137.146 Y149.944 E-0.00607
;WIPE_END
G1 E-0.07500 F3600.000
G1 X137.150 Y146.945 F9000.000
G1 X137.150 Y146.945
G1 X137.150 Y142.019
G1 E5.00000 F2400.000
G1 F1200.000
G1 X137.150 Y140.702 E0.04130
G1 X137.071 Y140.108 E0.01879
G1 X136.502 Y138.854 E0.04319
G1 X135.693 Y137.999 E0.03690
G1 X134.787 Y137.496 E0.03250
G1 X141.004 Y90.687 E1.48055
G1 X140.842 Y89.077 F9000.000
G1 F1200.000
G1 X140.822 Y88.997 E0.00261
G1 X137.010 Y80.986 E0.27816
G1 X135.821 Y78.577 E0.08423
G1 E-3.50000 F3600.000
;WIPE_START
G1 F7200.000
G1 X137.010 Y80.986 E-1.27600
G1 X137.145 Y81.269 E-0.14900
;WIPE_END
G1 E-0.07500 F3600.000
G1 X135.821 Y78.577 F9000.000
G1 X135.821 Y78.577
G1 X129.719 Y67.216
G1 E5.00000 F2400.000
G1 F1200.000
G1 X129.691 Y67.195 E0.00109
G1 X129.209 Y66.933 F9000.000
G1 F1200.000
G1 X128.856 Y66.741 E0.01258
G1 X127.970 Y66.527 E0.02857
G1 X92.080 Y66.520 E1.12531
G1 X91.555 Y66.673 E0.01715
G1 X90.994 Y66.837 F9000.000
G1 F1200.000
G1 X90.793 Y66.896 E0.00657
G1 X90.643 Y67.001 E0.00574
G1 E-3.50000 F3600.000
;WIPE_START
G1 F7200.000
G1 X90.793 Y66.896 E-0.08699
G1 X90.994 Y66.837 E-0.09951
;WIPE_END
G1 E-1.31350 F3600.000
G1 X90.643 Y67.001 F9000.000
G1 X90.643 Y67.001
G1 X83.527 Y79.907
G1 E5.00000 F2400.000
G1 F1200.000
G1 X83.011 Y80.942 E0.03625
G1 X79.178 Y88.997 E0.27970
G1 X79.158 Y89.078 E0.00262
G1 X79.506 Y89.223 F9000.000
G1 F1200.000
G1 X79.312 Y90.004 E0.02524
G1 X79.309 Y90.175 E0.00536
G1 X85.620 Y137.696 E1.50309
G1 X85.365 Y137.769 E0.00833
G1 X84.606 Y138.160 E0.02675
G1 X83.821 Y138.928 E0.03445
G1 X83.458 Y139.549 E0.02257
G1 X83.227 Y140.416 E0.02811
G1 X83.240 Y146.903 E0.20341
G1 E-3.50000 F3600.000
;WIPE_START
G1 F7200.000
G1 X83.234 Y143.903 E-1.42500
;WIPE_END
G1 E-0.07500 F3600.000
G1 X83.240 Y146.903 F9000.000
G1 X83.240 Y146.903
G1 X94.808 Y152.670
G1 E5.00000 F2400.000
G1 F1200.000
G1 X95.150 Y152.625 E0.01078
G1 X96.317 Y152.048 E0.04084
G1 X96.877 Y151.488 E0.02483
G1 X97.263 Y150.902 E0.02201
G1 X97.533 Y150.042 E0.02826
G1 X97.548 Y147.942 E0.06586
G1 X109.734 Y146.310 E0.38551
G1 X110.000 Y146.292 E0.00836
G1 X110.266 Y146.310 E0.00835
G1 X122.444 Y147.941 E0.38523
G1 X122.444 Y149.605 E0.05219
G1 X122.602 Y150.394 E0.02524
G1 X123.172 Y151.441 E0.03739
G1 X124.011 Y152.193 E0.03531
G1 X125.033 Y152.635 E0.03490
G1 X125.286 Y152.669 E0.00801
G1 E-3.50000 F3600.000
;WIPE_START
G1 F7200.000
G1 X125.033 Y152.635 E-0.12130
G1 X124.011 Y152.193 E-0.52876
G1 X123.172 Y151.441 E-0.53486
G1 X122.930 Y150.998 E-0.24008
;WIPE_END
G1 E-0.07500 F3600.000
G1 X125.286 Y152.669 F9000.000
G1 X125.286 Y152.669
G1 X136.773 Y146.930
G1 E5.00000 F2400.000
G1 F1200.000
G1 X136.773 Y140.715 E0.19486
G1 X136.701 Y140.186 E0.01674
G1 X136.206 Y139.090 E0.03771
G1 X135.440 Y138.280 E0.03494
G1 X134.378 Y137.706 E0.03786
G1 X140.691 Y90.175 E1.50339
G1 X140.688 Y90.004 E0.00536
G1 X140.494 Y89.223 E0.02524
G1 E-3.50000 F3600.000
;WIPE_START
G1 F7200.000
G1 X140.688 Y90.004 E-0.38239
G1 X140.691 Y90.175 E-0.08118
G1 X140.425 Y92.181 E-0.96143
;WIPE_END
G1 E-0.07500 F3600.000
G1 X140.494 Y89.223 F9000.000
G1 X140.494 Y89.223
G1 X135.481 Y78.739
G1 E5.00000 F2400.000
G1 F1200.000
G1 X133.585 Y74.898 E0.13430
G1 X130.295 Y68.375 E0.22906
G1 X129.509 Y67.530 E0.03618
G1 X129.483 Y67.511 F9000.000
G1 F1200.000
G1 X129.075 Y67.285 E0.01462
G1 E-3.50000 F3600.000
;WIPE_START
G1 F7200.000
G1 X129.483 Y67.511 E-0.22155
;WIPE_END
G1 E-1.27845 F3600.000
G1 X129.075 Y67.285 F9000.000
G1 X129.075 Y67.285
G1 X91.552 Y67.058
G1 E5.00000 F2400.000
G1 F1200.000
G1 X91.182 Y67.165 E0.01207
