; generated by PrusaSlicer 2.3.3+win64 on 2022-02-22 at 10:28:34 UTC

; 

; external perimeters extrusion width = 0.45mm
; perimeters extrusion width = 0.45mm
; infill extrusion width = 0.45mm
; solid infill extrusion width = 0.45mm
; top infill extrusion width = 0.40mm
; first layer extrusion width = 0.42mm

M201 X500 Y500 Z100 E5000 ; sets maximum accelerations, mm/sec^2
M203 X500 Y500 Z10 E60 ; sets maximum feedrates, mm/sec
M204 P500 R1000 T500 ; sets acceleration (P, T) and retract acceleration (R), mm/sec^2
M205 X8.00 Y8.00 Z0.40 E5.00 ; sets the jerk limits, mm/sec
M205 S0 T0 ; sets the minimum extruding and travel feed rate, mm/sec
M107
;TYPE:Custom
G90 ; use absolute coordinates
M83 ; extruder relative mode
M140 S60 ; set final bed temp
M104 S150 ; set temporary nozzle temp to prevent oozing during homing
G4 S10 ; allow partial nozzle warmup
G28 ; home all axis
G1 Z50 F240
G1 X2 Y10 F3000
M104 S205 ; set final nozzle temp
M190 S60 ; wait for bed temp to stabilize
M109 S205 ; wait for nozzle temp to stabilize
G1 Z0.28 F240
G92 E0
G1 Y140 E10 F1500 ; prime the nozzle
G1 X2.3 F5000
G92 E0
G1 Y10 E10 F1200 ; prime the nozzle
G92 E0
G21 ; set units to millimeters
G90 ; use absolute coordinates
M83 ; use relative distances for extrusion
; Filament gcode
;LAYER_CHANGE
;Z:0.2
;HEIGHT:0.2
;BEFORE_LAYER_CHANGE
G92 E0
;0.2


G1 E-5.00000 F3600.000
G1 Z0.200 F9000.000
;AFTER_LAYER_CHANGE
;0.2
G1 X89.513 Y83.696
G1 E5.00000 F2400.000
M204 S500
;TYPE:Skirt
;WIDTH:0.42
G1 F1200.000
G1 X90.042 Y83.107 E0.02485
G1 X90.695 Y82.656 E0.02485
G1 X91.544 Y82.340 E0.02844
G1 X92.292 Y82.226 E0.02372
G1 X127.490 Y82.223 E1.10360
G1 X128.387 Y82.321 E0.02830
G1 X129.358 Y82.683 E0.03250
G1 X130.099 Y83.235 E0.02895
G1 X130.665 Y83.970 E0.02909
G1 X136.504 Y95.894 E0.41628
G1 X140.713 Y104.741 E0.30718
G1 X140.930 Y105.342 E0.02004
G1 X141.029 Y105.969 E0.01990
G1 X141.000 Y106.666 E0.02188
G1 X140.830 Y107.339 E0.02174
G1 X131.201 Y133.250 E0.86672
G1 X130.742 Y134.119 E0.03082
G1 X130.129 Y134.801 E0.02875
G1 X129.368 Y135.323 E0.02894
G1 X128.540 Y135.643 E0.02783
G1 X127.644 Y135.767 E0.02834
G1 X92.439 Y135.768 E1.10383
G1 X91.300 Y135.580 E0.03620
G1 X90.254 Y135.058 E0.03666
G1 X89.432 Y134.274 E0.03561
G1 X88.889 Y133.330 E0.03414
G1 X79.174 Y107.341 E0.86996
G1 X78.968 Y106.230 E0.03542
G1 X79.043 Y105.472 E0.02386
G1 X79.287 Y104.747 E0.02401
G1 X83.501 Y95.891 E0.30751
G1 X89.486 Y83.750 E0.42440
G1 E-3.50000 F3600.000
;WIPE_START
G1 F7200.000
G1 X90.042 Y83.107 E-0.40404
G1 X90.695 Y82.656 E-0.37652
G1 X91.544 Y82.340 E-0.43082
G1 X91.989 Y82.272 E-0.21363
;WIPE_END
G1 E-0.07500 F3600.000
G1 X89.486 Y83.750 F9000.000
G1 X89.486 Y83.750
G1 X80.018 Y110.138
G1 E5.00000 F2400.000
G1 F1200.000
G1 X79.903 Y110.075 E0.00412
G1 X79.062 Y109.340 E0.03501
G1 X78.385 Y108.402 E0.03628
G1 X77.962 Y107.280 E0.03760
G1 X77.790 Y106.043 E0.03914
G1 X78.109 Y104.111 E0.06140
G1 X82.008 Y95.919 E0.28445
G1 X88.385 Y83.140 E0.44782
G1 X89.185 Y82.157 E0.03973
G1 X90.220 Y81.415 E0.03992
G1 X92.002 Y80.887 E0.05829
G1 X128.039 Y80.894 E1.12992
G1 X129.240 Y81.174 E0.03865
G1 X130.328 Y81.751 E0.03861
G1 X131.595 Y83.099 E0.05800
G1 X134.994 Y89.839 E0.23671
G1 X138.020 Y95.972 E0.21441
G1 X141.894 Y104.111 E0.28263
G1 X142.213 Y106.043 E0.06140
G1 X142.047 Y107.239 E0.03786
G1 X141.869 Y107.885 E0.02100
G1 X140.841 Y109.445 E0.05857
G1 X139.997 Y110.122 E0.03394
G1 X139.482 Y110.424 F9000.000
G1 F1200.000
G1 X137.920 Y110.852 E0.05078
G1 X130.352 Y110.806 E0.23728
G1 X129.398 Y110.552 E0.03097
G1 X128.530 Y110.129 E0.03028
G1 X127.455 Y109.187 E0.04482
G1 X127.067 Y108.915 E0.01485
G1 X126.691 Y108.740 E0.01301
G1 X126.290 Y108.633 E0.01301
G1 X125.877 Y108.596 E0.01301
G1 X125.463 Y108.633 E0.01301
G1 X125.062 Y108.740 E0.01301
G1 X124.686 Y108.915 E0.01301
G1 X124.297 Y109.188 E0.01491
G1 X123.283 Y110.088 E0.04251
G1 X122.183 Y110.615 E0.03824
G1 X121.002 Y110.851 E0.03775
G1 X98.931 Y110.851 E0.69204
G1 X97.539 Y110.506 E0.04496
G1 X96.635 Y110.033 E0.03199
G1 X95.697 Y109.181 E0.03972
G1 X95.317 Y108.915 E0.01455
G1 X94.941 Y108.740 E0.01301
G1 X94.540 Y108.633 E0.01301
G1 X94.127 Y108.596 E0.01301
G1 X93.713 Y108.633 E0.01301
G1 X93.312 Y108.740 E0.01301
G1 X92.936 Y108.915 E0.01301
G1 X92.556 Y109.181 E0.01455
G1 X91.538 Y110.088 E0.04276
G1 X90.669 Y110.525 E0.03049
G1 X89.694 Y110.800 E0.03175
G1 X82.007 Y110.851 E0.24104
G1 X80.485 Y110.311 E0.05063
G1 X80.313 Y109.851 F9000.000
G1 F1200.000
G1 X82.039 Y110.474 E0.05753
G1 X89.616 Y110.431 E0.23760
G1 X90.548 Y110.167 E0.03036
G1 X91.344 Y109.764 E0.02799
G1 X92.321 Y108.886 E0.04116
G1 X92.747 Y108.587 E0.01632
G1 X93.183 Y108.384 E0.01508
G1 X93.647 Y108.260 E0.01508
G1 X94.127 Y108.218 E0.01508
G1 X94.606 Y108.260 E0.01508
G1 X95.070 Y108.384 E0.01508
G1 X95.506 Y108.587 E0.01508
G1 X95.933 Y108.886 E0.01633
G1 X96.870 Y109.737 E0.03968
G1 X97.692 Y110.161 E0.02900
G1 X98.954 Y110.474 E0.04077
G1 X120.984 Y110.474 E0.69075
G1 X122.044 Y110.264 E0.03387
G1 X123.053 Y109.788 E0.03499
G1 X124.063 Y108.892 E0.04233
G1 X124.497 Y108.587 E0.01662
G1 X124.933 Y108.384 E0.01508
G1 X125.397 Y108.260 E0.01508
G1 X125.877 Y108.218 E0.01508
G1 X126.356 Y108.260 E0.01508
G1 X126.820 Y108.384 E0.01508
G1 X127.256 Y108.587 E0.01508
G1 X127.689 Y108.891 E0.01657
G1 X128.720 Y109.802 E0.04314
G1 X129.515 Y110.194 E0.02780
G1 X130.380 Y110.429 E0.02810
G1 X137.896 Y110.475 E0.23568
G1 X139.346 Y110.078 E0.04711
G1 X139.688 Y109.870 E0.01256
G1 X140.252 Y109.435 F9000.000
G1 F1200.000
G1 X140.582 Y109.170 E0.01326
G1 X141.514 Y107.756 E0.05309
G1 X141.675 Y107.175 E0.01890
G1 X141.835 Y106.020 E0.03657
G1 X141.542 Y104.249 E0.05627
G1 X137.682 Y96.137 E0.28168
G1 X134.657 Y90.008 E0.21429
G1 X131.270 Y83.292 E0.23584
G1 X130.122 Y82.068 E0.05263
G1 X129.128 Y81.535 E0.03537
G1 X128.017 Y81.271 E0.03581
G1 X92.029 Y81.264 E1.12837
G1 X90.412 Y81.741 E0.05286
G1 X89.460 Y82.416 E0.03659
G1 X88.713 Y83.327 E0.03694
G1 X82.346 Y96.086 E0.44709
G1 X78.461 Y104.249 E0.28345
G1 X78.168 Y106.020 E0.05627
G1 X78.332 Y107.208 E0.03759
G1 X78.706 Y108.203 E0.03334
G1 X79.328 Y109.072 E0.03349
G1 X79.762 Y109.454 E0.01813
G1 X80.084 Y109.237 F9000.000
G1 F1200.000
G1 X80.348 Y109.463 E0.01089
G1 X82.071 Y110.097 E0.05758
G1 X89.539 Y110.061 E0.23413
G1 X90.427 Y109.809 E0.02896
G1 X91.150 Y109.440 E0.02544
G1 X92.084 Y108.591 E0.03959
G1 X92.558 Y108.260 E0.01811
G1 X93.053 Y108.029 E0.01715
G1 X93.582 Y107.887 E0.01715
G1 X94.127 Y107.839 E0.01715
G1 X94.671 Y107.887 E0.01715
G1 X95.200 Y108.029 E0.01715
G1 X95.695 Y108.260 E0.01715
G1 X96.169 Y108.591 E0.01811
G1 X97.104 Y109.440 E0.03961
G1 X97.843 Y109.815 E0.02597
G1 X98.977 Y110.097 E0.03664
G1 X120.966 Y110.097 E0.68945
G1 X121.906 Y109.912 E0.03006
G1 X122.824 Y109.487 E0.03170
G1 X123.829 Y108.595 E0.04213
G1 X124.308 Y108.260 E0.01834
G1 X124.803 Y108.029 E0.01715
G1 X125.332 Y107.887 E0.01715
G1 X125.877 Y107.839 E0.01715
G1 X126.421 Y107.887 E0.01715
G1 X126.950 Y108.029 E0.01715
G1 X127.445 Y108.260 E0.01715
G1 X127.924 Y108.595 E0.01832
G1 X128.911 Y109.476 E0.04148
G1 X129.635 Y109.836 E0.02536
G1 X130.408 Y110.053 E0.02517
G1 X137.873 Y110.097 E0.23406
G1 X139.173 Y109.742 E0.04227
G1 X139.553 Y109.513 E0.01391
G1 X139.935 Y109.206 E0.01536
G1 X140.622 Y108.440 F9000.000
G1 F1200.000
G1 X141.159 Y107.625 E0.03060
G1 X141.304 Y107.110 E0.01677
G1 X141.458 Y105.996 E0.03526
G1 X141.190 Y104.388 E0.05114
G1 X137.343 Y96.303 E0.28073
G1 X134.320 Y90.178 E0.21417
G1 X130.946 Y83.486 E0.23497
G1 X129.916 Y82.386 E0.04724
G1 X128.971 Y81.879 E0.03363
G1 X127.995 Y81.648 E0.03147
G1 X92.056 Y81.641 E1.12684
G1 X90.604 Y82.067 E0.04743
G1 X89.699 Y82.709 E0.03480
G1 X89.041 Y83.514 E0.03261
G1 X82.684 Y96.253 E0.44638
G1 X78.813 Y104.388 E0.28246
G1 X78.545 Y105.997 E0.05114
G1 X78.703 Y107.135 E0.03605
G1 X79.028 Y108.005 E0.02912
G1 X79.435 Y108.579 E0.02206
G1 X79.777 Y108.416 F9000.000
G1 F1200.000
G1 X79.862 Y108.537 E0.00463
G1 X80.530 Y109.128 E0.02798
G1 X82.105 Y109.720 E0.05275
G1 X89.461 Y109.691 E0.23063
G1 X90.306 Y109.452 E0.02755
G1 X90.954 Y109.117 E0.02286
G1 X91.847 Y108.297 E0.03804
G1 X92.368 Y107.932 E0.01994
G1 X92.924 Y107.673 E0.01922
G1 X93.516 Y107.514 E0.01922
G1 X94.127 Y107.461 E0.01922
G1 X94.737 Y107.514 E0.01922
G1 X95.329 Y107.673 E0.01922
G1 X95.885 Y107.932 E0.01922
G1 X96.406 Y108.297 E0.01994
G1 X97.300 Y109.117 E0.03805
G1 X97.957 Y109.455 E0.02317
G1 X99.001 Y109.720 E0.03376
G1 X120.947 Y109.720 E0.68811
G1 X121.809 Y109.547 E0.02758
G1 X122.638 Y109.158 E0.02869
G1 X123.593 Y108.300 E0.04027
G1 X124.118 Y107.932 E0.02011
G1 X124.674 Y107.673 E0.01922
G1 X125.266 Y107.514 E0.01922
G1 X125.877 Y107.461 E0.01922
G1 X126.487 Y107.514 E0.01922
G1 X127.079 Y107.673 E0.01922
G1 X127.635 Y107.932 E0.01922
G1 X128.160 Y108.300 E0.02010
G1 X129.103 Y109.151 E0.03984
G1 X129.758 Y109.479 E0.02296
G1 X130.437 Y109.676 E0.02218
G1 X137.849 Y109.720 E0.23241
G1 X139.002 Y109.405 E0.03747
G1 X139.327 Y109.211 E0.01188
G1 X140.064 Y108.619 E0.02962
G1 X140.269 Y108.306 E0.01174
G1 E-3.50000 F3600.000
;WIPE_START
G1 F7200.000
G1 X140.064 Y108.619 E-0.17778
G1 X139.327 Y109.211 E-0.44871
G1 X139.002 Y109.405 E-0.17991
G1 X137.849 Y109.720 E-0.56768
G1 X137.742 Y109.719 E-0.05092
;WIPE_END
G1 E-0.07500 F3600.000
G1 X140.269 Y108.306 F9000.000
G1 X140.269 Y108.306
G1 X140.848 Y104.586
G1 E5.00000 F2400.000
G1 F1200.000
G1 X140.839 Y104.526 E0.00190
G1 X137.004 Y96.469 E0.27978
G1 X135.783 Y93.995 E0.08650
G1 E-3.50000 F3600.000
;WIPE_START
G1 F7200.000
G1 X137.004 Y96.469 E-1.31048
G1 X137.108 Y96.686 E-0.11452
;WIPE_END
G1 E-0.07500 F3600.000
G1 X135.783 Y93.995 F9000.000
G1 X135.783 Y93.995
G1 X129.732 Y82.726
G1 E5.00000 F2400.000
G1 F1200.000
G1 X129.672 Y82.682 E0.00232
G1 X129.187 Y82.418 F9000.000
G1 F1200.000
G1 X128.858 Y82.239 E0.01174
G1 X127.972 Y82.025 E0.02858
G1 X92.082 Y82.018 E1.12529
G1 X91.729 Y82.121 E0.01154
G1 X91.096 Y82.306 F9000.000
G1 F1200.000
G1 X90.795 Y82.394 E0.00983
G1 X90.721 Y82.446 E0.00283
G1 E-3.50000 F3600.000
;WIPE_START
G1 F7200.000
G1 X90.795 Y82.394 E-0.04289
G1 X91.096 Y82.306 E-0.14887
;WIPE_END
G1 E-1.30824 F3600.000
G1 X90.721 Y82.446 F9000.000
G1 X90.721 Y82.446
G1 X83.669 Y95.124
G1 E5.00000 F2400.000
G1 F1200.000
G1 X83.022 Y96.420 E0.04540
G1 X79.165 Y104.526 E0.28147
G1 X79.155 Y104.586 E0.00190
G1 X79.506 Y104.724 F9000.000
G1 F1200.000
G1 X79.300 Y105.950 E0.03897
G1 X79.444 Y106.992 E0.03297
G1 X79.674 Y107.613 E0.02076
G1 X80.157 Y108.301 E0.02637
G1 X80.752 Y108.822 E0.02479
G1 X82.138 Y109.343 E0.04643
G1 X89.383 Y109.321 E0.22715
G1 X90.184 Y109.094 E0.02611
G1 X90.756 Y108.795 E0.02023
G1 X91.610 Y108.003 E0.03652
G1 X92.179 Y107.604 E0.02180
G1 X92.794 Y107.317 E0.02129
G1 X93.450 Y107.141 E0.02129
G1 X94.127 Y107.082 E0.02129
G1 X94.803 Y107.141 E0.02128
G1 X95.459 Y107.317 E0.02129
G1 X96.074 Y107.604 E0.02129
G1 X96.643 Y108.003 E0.02180
G1 X97.497 Y108.795 E0.03652
G1 X98.073 Y109.096 E0.02037
G1 X99.025 Y109.343 E0.03082
G1 X120.927 Y109.343 E0.68673
G1 X121.710 Y109.182 E0.02506
G1 X122.449 Y108.830 E0.02567
G1 X123.357 Y108.005 E0.03845
G1 X123.929 Y107.604 E0.02192
G1 X124.544 Y107.317 E0.02129
G1 X125.200 Y107.141 E0.02129
G1 X125.877 Y107.082 E0.02128
G1 X126.553 Y107.141 E0.02128
G1 X127.209 Y107.317 E0.02129
G1 X127.824 Y107.604 E0.02129
G1 X128.396 Y108.005 E0.02191
G1 X129.297 Y108.826 E0.03822
G1 X129.883 Y109.123 E0.02061
G1 X130.467 Y109.299 E0.01913
G1 X137.826 Y109.343 E0.23072
G1 X138.832 Y109.068 E0.03271
G1 X139.102 Y108.908 E0.00982
G1 X139.804 Y108.343 E0.02826
G1 X140.450 Y107.362 E0.03683
G1 X140.560 Y106.980 E0.01247
G1 X140.703 Y105.950 E0.03260
G1 X140.497 Y104.724 E0.03897
G1 E-3.50000 F3600.000
;WIPE_START
G1 F7200.000
G1 X140.703 Y105.950 E-0.59042
G1 X140.560 Y106.980 E-0.49384
G1 X140.450 Y107.362 E-0.18895
G1 X140.274 Y107.629 E-0.15179
;WIPE_END
G1 E-0.07500 F3600.000
G1 X140.497 Y104.724 F9000.000
G1 X140.497 Y104.724
G1 X135.444 Y94.160
G1 E5.00000 F2400.000
G1 F1200.000
G1 X133.645 Y90.514 E0.12747
G1 X130.296 Y83.873 E0.23321
G1 X129.521 Y83.039 E0.03570
G1 X129.465 Y82.998 F9000.000
G1 F1200.000
G1 X129.054 Y82.771 E0.01473
G1 E-3.50000 F3600.000
;WIPE_START
G1 F7200.000
G1 X129.465 Y82.998 E-0.22309
;WIPE_END
G1 E-1.27691 F3600.000
G1 X129.054 Y82.771 F9000.000
G1 X129.054 Y82.771
G1 X91.749 Y82.499
G1 E5.00000 F2400.000
G1 F1200.000
G1 X91.331 Y82.621 E0.01365
G1 X90.893 Y82.784 F9000.000
G1 F1200.000
G1 X90.245 Y83.231 E0.02469
G1 X89.696 Y83.891 E0.02691
G1 X84.007 Y95.291 E0.39950
G1 E-3.50000 F3600.000
;WIPE_START
G1 F7200.000
G1 X85.346 Y92.607 E-1.42500
;WIPE_END
G1 E-0.07500 F3600.000
G1 X84.007 Y95.291 F9000.000
G1 X84.007 Y95.291
G1 X80.975 Y108.516
G1 E5.00000 F2400.000
G1 F1200.000
G1 X80.423 Y108.033 E0.02298
G1 X79.998 Y107.418 E0.02344
G1 X79.815 Y106.920 E0.01664
G1 X79.678 Y105.927 E0.03143
G1 X79.868 Y104.803 E0.03575
G1 X83.699 Y96.753 E0.27951
G1 X90.023 Y84.080 E0.44411
G1 X90.516 Y83.495 E0.02398
G1 X91.170 Y83.050 E0.02478
G1 X92.135 Y82.772 E0.03150
G1 X127.924 Y82.779 E1.12213
G1 X128.623 Y82.958 E0.02264
G1 X129.289 Y83.331 E0.02394
G1 X129.971 Y84.067 E0.03144
G1 X133.308 Y90.683 E0.23235
G1 X136.327 Y96.800 E0.21386
G1 X140.135 Y104.803 E0.27789
G1 X140.325 Y105.927 E0.03575
G1 X140.189 Y106.914 E0.03124
G1 X140.096 Y107.229 E0.01029
G1 X139.545 Y108.068 E0.03148
G1 X138.877 Y108.605 E0.02687
G1 X138.664 Y108.729 E0.00773
G1 X137.802 Y108.966 E0.02803
G1 X130.548 Y108.929 E0.22744
G1 X130.038 Y108.779 E0.01669
G1 X129.491 Y108.502 E0.01922
G1 X128.634 Y107.711 E0.03656
G1 X128.013 Y107.276 E0.02376
G1 X127.338 Y106.961 E0.02335
G1 X126.619 Y106.769 E0.02335
G1 X125.877 Y106.704 E0.02335
G1 X125.135 Y106.769 E0.02335
G1 X124.415 Y106.961 E0.02336
G1 X123.740 Y107.276 E0.02335
G1 X123.119 Y107.711 E0.02376
G1 X122.259 Y108.504 E0.03668
G1 X121.609 Y108.818 E0.02263
G1 X120.907 Y108.966 E0.02249
G1 X99.050 Y108.966 E0.68532
G1 X98.192 Y108.737 E0.02783
G1 X97.697 Y108.475 E0.01757
G1 X96.882 Y107.710 E0.03505
G1 X96.263 Y107.276 E0.02370
G1 X95.588 Y106.961 E0.02335
G1 X94.869 Y106.769 E0.02335
G1 X94.127 Y106.704 E0.02335
G1 X93.385 Y106.769 E0.02335
G1 X92.665 Y106.961 E0.02335
G1 X91.990 Y107.276 E0.02335
G1 X91.371 Y107.710 E0.02370
G1 X90.556 Y108.475 E0.03505
G1 X90.062 Y108.737 E0.01754
G1 X89.305 Y108.951 E0.02465
G1 X82.172 Y108.965 E0.22366
G1 X81.031 Y108.537 E0.03821
G1 X81.198 Y108.210 F9000.000
G1 F1200.000
G1 X80.690 Y107.766 E0.02114
G1 X80.323 Y107.227 E0.02045
G1 X80.186 Y106.849 E0.01260
G1 X80.055 Y105.904 E0.02990
G1 X80.219 Y104.942 E0.03062
G1 X84.037 Y96.920 E0.27853
G1 X90.350 Y84.269 E0.44331
G1 X90.785 Y83.761 E0.02098
G1 X91.354 Y83.381 E0.02145
G1 X92.161 Y83.149 E0.02633
G1 X127.899 Y83.156 E1.12052
G1 X128.502 Y83.316 E0.01957
G1 X129.077 Y83.644 E0.02075
G1 X129.646 Y84.260 E0.02631
G1 X132.971 Y90.852 E0.23150
G1 X135.988 Y96.966 E0.21374
G1 X139.784 Y104.942 E0.27695
G1 X139.948 Y105.904 E0.03062
G1 X139.817 Y106.847 E0.02985
G1 X139.743 Y107.094 E0.00807
G1 X139.285 Y107.793 E0.02619
G1 X138.653 Y108.301 E0.02545
G1 X138.498 Y108.390 E0.00560
G1 X137.778 Y108.589 E0.02342
G1 X130.627 Y108.560 E0.22419
G1 X130.192 Y108.434 E0.01422
G1 X129.685 Y108.178 E0.01780
G1 X128.872 Y107.418 E0.03489
G1 X128.202 Y106.948 E0.02565
G1 X127.467 Y106.606 E0.02542
G1 X126.684 Y106.396 E0.02542
G1 X125.877 Y106.325 E0.02542
G1 X125.069 Y106.396 E0.02542
G1 X124.286 Y106.606 E0.02542
G1 X123.551 Y106.948 E0.02542
G1 X122.881 Y107.418 E0.02565
G1 X122.066 Y108.179 E0.03495
G1 X121.506 Y108.455 E0.01958
G1 X120.887 Y108.588 E0.01986
G1 X99.076 Y108.588 E0.68386
G1 X98.314 Y108.380 E0.02477
G1 X97.900 Y108.156 E0.01477
G1 X97.122 Y107.417 E0.03363
G1 X96.452 Y106.948 E0.02563
G1 X95.717 Y106.606 E0.02542
G1 X94.934 Y106.396 E0.02542
G1 X94.127 Y106.325 E0.02542
G1 X93.319 Y106.396 E0.02542
G1 X92.536 Y106.606 E0.02542
G1 X91.801 Y106.948 E0.02542
G1 X91.131 Y107.417 E0.02563
G1 X90.353 Y108.156 E0.03363
G1 X89.938 Y108.380 E0.01480
G1 X89.228 Y108.581 E0.02315
