; generated by PrusaSlicer 2.3.3+win64 on 2022-02-23 at 00:42:02 UTC

; 

; external perimeters extrusion width = 0.45mm
; perimeters extrusion width = 0.45mm
; infill extrusion width = 0.45mm
; solid infill extrusion width = 0.45mm
; top infill extrusion width = 0.40mm
; support material extrusion width = 0.38mm
; first layer extrusion width = 0.42mm

M201 X500 Y500 Z100 E5000 ; sets maximum accelerations, mm/sec^2
M203 X500 Y500 Z10 E60 ; sets maximum feedrates, mm/sec
M204 P500 R1000 T500 ; sets acceleration (P, T) and retract acceleration (R), mm/sec^2
M205 X8.00 Y8.00 Z0.40 E5.00 ; sets the jerk limits, mm/sec
M205 S0 T0 ; sets the minimum extruding and travel feed rate, mm/sec
M107
;TYPE:Custom
G90 ; use absolute coordinates
M83 ; extruder relative mode
M140 S60 ; set final bed temp
M104 S150 ; set temporary nozzle temp to prevent oozing during homing
G4 S10 ; allow partial nozzle warmup
G28 ; home all axis
G1 Z50 F240
G1 X2 Y10 F3000
M104 S205 ; set final nozzle temp
M190 S60 ; wait for bed temp to stabilize
M109 S205 ; wait for nozzle temp to stabilize
G1 Z0.28 F240
G92 E0
G1 Y140 E10 F1500 ; prime the nozzle
G1 X2.3 F5000
G92 E0
G1 Y10 E10 F1200 ; prime the nozzle
G92 E0
G21 ; set units to millimeters
G90 ; use absolute coordinates
M83 ; use relative distances for extrusion
; Filament gcode
;LAYER_CHANGE
;Z:0.2
;HEIGHT:0.2
;BEFORE_LAYER_CHANGE
G92 E0
;0.2


G1 E-5.00000 F3600.000
G1 Z0.200 F9000.000
;AFTER_LAYER_CHANGE
;0.2
G1 X85.253 Y85.253
G1 E5.00000 F2400.000
M204 S500
;TYPE:Skirt
;WIDTH:0.42
G1 F1200.000
G1 X90.557 Y80.901 E0.21511
G1 X96.607 Y77.667 E0.21511
G1 X103.172 Y75.675 E0.21511
G1 X110.004 Y75.003 E0.21525
G1 X116.827 Y75.675 E0.21497
G1 X123.393 Y77.667 E0.21511
G1 X129.443 Y80.901 E0.21511
G1 X134.747 Y85.253 E0.21511
G1 X139.099 Y90.557 E0.21511
G1 X142.333 Y96.607 E0.21511
G1 X144.325 Y103.172 E0.21511
G1 X144.997 Y110.000 E0.21511
G1 X144.325 Y116.827 E0.21511
G1 X142.333 Y123.393 E0.21511
G1 X139.099 Y129.443 E0.21511
G1 X134.747 Y134.747 E0.21511
G1 X129.443 Y139.099 E0.21511
G1 X123.393 Y142.333 E0.21511
G1 X116.828 Y144.325 E0.21511
G1 X110.000 Y144.997 E0.21511
G1 X103.173 Y144.325 E0.21511
G1 X96.607 Y142.333 E0.21511
G1 X90.557 Y139.099 E0.21511
G1 X85.253 Y134.747 E0.21511
G1 X80.901 Y129.443 E0.21511
G1 X77.667 Y123.393 E0.21511
G1 X75.675 Y116.828 E0.21511
G1 X75.003 Y110.000 E0.21511
G1 X75.675 Y103.173 E0.21511
G1 X77.667 Y96.607 E0.21511
G1 X80.901 Y90.557 E0.21511
G1 X85.215 Y85.300 E0.21323
G1 X84.490 Y84.129 F9000.000
G1 F1200.000
G1 X90.028 Y79.649 E0.22332
G1 X96.333 Y76.336 E0.22332
G1 X103.163 Y74.316 E0.22332
G1 X110.256 Y73.668 E0.22332
G1 X117.339 Y74.416 E0.22332
G1 X124.140 Y76.532 E0.22332
G1 X130.398 Y79.933 E0.22332
G1 X135.871 Y84.490 E0.22332
G1 X140.351 Y90.028 E0.22332
G1 X143.664 Y96.333 E0.22332
G1 X145.684 Y103.163 E0.22332
G1 X146.332 Y110.256 E0.22332
G1 X145.584 Y117.339 E0.22332
G1 X143.468 Y124.140 E0.22332
G1 X140.067 Y130.398 E0.22332
G1 X135.510 Y135.871 E0.22332
G1 X129.972 Y140.351 E0.22332
G1 X123.667 Y143.664 E0.22332
G1 X116.837 Y145.684 E0.22332
G1 X109.744 Y146.332 E0.22332
G1 X102.661 Y145.584 E0.22332
G1 X95.860 Y143.468 E0.22332
G1 X89.602 Y140.067 E0.22332
G1 X84.129 Y135.510 E0.22332
G1 X79.649 Y129.972 E0.22332
G1 X76.336 Y123.667 E0.22332
G1 X74.316 Y116.837 E0.22332
G1 X73.668 Y109.744 E0.22332
G1 X74.416 Y102.661 E0.22332
G1 X76.532 Y95.860 E0.22332
G1 X79.933 Y89.602 E0.22332
G1 X84.452 Y84.175 E0.22144
G1 X84.739 Y84.414 F9000.000
G1 F1200.000
G1 X90.220 Y79.974 E0.22115
G1 X96.458 Y76.692 E0.22100
G1 X103.216 Y74.690 E0.22100
G1 X110.235 Y74.045 E0.22100
G1 X117.245 Y74.782 E0.22100
G1 X123.976 Y76.872 E0.22100
G1 X130.171 Y80.235 E0.22100
G1 X135.590 Y84.742 E0.22100
G1 X140.026 Y90.220 E0.22100
G1 X143.308 Y96.458 E0.22100
G1 X145.310 Y103.216 E0.22100
G1 X145.955 Y110.235 E0.22100
G1 X145.218 Y117.245 E0.22100
G1 X143.128 Y123.976 E0.22100
G1 X139.765 Y130.171 E0.22100
G1 X135.258 Y135.590 E0.22100
G1 X129.780 Y140.026 E0.22100
G1 X123.542 Y143.308 E0.22100
G1 X116.784 Y145.310 E0.22100
G1 X109.765 Y145.955 E0.22100
G1 X102.755 Y145.218 E0.22100
G1 X96.024 Y143.128 E0.22100
G1 X89.829 Y139.765 E0.22100
G1 X84.410 Y135.258 E0.22100
G1 X79.974 Y129.780 E0.22100
G1 X76.692 Y123.542 E0.22100
G1 X74.690 Y116.784 E0.22100
G1 X74.045 Y109.765 E0.22100
G1 X74.782 Y102.755 E0.22100
G1 X76.872 Y96.024 E0.22100
G1 X80.235 Y89.829 E0.22100
G1 X84.701 Y84.460 E0.21897
G1 X84.988 Y84.698 F9000.000
G1 F1200.000
G1 X90.412 Y80.299 E0.21897
G1 X96.583 Y77.048 E0.21868
G1 X103.269 Y75.064 E0.21868
G1 X110.214 Y74.422 E0.21868
G1 X117.151 Y75.148 E0.21868
G1 X123.813 Y77.212 E0.21868
G1 X129.944 Y80.537 E0.21868
G1 X135.309 Y84.994 E0.21868
G1 X139.701 Y90.412 E0.21868
G1 X142.952 Y96.583 E0.21868
G1 X144.936 Y103.269 E0.21868
G1 X145.578 Y110.214 E0.21868
G1 X144.852 Y117.151 E0.21868
G1 X142.788 Y123.813 E0.21868
G1 X139.463 Y129.944 E0.21868
G1 X135.006 Y135.309 E0.21868
G1 X129.588 Y139.701 E0.21868
G1 X123.417 Y142.952 E0.21868
G1 X116.731 Y144.936 E0.21868
G1 X109.786 Y145.578 E0.21868
G1 X102.849 Y144.852 E0.21868
G1 X96.187 Y142.788 E0.21868
G1 X90.056 Y139.463 E0.21868
G1 X84.691 Y135.006 E0.21868
G1 X80.299 Y129.588 E0.21868
G1 X77.048 Y123.417 E0.21868
G1 X75.064 Y116.731 E0.21868
G1 X74.422 Y109.786 E0.21868
G1 X75.148 Y102.849 E0.21868
G1 X77.212 Y96.187 E0.21868
G1 X80.537 Y90.056 E0.21868
G1 X84.950 Y84.745 E0.21651
G1 E-3.50000 F3600.000
;WIPE_START
G1 F7200.000
G1 X87.277 Y82.851 E-1.42500
;WIPE_END
G1 E-0.07500 F3600.000
G1 X84.950 Y84.745 F9000.000
G1 X84.950 Y84.745
G1 X116.883 Y75.495
G1 E5.00000 F2400.000
G1 F1200.000
G1 X117.057 Y75.513 E0.00550
G1 X122.826 Y77.298 E0.18934
G1 X123.482 Y77.501 F9000.000
G1 F1200.000
G1 X123.650 Y77.553 E0.00550
G1 X128.960 Y80.429 E0.18935
G1 X129.563 Y80.756 F9000.000
G1 F1200.000
G1 X129.718 Y80.839 E0.00550
G1 X134.365 Y84.696 E0.18935
G1 X134.893 Y85.134 F9000.000
G1 F1200.000
G1 X135.028 Y85.246 E0.00550
G1 X138.833 Y89.935 E0.18934
G1 X139.266 Y90.468 F9000.000
G1 F1200.000
G1 X139.376 Y90.605 E0.00550
G1 X142.193 Y95.946 E0.18934
G1 X142.514 Y96.553 F9000.000
G1 F1200.000
G1 X142.595 Y96.708 E0.00550
G1 X144.317 Y102.497 E0.18935
G1 X144.512 Y103.155 F9000.000
G1 F1200.000
G1 X144.562 Y103.323 E0.00550
G1 X145.121 Y109.336 E0.18935
G1 X145.185 Y110.019 F9000.000
G1 F1200.000
G1 X145.201 Y110.194 E0.00550
G1 X144.576 Y116.200 E0.18935
G1 X144.505 Y116.883 F9000.000
G1 F1200.000
G1 X144.487 Y117.057 E0.00550
G1 X142.702 Y122.826 E0.18934
G1 X142.499 Y123.482 F9000.000
G1 F1200.000
G1 X142.447 Y123.650 E0.00550
G1 X139.571 Y128.960 E0.18935
G1 X139.244 Y129.563 F9000.000
G1 F1200.000
G1 X139.161 Y129.718 E0.00550
G1 X135.304 Y134.365 E0.18934
G1 X134.866 Y134.893 F9000.000
G1 F1200.000
G1 X134.754 Y135.028 E0.00550
G1 X130.065 Y138.833 E0.18935
G1 X129.532 Y139.266 F9000.000
G1 F1200.000
G1 X129.395 Y139.376 E0.00550
G1 X124.054 Y142.193 E0.18935
G1 X123.447 Y142.514 F9000.000
G1 F1200.000
G1 X123.292 Y142.595 E0.00550
G1 X117.503 Y144.317 E0.18935
G1 X116.845 Y144.512 F9000.000
G1 F1200.000
G1 X116.677 Y144.562 E0.00550
G1 X110.664 Y145.121 E0.18935
G1 X109.981 Y145.185 F9000.000
G1 F1200.000
G1 X109.806 Y145.201 E0.00550
G1 X103.799 Y144.576 E0.18936
G1 X103.117 Y144.505 F9000.000
G1 F1200.000
G1 X102.943 Y144.487 E0.00550
G1 X97.173 Y142.702 E0.18935
G1 X96.518 Y142.499 F9000.000
G1 F1200.000
G1 X96.350 Y142.447 E0.00550
G1 X91.040 Y139.571 E0.18935
G1 X90.437 Y139.244 F9000.000
G1 F1200.000
G1 X90.282 Y139.161 E0.00550
G1 X85.635 Y135.304 E0.18935
G1 X85.107 Y134.866 F9000.000
G1 F1200.000
G1 X84.972 Y134.754 E0.00550
G1 X81.167 Y130.065 E0.18934
G1 X80.734 Y129.532 F9000.000
G1 F1200.000
G1 X80.624 Y129.395 E0.00550
G1 X77.807 Y124.054 E0.18934
G1 X77.486 Y123.447 F9000.000
G1 F1200.000
G1 X77.405 Y123.292 E0.00550
G1 X75.683 Y117.503 E0.18934
G1 X75.488 Y116.845 F9000.000
G1 F1200.000
G1 X75.438 Y116.677 E0.00550
G1 X74.879 Y110.664 E0.18934
G1 X74.815 Y109.981 F9000.000
G1 F1200.000
G1 X74.799 Y109.806 E0.00550
G1 X75.424 Y103.799 E0.18936
G1 X75.495 Y103.117 F9000.000
G1 F1200.000
G1 X75.513 Y102.943 E0.00550
G1 X77.298 Y97.174 E0.18934
G1 X77.501 Y96.518 F9000.000
G1 F1200.000
G1 X77.553 Y96.350 E0.00550
G1 X80.429 Y91.040 E0.18934
G1 X80.756 Y90.437 F9000.000
G1 F1200.000
G1 X80.839 Y90.282 E0.00550
G1 X84.696 Y85.635 E0.18935
G1 X85.134 Y85.107 F9000.000
G1 F1200.000
G1 X85.246 Y84.972 E0.00550
G1 X89.935 Y81.167 E0.18935
G1 X90.468 Y80.734 F9000.000
G1 F1200.000
G1 X90.605 Y80.624 E0.00550
G1 X95.946 Y77.807 E0.18934
G1 X96.553 Y77.486 F9000.000
G1 F1200.000
G1 X96.708 Y77.405 E0.00550
G1 X102.497 Y75.683 E0.18935
G1 X103.155 Y75.488 F9000.000
G1 F1200.000
G1 X103.323 Y75.438 E0.00550
G1 X109.410 Y74.872 E0.19168
G1 X110.021 Y74.815 F9000.000
G1 F1200.000
G1 X110.194 Y74.799 E0.00542
G1 X116.193 Y75.423 E0.18911
G1 X116.871 Y76.245 F9000.000
G1 F1200.000
G1 X123.324 Y78.234 E0.21173
G1 X129.265 Y81.444 E0.21173
G1 X134.466 Y85.751 E0.21173
G1 X138.727 Y90.990 E0.21173
G1 X141.883 Y96.959 E0.21173
G1 X143.815 Y103.430 E0.21173
G1 X144.447 Y110.153 E0.21173
G1 X143.755 Y116.871 E0.21173
G1 X141.766 Y123.324 E0.21173
G1 X138.556 Y129.265 E0.21173
G1 X134.249 Y134.466 E0.21173
G1 X129.010 Y138.727 E0.21173
G1 X123.041 Y141.883 E0.21173
G1 X116.570 Y143.815 E0.21173
G1 X109.847 Y144.447 E0.21173
G1 X103.129 Y143.755 E0.21173
G1 X96.676 Y141.766 E0.21173
G1 X90.735 Y138.556 E0.21173
G1 X85.534 Y134.249 E0.21173
G1 X81.273 Y129.010 E0.21173
G1 X78.117 Y123.041 E0.21173
G1 X76.185 Y116.570 E0.21173
G1 X75.553 Y109.847 E0.21173
G1 X76.245 Y103.129 E0.21173
G1 X78.234 Y96.676 E0.21173
G1 X81.444 Y90.735 E0.21173
G1 X85.751 Y85.534 E0.21173
G1 X90.990 Y81.273 E0.21173
G1 X96.959 Y78.117 E0.21173
G1 X103.430 Y76.185 E0.21173
G1 X110.153 Y75.553 E0.21173
G1 X116.811 Y76.239 E0.20985
G1 X116.773 Y76.610 F9000.000
G1 F1200.000
G1 X123.161 Y78.575 E0.20956
G1 X129.039 Y81.746 E0.20941
G1 X134.185 Y86.003 E0.20941
G1 X138.402 Y91.183 E0.20941
G1 X141.528 Y97.085 E0.20941
G1 X143.441 Y103.484 E0.20941
G1 X144.070 Y110.133 E0.20941
G1 X143.389 Y116.778 E0.20941
G1 X141.425 Y123.161 E0.20941
G1 X138.254 Y129.039 E0.20941
G1 X133.997 Y134.185 E0.20941
G1 X128.817 Y138.402 E0.20941
G1 X122.915 Y141.528 E0.20941
G1 X116.516 Y143.441 E0.20941
G1 X109.867 Y144.070 E0.20941
G1 X103.222 Y143.389 E0.20941
G1 X96.839 Y141.425 E0.20941
G1 X90.961 Y138.254 E0.20941
G1 X85.815 Y133.997 E0.20941
G1 X81.598 Y128.817 E0.20941
G1 X78.472 Y122.915 E0.20941
G1 X76.559 Y116.516 E0.20941
G1 X75.930 Y109.867 E0.20941
G1 X76.611 Y103.222 E0.20941
G1 X78.575 Y96.839 E0.20941
G1 X81.746 Y90.961 E0.20941
G1 X86.003 Y85.815 E0.20941
G1 X91.183 Y81.598 E0.20941
G1 X97.085 Y78.472 E0.20941
G1 X103.484 Y76.559 E0.20941
G1 X110.133 Y75.930 E0.20941
G1 X116.713 Y76.604 E0.20738
G1 X116.675 Y76.976 F9000.000
G1 F1200.000
G1 X122.999 Y78.915 E0.20738
G1 X128.813 Y82.049 E0.20709
G1 X133.905 Y86.256 E0.20709
G1 X138.078 Y91.376 E0.20709
G1 X141.172 Y97.211 E0.20710
G1 X143.068 Y103.538 E0.20709
G1 X143.693 Y110.114 E0.20709
G1 X143.023 Y116.685 E0.20709
G1 X141.085 Y122.999 E0.20709
G1 X137.951 Y128.813 E0.20709
G1 X133.744 Y133.905 E0.20709
G1 X128.624 Y138.078 E0.20709
G1 X122.789 Y141.172 E0.20709
G1 X116.462 Y143.068 E0.20709
G1 X109.886 Y143.693 E0.20709
G1 X103.315 Y143.023 E0.20709
G1 X97.001 Y141.085 E0.20710
G1 X91.187 Y137.951 E0.20710
G1 X86.095 Y133.744 E0.20710
G1 X81.922 Y128.624 E0.20709
G1 X78.828 Y122.789 E0.20710
G1 X76.932 Y116.462 E0.20709
G1 X76.307 Y109.886 E0.20710
G1 X76.977 Y103.315 E0.20709
G1 X78.915 Y97.001 E0.20710
G1 X82.049 Y91.187 E0.20710
G1 X86.256 Y86.095 E0.20709
G1 X91.376 Y81.922 E0.20709
G1 X97.211 Y78.828 E0.20710
G1 X103.538 Y76.932 E0.20710
G1 X110.114 Y76.307 E0.20709
G1 X116.616 Y76.970 E0.20492
G1 X116.578 Y77.341 F9000.000
G1 F1200.000
G1 X122.836 Y79.256 E0.20521
G1 X128.588 Y82.351 E0.20478
G1 X133.624 Y86.509 E0.20478
G1 X137.753 Y91.569 E0.20478
G1 X140.816 Y97.338 E0.20478
G1 X142.694 Y103.593 E0.20478
G1 X143.316 Y110.094 E0.20478
G1 X142.657 Y116.592 E0.20478
G1 X140.744 Y122.836 E0.20478
G1 X137.649 Y128.588 E0.20478
G1 X133.491 Y133.624 E0.20478
G1 X128.431 Y137.753 E0.20478
G1 X122.662 Y140.816 E0.20478
G1 X116.407 Y142.694 E0.20478
G1 X109.906 Y143.316 E0.20478
G1 X103.408 Y142.657 E0.20478
G1 X97.164 Y140.744 E0.20478
G1 X91.412 Y137.649 E0.20478
G1 X86.376 Y133.491 E0.20478
G1 X82.247 Y128.431 E0.20478
G1 X79.184 Y122.662 E0.20478
G1 X77.306 Y116.407 E0.20478
G1 X76.684 Y109.906 E0.20478
G1 X77.343 Y103.408 E0.20478
G1 X79.256 Y97.164 E0.20478
G1 X82.351 Y91.412 E0.20478
G1 X86.509 Y86.376 E0.20478
G1 X91.569 Y82.247 E0.20478
G1 X97.338 Y79.184 E0.20478
G1 X103.593 Y77.306 E0.20478
G1 X110.094 Y76.684 E0.20478
G1 X116.518 Y77.335 E0.20245
G1 X116.481 Y77.707 F9000.000
G1 F1200.000
G1 X122.674 Y79.597 E0.20304
G1 X128.362 Y82.654 E0.20246
G1 X133.344 Y86.762 E0.20246
G1 X137.429 Y91.763 E0.20246
G1 X140.460 Y97.464 E0.20246
G1 X142.321 Y103.647 E0.20246
G1 X142.939 Y110.075 E0.20246
G1 X142.291 Y116.500 E0.20246
G1 X140.403 Y122.674 E0.20246
G1 X137.346 Y128.362 E0.20246
G1 X133.238 Y133.344 E0.20246
G1 X128.237 Y137.429 E0.20246
G1 X122.536 Y140.460 E0.20246
G1 X116.353 Y142.321 E0.20246
G1 X109.925 Y142.939 E0.20246
G1 X103.500 Y142.291 E0.20246
G1 X97.326 Y140.403 E0.20246
G1 X91.638 Y137.346 E0.20246
G1 X86.656 Y133.238 E0.20246
G1 X82.571 Y128.237 E0.20246
G1 X79.540 Y122.536 E0.20246
G1 X77.679 Y116.353 E0.20246
G1 X77.061 Y109.925 E0.20246
G1 X77.709 Y103.500 E0.20246
G1 X79.597 Y97.326 E0.20246
G1 X82.654 Y91.638 E0.20246
G1 X86.762 Y86.656 E0.20246
G1 X91.763 Y82.571 E0.20246
G1 X97.464 Y79.540 E0.20246
G1 X103.647 Y77.679 E0.20246
G1 X110.075 Y77.061 E0.20246
G1 X116.421 Y77.701 E0.19999
G1 X116.384 Y78.072 F9000.000
G1 F1200.000
G1 X122.512 Y79.938 E0.20087
G1 X128.137 Y82.957 E0.20014
G1 X133.064 Y87.015 E0.20014
G1 X137.105 Y91.956 E0.20014
G1 X140.105 Y97.591 E0.20014
G1 X141.947 Y103.702 E0.20014
G1 X142.562 Y110.056 E0.20014
G1 X141.925 Y116.407 E0.20014
G1 X140.062 Y122.512 E0.20014
G1 X137.043 Y128.137 E0.20014
G1 X132.985 Y133.064 E0.20014
G1 X128.044 Y137.105 E0.20014
G1 X122.409 Y140.105 E0.20014
G1 X116.298 Y141.947 E0.20014
G1 X109.944 Y142.562 E0.20014
G1 X103.593 Y141.925 E0.20014
G1 X97.488 Y140.062 E0.20014
G1 X91.863 Y137.043 E0.20014
G1 X86.936 Y132.985 E0.20014
G1 X82.895 Y128.044 E0.20014
G1 X79.895 Y122.409 E0.20014
G1 X78.053 Y116.298 E0.20014
G1 X77.438 Y109.944 E0.20014
G1 X78.075 Y103.593 E0.20014
G1 X79.938 Y97.488 E0.20014
G1 X82.957 Y91.863 E0.20014
G1 X87.015 Y86.936 E0.20014
G1 X91.956 Y82.895 E0.20014
G1 X97.591 Y79.895 E0.20014
G1 X103.702 Y78.053 E0.20014
G1 X110.056 Y77.438 E0.20014
G1 X116.324 Y78.066 E0.19752
G1 X116.287 Y78.438 F9000.000
G1 F1200.000
G1 X122.351 Y80.279 E0.19869
G1 X127.912 Y83.260 E0.19782
G1 X132.784 Y87.268 E0.19782
G1 X136.781 Y92.150 E0.19782
G1 X139.749 Y97.718 E0.19782
G1 X141.574 Y103.757 E0.19782
G1 X142.185 Y110.037 E0.19782
G1 X141.559 Y116.315 E0.19782
G1 X139.721 Y122.351 E0.19782
G1 X136.740 Y127.912 E0.19782
G1 X132.732 Y132.784 E0.19782
G1 X127.850 Y136.781 E0.19782
G1 X122.282 Y139.749 E0.19782
G1 X116.243 Y141.574 E0.19782
G1 X109.963 Y142.185 E0.19782
G1 X103.685 Y141.559 E0.19782
G1 X97.649 Y139.721 E0.19782
G1 X92.088 Y136.740 E0.19782
G1 X87.216 Y132.732 E0.19782
G1 X83.219 Y127.850 E0.19782
G1 X80.251 Y122.282 E0.19782
G1 X78.427 Y116.243 E0.19782
G1 X77.815 Y109.963 E0.19782
G1 X78.441 Y103.685 E0.19782
G1 X80.279 Y97.649 E0.19782
G1 X83.260 Y92.088 E0.19782
G1 X87.268 Y87.216 E0.19782
G1 X92.150 Y83.219 E0.19782
G1 X97.718 Y80.251 E0.19782
G1 X103.757 Y78.426 E0.19782
G1 X110.037 Y77.815 E0.19782
G1 X116.227 Y78.432 E0.19506
G1 X116.191 Y78.804 F9000.000
G1 F1200.000
G1 X122.189 Y80.621 E0.19652
G1 X127.687 Y83.563 E0.19551
G1 X132.504 Y87.522 E0.19551
G1 X136.457 Y92.344 E0.19551
G1 X139.393 Y97.845 E0.19551
G1 X141.200 Y103.813 E0.19551
G1 X141.808 Y110.018 E0.19551
G1 X141.193 Y116.223 E0.19551
G1 X139.379 Y122.189 E0.19551
