; generated by PrusaSlicer 2.3.3+win64 on 2022-02-26 at 09:35:34 UTC

; 

; external perimeters extrusion width = 0.45mm
; perimeters extrusion width = 0.45mm
; infill extrusion width = 0.45mm
; solid infill extrusion width = 0.45mm
; top infill extrusion width = 0.40mm
; first layer extrusion width = 0.42mm

M201 X500 Y500 Z100 E5000 ; sets maximum accelerations, mm/sec^2
M203 X500 Y500 Z10 E60 ; sets maximum feedrates, mm/sec
M204 P500 R1000 T500 ; sets acceleration (P, T) and retract acceleration (R), mm/sec^2
M205 X8.00 Y8.00 Z0.40 E5.00 ; sets the jerk limits, mm/sec
M205 S0 T0 ; sets the minimum extruding and travel feed rate, mm/sec
M107
;TYPE:Custom
G90 ; use absolute coordinates
M83 ; extruder relative mode
M140 S60 ; set final bed temp
M104 S150 ; set temporary nozzle temp to prevent oozing during homing
G4 S10 ; allow partial nozzle warmup
G28 ; home all axis
G1 Z50 F240
G1 X2 Y10 F3000
M104 S205 ; set final nozzle temp
M190 S60 ; wait for bed temp to stabilize
M109 S205 ; wait for nozzle temp to stabilize
G1 Z0.28 F240
G92 E0
G1 Y140 E10 F1500 ; prime the nozzle
G1 X2.3 F5000
G92 E0
G1 Y10 E10 F1200 ; prime the nozzle
G92 E0
G21 ; set units to millimeters
G90 ; use absolute coordinates
M83 ; use relative distances for extrusion
; Filament gcode
;LAYER_CHANGE
;Z:0.2
;HEIGHT:0.2
;BEFORE_LAYER_CHANGE
G92 E0
;0.2


G1 E-5.00000 F3600.000
G1 Z0.200 F9000.000
;AFTER_LAYER_CHANGE
;0.2
G1 X89.929 Y68.917
G1 E5.00000 F2400.000
M204 S500
;TYPE:Skirt
;WIDTH:0.42
G1 F1200.000
G1 X90.824 Y68.297 E0.03416
G1 X91.653 Y68.018 E0.02742
G1 X92.391 Y67.929 E0.02330
G1 X127.426 Y67.928 E1.09851
G1 X128.348 Y68.017 E0.02904
G1 X129.332 Y68.374 E0.03281
G1 X130.087 Y68.929 E0.02937
G1 X130.661 Y69.669 E0.02937
G1 X136.504 Y81.599 E0.41652
G1 X140.916 Y90.871 E0.32195
G1 X141.126 Y91.446 E0.01919
G1 X141.230 Y92.054 E0.01933
G1 X141.211 Y92.756 E0.02202
G1 X133.982 Y146.837 E1.71074
G1 X133.588 Y148.103 E0.04159
G1 X132.936 Y149.108 E0.03755
G1 X132.453 Y149.604 E0.02170
G1 X131.895 Y150.017 E0.02178
G1 X130.788 Y150.526 E0.03819
G1 X129.681 Y150.708 E0.03518
G1 X90.467 Y150.712 E1.22951
G1 X89.457 Y150.591 E0.03191
G1 X88.555 Y150.267 E0.03007
G1 X87.626 Y149.668 E0.03464
G1 X86.907 Y148.913 E0.03268
G1 X86.378 Y148.020 E0.03255
G1 X86.050 Y146.967 E0.03459
G1 X78.789 Y92.731 E1.71571
G1 X78.806 Y91.781 E0.02979
G1 X79.087 Y90.873 E0.02979
G1 X83.497 Y81.604 E0.32184
G1 X89.277 Y69.789 E0.41239
G1 X89.893 Y68.965 E0.03228
G1 E-3.50000 F3600.000
;WIPE_START
G1 F7200.000
G1 X90.824 Y68.297 E-0.54454
G1 X91.653 Y68.018 E-0.41537
G1 X92.391 Y67.929 E-0.35295
G1 X92.627 Y67.929 E-0.11213
;WIPE_END
G1 E-0.07500 F3600.000
G1 X89.893 Y68.965 F9000.000
G1 X89.893 Y68.965
G1 X128.006 Y66.597
G1 E5.00000 F2400.000
G1 F1200.000
G1 X129.174 Y66.853 E0.03752
G1 X130.301 Y67.437 E0.03979
G1 X131.593 Y68.799 E0.05885
G1 X134.992 Y75.540 E0.23672
G1 X138.027 Y81.690 E0.21501
G1 X141.891 Y89.811 E0.28200
G1 X142.199 Y91.245 E0.04599
G1 X134.812 Y147.118 E1.76708
G1 X134.377 Y148.485 E0.04498
G1 X133.617 Y149.654 E0.04373
G1 X132.549 Y150.624 E0.04521
G1 X131.333 Y151.253 E0.04295
G1 X129.964 Y151.561 E0.04399
G1 X128.889 Y151.547 E0.03370
G1 X128.594 Y151.489 E0.00941
G1 X124.156 Y150.898 E0.14040
G1 E-3.50000 F3600.000
;WIPE_START
G1 F7200.000
G1 X127.130 Y151.294 E-1.42500
;WIPE_END
G1 E-0.07500 F3600.000
G1 X124.156 Y150.898 F9000.000
G1 X124.156 Y150.898
G1 X121.330 Y150.521
G1 E5.00000 F2400.000
G1 F1200.000
G1 X110.002 Y149.011 E0.35831
G1 X98.687 Y150.523 E0.35792
G1 E-3.50000 F3600.000
;WIPE_START
G1 F7200.000
G1 X101.661 Y150.126 E-1.42500
;WIPE_END
G1 E-0.07500 F3600.000
G1 X98.687 Y150.523 F9000.000
G1 X98.687 Y150.523
G1 X95.864 Y150.900
G1 E5.00000 F2400.000
G1 F1200.000
G1 X90.948 Y151.558 E0.15552
G1 X90.090 Y151.563 E0.02689
G1 X89.214 Y151.424 E0.02782
G1 X87.948 Y150.931 E0.04258
G1 X86.331 Y149.594 E0.06578
G1 X85.593 Y148.414 E0.04363
G1 X85.191 Y147.118 E0.04255
G1 X77.792 Y91.586 E1.75655
G1 X78.120 Y89.793 E0.05717
G1 X81.998 Y81.644 E0.28294
G1 X88.390 Y68.835 E0.44887
G1 X89.376 Y67.694 E0.04728
G1 X90.682 Y66.908 E0.04778
G1 X91.572 Y66.654 E0.02903
G1 X92.502 Y66.592 E0.02922
G1 X128.006 Y66.597 E1.11319
G1 E-3.50000 F3600.000
;WIPE_START
G1 F7200.000
G1 X125.006 Y66.596 E-1.42500
;WIPE_END
G1 E-0.07500 F3600.000
G1 X128.006 Y66.597 F9000.000
G1 X128.006 Y66.597
G1 X92.507 Y66.969
G1 E5.00000 F2400.000
G1 F1200.000
G1 X127.984 Y66.974 E1.11235
G1 X129.067 Y67.216 E0.03478
G1 X130.098 Y67.756 E0.03650
G1 X131.268 Y68.993 E0.05339
G1 X134.655 Y75.709 E0.23583
G1 X137.688 Y81.855 E0.21489
G1 X141.541 Y89.953 E0.28116
G1 X141.823 Y91.291 E0.04290
G1 X134.441 Y147.051 E1.76357
G1 X134.026 Y148.345 E0.04259
G1 X133.315 Y149.427 E0.04060
G1 X132.353 Y150.301 E0.04076
G1 X131.224 Y150.891 E0.03993
G1 X129.945 Y151.183 E0.04116
G1 X128.944 Y151.174 E0.03136
G1 X128.656 Y151.117 E0.00922
G1 X127.007 Y150.897 E0.05214
G1 E-3.50000 F3600.000
;WIPE_START
G1 F7200.000
G1 X128.656 Y151.117 E-0.78994
G1 X128.944 Y151.174 E-0.13975
G1 X129.945 Y151.183 E-0.47513
G1 X129.986 Y151.174 E-0.02019
;WIPE_END
G1 E-0.07500 F3600.000
G1 X127.007 Y150.897 F9000.000
G1 X127.007 Y150.897
G1 X124.181 Y150.520
G1 E5.00000 F2400.000
G1 F1200.000
G1 X110.002 Y148.630 E0.44851
G1 X95.839 Y150.523 E0.44802
G1 E-3.50000 F3600.000
;WIPE_START
G1 F7200.000
G1 X98.812 Y150.126 E-1.42500
;WIPE_END
G1 E-0.07500 F3600.000
G1 X95.839 Y150.523 F9000.000
G1 X95.839 Y150.523
G1 X93.016 Y150.901
G1 E5.00000 F2400.000
G1 F1200.000
G1 X90.910 Y151.182 E0.06662
G1 X90.104 Y151.186 E0.02526
G1 X89.294 Y151.055 E0.02572
G1 X88.114 Y150.591 E0.03976
G1 X86.634 Y149.367 E0.06023
G1 X85.946 Y148.278 E0.04040
G1 X85.562 Y147.052 E0.04026
G1 X78.170 Y91.566 E1.75510
G1 X78.471 Y89.933 E0.05208
G1 X82.336 Y81.811 E0.28201
G1 X88.717 Y69.025 E0.44805
G1 X89.640 Y67.965 E0.04408
G1 X90.852 Y67.246 E0.04418
G1 X91.653 Y67.022 E0.02609
G1 X92.507 Y66.969 E0.02683
G1 E-3.50000 F3600.000
;WIPE_START
G1 F7200.000
G1 X91.653 Y67.022 E-0.40647
G1 X90.852 Y67.246 E-0.39524
G1 X89.723 Y67.915 E-0.62329
;WIPE_END
G1 E-0.07500 F3600.000
G1 X92.507 Y66.969 F9000.000
G1 X92.507 Y66.969
G1 X78.613 Y92.038
G1 E5.00000 F2400.000
G1 F1200.000
G1 X78.547 Y91.546 E0.01554
G1 X78.822 Y90.073 E0.04700
G1 X82.676 Y81.975 E0.28119
G1 X89.043 Y69.215 E0.44711
G1 X89.903 Y68.236 E0.04086
G1 X90.977 Y67.602 E0.03909
G1 X91.735 Y67.391 E0.02467
G1 X92.512 Y67.346 E0.02443
G1 X127.963 Y67.351 E1.11152
G1 X128.958 Y67.578 E0.03200
G1 X129.893 Y68.075 E0.03320
G1 X130.944 Y69.187 E0.04799
G1 X134.318 Y75.878 E0.23495
G1 X137.349 Y82.021 E0.21477
G1 X141.191 Y90.094 E0.28032
G1 X141.448 Y91.336 E0.03978
G1 X141.382 Y91.828 E0.01554
G1 E-3.50000 F3600.000
;WIPE_START
G1 F7200.000
G1 X141.448 Y91.336 E-0.23547
G1 X141.191 Y90.094 E-0.60261
G1 X140.660 Y88.978 E-0.58692
;WIPE_END
G1 E-0.07500 F3600.000
G1 X141.382 Y91.828 F9000.000
G1 X141.382 Y91.828
G1 X127.032 Y150.520
G1 E5.00000 F2400.000
G1 F1200.000
G1 X110.002 Y148.250 E0.53870
G1 X92.991 Y150.524 E0.53812
G1 E-3.50000 F3600.000
;WIPE_START
G1 F7200.000
G1 X95.964 Y150.126 E-1.42500
;WIPE_END
G1 E-0.07500 F3600.000
G1 X92.991 Y150.524 F9000.000
G1 X92.991 Y150.524
G1 X78.990 Y92.016
G1 E5.00000 F2400.000
G1 F1200.000
G1 X86.306 Y146.921 E1.73671
G1 X86.629 Y147.959 E0.03408
G1 X87.237 Y148.911 E0.03544
G1 X88.449 Y149.913 E0.04928
G1 X89.459 Y150.318 E0.03415
G1 X90.135 Y150.432 E0.02149
G1 X90.835 Y150.431 E0.02193
G1 X109.774 Y147.888 E0.59917
G1 X110.002 Y147.873 E0.00716
G1 X110.230 Y147.888 E0.00717
G1 X128.779 Y150.373 E0.58677
G1 X129.054 Y150.427 E0.00881
G1 X129.904 Y150.429 E0.02663
G1 X130.964 Y150.184 E0.03412
G1 X131.922 Y149.682 E0.03393
G1 X132.743 Y148.936 E0.03478
G1 X133.346 Y148.019 E0.03441
G1 X133.698 Y146.919 E0.03621
G1 X141.007 Y91.869 E1.74120
G1 X140.854 Y90.302 F9000.000
G1 F1200.000
G1 X140.840 Y90.235 E0.00215
G1 X137.010 Y82.187 E0.27945
G1 X135.782 Y79.697 E0.08705
G1 E-3.50000 F3600.000
;WIPE_START
G1 F7200.000
G1 X137.010 Y82.187 E-1.31870
G1 X137.106 Y82.389 E-0.10630
;WIPE_END
G1 E-0.07500 F3600.000
G1 X135.782 Y79.697 F9000.000
G1 X135.782 Y79.697
G1 X129.716 Y68.422
G1 E5.00000 F2400.000
G1 F1200.000
G1 X129.639 Y68.366 E0.00299
G1 X129.182 Y68.119 F9000.000
G1 F1200.000
G1 X128.847 Y67.939 E0.01192
G1 X127.941 Y67.728 E0.02918
G1 X92.518 Y67.723 E1.11066
G1 X91.778 Y67.766 E0.02325
G1 X91.104 Y67.958 E0.02195
G1 X90.929 Y68.063 E0.00640
G1 X90.217 Y68.488 F9000.000
G1 F1200.000
G1 X90.103 Y68.567 E0.00435
G1 E-3.50000 F3600.000
;WIPE_START
G1 F7200.000
G1 X90.217 Y68.488 E-0.06595
;WIPE_END
G1 E-1.43405 F3600.000
G1 X90.103 Y68.567 F9000.000
G1 X90.103 Y68.567
G1 X83.534 Y81.099
G1 E5.00000 F2400.000
G1 F1200.000
G1 X83.016 Y82.138 E0.03641
G1 X79.173 Y90.213 E0.28038
G1 X79.161 Y90.277 E0.00205
G1 X79.512 Y90.418 F9000.000
G1 F1200.000
G1 X79.303 Y91.507 E0.03476
G1 X86.677 Y146.855 E1.75072
G1 X86.981 Y147.821 E0.03174
G1 X87.538 Y148.682 E0.03216
G1 X88.617 Y149.575 E0.04392
G1 X89.543 Y149.950 E0.03131
G1 X90.182 Y150.057 E0.02033
G1 X90.796 Y150.056 E0.01927
G1 X109.736 Y147.513 E0.59918
G1 X110.002 Y147.495 E0.00834
G1 X110.268 Y147.513 E0.00835
G1 X128.840 Y150.000 E0.58753
G1 X129.109 Y150.053 E0.00858
G1 X129.881 Y150.052 E0.02421
G1 X130.853 Y149.823 E0.03131
G1 X131.724 Y149.360 E0.03094
G1 X132.443 Y148.707 E0.03044
G1 X132.995 Y147.877 E0.03126
G1 X133.326 Y146.852 E0.03378
G1 X140.696 Y91.422 E1.75326
G1 X140.502 Y90.441 E0.03135
G1 E-3.50000 F3600.000
;WIPE_START
G1 F7200.000
G1 X140.696 Y91.422 E-0.47489
G1 X140.432 Y93.405 E-0.95011
;WIPE_END
G1 E-0.07500 F3600.000
G1 X140.502 Y90.441 F9000.000
G1 X140.502 Y90.441
G1 X135.443 Y79.862
G1 E5.00000 F2400.000
G1 F1200.000
G1 X133.644 Y76.216 E0.12748
G1 X130.295 Y69.575 E0.23320
G1 X129.506 Y68.736 E0.03613
G1 X129.432 Y68.682 F9000.000
G1 F1200.000
G1 X129.051 Y68.473 E0.01364
G1 E-3.50000 F3600.000
;WIPE_START
G1 F7200.000
G1 X129.432 Y68.682 E-0.20670
;WIPE_END
G1 E-1.29330 F3600.000
G1 X129.051 Y68.473 F9000.000
G1 X129.051 Y68.473
G1 X91.065 Y68.415
G1 E5.00000 F2400.000
G1 F1200.000
G1 X90.432 Y68.797 E0.02319
G1 X90.326 Y68.871 F9000.000
G1 F1200.000
G1 X89.697 Y69.594 E0.03008
G1 X83.874 Y81.263 E0.40888
G1 E-3.50000 F3600.000
;WIPE_START
G1 F7200.000
G1 X85.214 Y78.579 E-1.42500
;WIPE_END
G1 E-0.07500 F3600.000
G1 X83.874 Y81.263 F9000.000
G1 X83.874 Y81.263
G1 X79.681 Y91.488
G1 E5.00000 F2400.000
G1 F1200.000
G1 X79.875 Y90.494 E0.03174
G1 X83.695 Y82.466 E0.27879
G1 X90.023 Y69.785 E0.44434
G1 X90.606 Y69.123 E0.02768
G1 X91.362 Y68.668 E0.02764
G1 X91.902 Y68.510 E0.01767
G1 X92.527 Y68.477 E0.01962
G1 X127.895 Y68.482 E1.10893
G1 X128.619 Y68.659 E0.02336
G1 X129.269 Y69.022 E0.02336
G1 X129.970 Y69.769 E0.03212
G1 X133.307 Y76.385 E0.23233
G1 X136.333 Y82.518 E0.21442
G1 X140.138 Y90.515 E0.27768
G1 X140.320 Y91.463 E0.03026
G1 X132.955 Y146.785 E1.74990
G1 X132.645 Y147.736 E0.03135
G1 X132.171 Y148.445 E0.02676
G1 X131.524 Y149.040 E0.02755
G1 X130.740 Y149.462 E0.02793
G1 X129.856 Y149.675 E0.02851
G1 X129.162 Y149.679 E0.02174
G1 X128.902 Y149.628 E0.00833
G1 X110.305 Y147.137 E0.58829
G1 X110.002 Y147.117 E0.00953
G1 X109.699 Y147.137 E0.00952
G1 X90.759 Y149.681 E0.59917
G1 X90.199 Y149.680 E0.01756
G1 X89.628 Y149.582 E0.01817
G1 X88.787 Y149.237 E0.02850
G1 X87.837 Y148.451 E0.03866
G1 X87.332 Y147.681 E0.02887
G1 X87.049 Y146.788 E0.02937
G1 X79.689 Y91.548 E1.74734
G1 X80.063 Y91.498 F9000.000
G1 F1200.000
G1 X80.225 Y90.636 E0.02750
G1 X84.035 Y82.629 E0.27801
G1 X90.349 Y69.975 E0.44342
G1 X90.828 Y69.429 E0.02277
G1 X91.492 Y69.023 E0.02440
G1 X91.986 Y68.879 E0.01613
G1 X92.531 Y68.854 E0.01710
G1 X127.871 Y68.859 E1.10806
G1 X128.500 Y69.018 E0.02035
G1 X129.058 Y69.335 E0.02011
G1 X129.646 Y69.963 E0.02697
G1 X132.970 Y76.554 E0.23147
G1 X135.993 Y82.681 E0.21421
G1 X139.787 Y90.654 E0.27684
G1 X139.944 Y91.501 E0.02702
G1 X132.583 Y146.719 E1.74662
G1 X132.316 Y147.550 E0.02738
G1 X131.897 Y148.185 E0.02386
G1 X131.321 Y148.721 E0.02465
G1 X130.624 Y149.102 E0.02490
G1 X129.829 Y149.299 E0.02570
G1 X129.216 Y149.306 E0.01922
G1 X128.963 Y149.256 E0.00807
G1 X110.343 Y146.762 E0.58904
G1 X110.002 Y146.739 E0.01071
G1 X109.661 Y146.762 E0.01071
G1 X90.722 Y149.305 E0.59915
G1 X90.217 Y149.303 E0.01583
G1 X89.715 Y149.214 E0.01599
G1 X88.958 Y148.900 E0.02570
G1 X88.137 Y148.220 E0.03342
G1 X87.662 Y147.497 E0.02714
G1 X87.421 Y146.723 E0.02540
G1 X80.070 Y91.557 E1.74497
G1 X80.437 Y91.452 F9000.000
G1 F1200.000
G1 X80.575 Y90.778 E0.02157
G1 X84.375 Y82.793 E0.27726
G1 X90.675 Y70.167 E0.44244
G1 X91.090 Y69.701 E0.01954
G1 X91.621 Y69.378 E0.01950
G1 X92.068 Y69.248 E0.01459
G1 X92.533 Y69.232 E0.01459
G1 X127.848 Y69.236 E1.10727
G1 X128.336 Y69.359 E0.01579
G1 X128.846 Y69.649 E0.01840
G1 X129.321 Y70.157 E0.02180
G1 X132.633 Y76.724 E0.23060
G1 X135.653 Y82.845 E0.21401
G1 X139.435 Y90.793 E0.27598
G1 X139.568 Y91.538 E0.02373
G1 X132.211 Y146.653 E1.74342
G1 X131.986 Y147.367 E0.02348
G1 X131.621 Y147.927 E0.02097
G1 X131.116 Y148.404 E0.02176
G1 X130.507 Y148.743 E0.02187
G1 X129.799 Y148.922 E0.02289
G1 X129.268 Y148.932 E0.01665
G1 X129.025 Y148.884 E0.00778
G1 X110.380 Y146.387 E0.58980
G1 X110.002 Y146.361 E0.01190
G1 X109.623 Y146.387 E0.01189
G1 X90.685 Y148.930 E0.59912
G1 X90.237 Y148.926 E0.01406
G1 X89.804 Y148.847 E0.01380
G1 X89.130 Y148.563 E0.02292
G1 X88.435 Y147.987 E0.02832
G1 X88.013 Y147.356 E0.02379
G1 X87.792 Y146.657 E0.02301
G1 X80.445 Y91.511 E1.74433
G1 X80.815 Y91.435 F9000.000
G1 F1200.000
G1 X80.925 Y90.920 E0.01649
G1 X84.713 Y82.960 E0.27642
G1 X91.002 Y70.357 E0.44162
G1 X91.313 Y70.006 E0.01470
G1 X91.757 Y69.731 E0.01638
G1 X92.107 Y69.624 E0.01149
G1 X92.536 Y69.609 E0.01346
G1 X127.825 Y69.613 E1.10646
G1 X128.173 Y69.699 E0.01122
G1 X128.635 Y69.962 E0.01667
G1 X128.996 Y70.350 E0.01663
G1 X132.296 Y76.893 E0.22974
G1 X135.313 Y83.008 E0.21381
G1 X139.083 Y90.930 E0.27509
G1 X139.191 Y91.572 E0.02039
G1 X131.840 Y146.588 E1.74032
G1 X131.654 Y147.186 E0.01964
G1 X131.343 Y147.672 E0.01810
G1 X130.908 Y148.088 E0.01887
G1 X130.387 Y148.385 E0.01881
G1 X129.766 Y148.546 E0.02009
G1 X129.320 Y148.557 E0.01401
G1 X129.086 Y148.512 E0.00747
G1 X110.418 Y146.011 E0.59055
G1 X110.002 Y145.984 E0.01308
G1 X109.586 Y146.011 E0.01307
G1 X90.648 Y148.554 E0.59912
G1 X90.288 Y148.552 E0.01127
G1 X89.893 Y148.480 E0.01259
G1 X89.304 Y148.228 E0.02008
G1 X88.731 Y147.752 E0.02336
G1 X88.363 Y147.214 E0.02042
G1 X88.164 Y146.590 E0.02055
G1 X80.823 Y91.494 E1.74276
G1 X81.193 Y91.419 F9000.000
G1 F1200.000
G1 X81.274 Y91.065 E0.01140
G1 X85.051 Y83.127 E0.27564
G1 X91.327 Y70.550 E0.44070
G1 X91.573 Y70.281 E0.01142
G1 X91.890 Y70.084 E0.01171
G1 X92.191 Y69.992 E0.00986
G1 X92.537 Y69.986 E0.01084
G1 X127.764 Y69.986 E1.10454
G1 X128.012 Y70.042 E0.00796
G1 X128.423 Y70.276 E0.01483
G1 X128.671 Y70.543 E0.01146
G1 X131.959 Y77.062 E0.22889
G1 X134.973 Y83.171 E0.21360
G1 X138.731 Y91.067 E0.27416
G1 X138.815 Y91.602 E0.01699
G1 X131.468 Y146.523 E1.73735
G1 X131.321 Y147.008 E0.01588
G1 X131.062 Y147.419 E0.01523
G1 X130.697 Y147.775 E0.01601
G1 X130.266 Y148.027 E0.01564
G1 X129.695 Y148.175 E0.01851
G1 X129.339 Y148.180 E0.01116
G1 X129.153 Y148.140 E0.00596
G1 X110.455 Y145.636 E0.59148
G1 X110.002 Y145.606 E0.01426
G1 X109.548 Y145.636 E0.01425
G1 X90.610 Y148.179 E0.59913
G1 X90.339 Y148.178 E0.00849
G1 X89.983 Y148.113 E0.01134
G1 X89.480 Y147.893 E0.01721
G1 X89.027 Y147.518 E0.01845
G1 X88.691 Y147.026 E0.01869
G1 X88.536 Y146.525 E0.01644
G1 X81.201 Y91.479 E1.74119
G1 E-3.50000 F3600.000
;WIPE_START
G1 F7200.000
G1 X81.274 Y91.065 E-0.19969
G1 X82.382 Y88.735 E-1.22531
;WIPE_END
G1 E-0.07500 F3600.000
G1 X81.201 Y91.479 F9000.000
G1 X81.201 Y91.479
G1 X127.892 Y70.400
G1 E5.00000 F2400.000
G1 F1200.000
G1 X128.207 Y70.585 E0.01143
G1 X128.346 Y70.737 E0.00646
G1 X131.622 Y77.231 E0.22805
G1 X134.633 Y83.334 E0.21340
G1 X138.378 Y91.204 E0.27327
G1 X138.437 Y91.579 E0.01190
G1 X131.096 Y146.457 E1.73599
G1 X130.969 Y146.870 E0.01355
