; generated by PrusaSlicer 2.3.3+win64 on 2022-02-26 at 10:51:43 UTC

; 

; external perimeters extrusion width = 0.45mm
; perimeters extrusion width = 0.45mm
; infill extrusion width = 0.45mm
; solid infill extrusion width = 0.45mm
; top infill extrusion width = 0.40mm
; support material extrusion width = 0.38mm
; first layer extrusion width = 0.42mm

M201 X500 Y500 Z100 E5000 ; sets maximum accelerations, mm/sec^2
M203 X500 Y500 Z10 E60 ; sets maximum feedrates, mm/sec
M204 P500 R1000 T500 ; sets acceleration (P, T) and retract acceleration (R), mm/sec^2
M205 X8.00 Y8.00 Z0.40 E5.00 ; sets the jerk limits, mm/sec
M205 S0 T0 ; sets the minimum extruding and travel feed rate, mm/sec
M107
;TYPE:Custom
G90 ; use absolute coordinates
M83 ; extruder relative mode
M140 S60 ; set final bed temp
M104 S150 ; set temporary nozzle temp to prevent oozing during homing
G4 S10 ; allow partial nozzle warmup
G28 ; home all axis
G1 Z50 F240
G1 X2 Y10 F3000
M104 S205 ; set final nozzle temp
M190 S60 ; wait for bed temp to stabilize
M109 S205 ; wait for nozzle temp to stabilize
G1 Z0.28 F240
G92 E0
G1 Y140 E10 F1500 ; prime the nozzle
G1 X2.3 F5000
G92 E0
G1 Y10 E10 F1200 ; prime the nozzle
G92 E0
G21 ; set units to millimeters
G90 ; use absolute coordinates
M83 ; use relative distances for extrusion
; Filament gcode
;LAYER_CHANGE
;Z:0.2
;HEIGHT:0.2
;BEFORE_LAYER_CHANGE
G92 E0
;0.2


G1 E-5.00000 F3600.000
G1 Z0.200 F9000.000
;AFTER_LAYER_CHANGE
;0.2
G1 X89.757 Y67.890
G1 E5.00000 F2400.000
M204 S500
;TYPE:Skirt
;WIDTH:0.42
G1 F1200.000
G1 X90.457 Y67.296 E0.02881
G1 X91.258 Y66.923 E0.02768
G1 X92.253 Y66.729 E0.03179
G1 X127.425 Y66.725 E1.10278
G1 X128.342 Y66.813 E0.02890
G1 X129.326 Y67.169 E0.03282
G1 X130.082 Y67.722 E0.02937
G1 X130.657 Y68.462 E0.02937
G1 X136.502 Y80.396 E0.41666
G1 X140.912 Y89.664 E0.32181
G1 X141.219 Y90.751 E0.03542
G1 X141.228 Y91.369 E0.01939
G1 X136.745 Y149.749 E1.83583
G1 X136.635 Y150.378 E0.02004
G1 X136.407 Y150.976 E0.02004
G1 X135.895 Y151.733 E0.02867
G1 X135.199 Y152.326 E0.02867
G1 X134.369 Y152.710 E0.02867
G1 X133.467 Y152.857 E0.02867
G1 X94.126 Y152.858 E1.23350
G1 X86.427 Y152.683 E0.24146
G1 X85.756 Y152.576 E0.02132
G1 X85.124 Y152.339 E0.02117
G1 X84.418 Y151.871 E0.02655
G1 X83.848 Y151.239 E0.02669
G1 X83.454 Y150.484 E0.02669
G1 X83.262 Y149.659 E0.02655
G1 X78.766 Y90.944 E1.84637
G1 X78.862 Y90.294 E0.02061
G1 X79.083 Y89.674 E0.02061
G1 X83.496 Y80.401 E0.32201
G1 X89.244 Y68.647 E0.41025
G1 X89.723 Y67.940 E0.02679
G1 E-3.50000 F3600.000
;WIPE_START
G1 F7200.000
G1 X90.457 Y67.296 E-0.46393
G1 X91.258 Y66.923 E-0.41932
G1 X92.253 Y66.729 E-0.48164
G1 X92.380 Y66.729 E-0.06011
;WIPE_END
G1 E-0.07500 F3600.000
G1 X89.723 Y67.940 F9000.000
G1 X89.723 Y67.940
G1 X79.506 Y103.080
G1 E5.00000 F2400.000
G1 F1200.000
G1 X77.801 Y90.230 E0.40643
G1 X77.822 Y89.764 E0.01462
G1 X78.132 Y88.562 E0.03894
G1 X81.997 Y80.441 E0.28198
G1 X88.395 Y67.619 E0.44931
G1 X89.508 Y66.381 E0.05220
G1 X90.804 Y65.659 E0.04651
G1 X91.959 Y65.397 E0.03713
G1 X128.097 Y65.404 E1.13307
G1 X129.269 Y65.688 E0.03782
G1 X130.345 Y66.266 E0.03831
G1 X131.594 Y67.602 E0.05732
G1 X134.935 Y74.224 E0.23258
G1 X138.027 Y80.491 E0.21911
G1 X141.868 Y88.562 E0.28024
G1 X142.195 Y89.901 E0.04321
G1 X142.194 Y90.319 E0.01311
G1 X140.544 Y102.737 E0.39276
G1 E-3.50000 F3600.000
;WIPE_START
G1 F7200.000
G1 X140.939 Y99.763 E-1.42500
;WIPE_END
G1 E-0.07500 F3600.000
G1 X140.544 Y102.737 F9000.000
G1 X140.544 Y102.737
G1 X139.648 Y109.486
G1 E5.00000 F2400.000
G1 F1200.000
G1 X136.010 Y136.874 E0.86625
G1 X136.379 Y137.101 E0.01357
G1 X137.401 Y138.164 E0.04625
G1 X137.440 Y138.237 E0.00259
G1 X137.772 Y138.848 F9000.000
G1 F1200.000
G1 X137.947 Y139.171 E0.01153
G1 X138.237 Y140.215 E0.03398
G1 X138.282 Y150.006 E0.30698
G1 X137.746 Y151.745 E0.05705
G1 X137.206 Y152.505 E0.02923
G1 X136.242 Y153.399 E0.04122
G1 X135.419 Y153.850 E0.02943
G1 X134.390 Y154.151 E0.03361
G1 X133.244 Y154.185 E0.03596
G1 X132.972 Y154.214 E0.00858
G1 X131.554 Y154.214 E0.04446
G1 X130.949 Y154.188 E0.01898
G1 X130.709 Y154.214 E0.00755
G1 X127.783 Y154.214 E0.09175
G1 X127.178 Y154.188 E0.01898
G1 X126.938 Y154.214 E0.00755
G1 X125.505 Y154.214 E0.04494
G1 X124.730 Y154.116 E0.02449
G1 X123.193 Y153.460 E0.05241
G1 X122.739 Y153.046 E0.01925
G1 X122.327 Y152.669 F9000.000
G1 F1200.000
G1 X121.943 Y152.318 E0.01630
G1 X121.144 Y150.798 E0.05386
G1 X120.946 Y149.787 E0.03227
G1 X120.937 Y149.261 E0.01651
G1 X110.000 Y147.807 E0.34592
G1 X99.047 Y149.263 E0.34644
G1 X99.024 Y150.274 E0.03171
G1 X98.625 Y151.551 E0.04194
G1 X98.044 Y152.444 E0.03339
G1 X97.813 Y152.670 E0.01012
G1 X97.428 Y153.047 F9000.000
G1 F1200.000
G1 X97.196 Y153.274 E0.01018
G1 X95.468 Y154.105 E0.06014
G1 X94.808 Y154.191 E0.02086
G1 X94.010 Y154.187 E0.02500
G1 X93.755 Y154.214 E0.00803
G1 X86.147 Y154.214 E0.23855
G1 X84.292 Y153.653 E0.06077
G1 X83.428 Y153.045 E0.03313
G1 X82.495 Y151.999 E0.04394
G1 X82.076 Y151.190 E0.02858
G1 X81.734 Y149.884 E0.04232
G1 X81.741 Y140.182 E0.30421
G1 X82.001 Y139.122 E0.03422
G1 X82.232 Y138.682 E0.01557
G1 X82.566 Y138.108 F9000.000
G1 F1200.000
G1 X83.551 Y137.066 E0.04492
G1 X83.981 Y136.807 E0.01575
G1 X80.401 Y109.822 E0.85353
G1 E-3.50000 F3600.000
;WIPE_START
G1 F7200.000
G1 X80.795 Y112.795 E-1.42500
;WIPE_END
G1 E-0.07500 F3600.000
G1 X80.401 Y109.822 F9000.000
G1 X80.401 Y109.822
G1 X79.884 Y103.075
G1 E5.00000 F2400.000
G1 F1200.000
G1 X84.388 Y137.010 E1.07334
G1 X83.803 Y137.348 E0.02117
G1 X82.817 Y138.382 E0.04482
G1 X82.617 Y138.762 E0.01346
G1 X82.294 Y139.491 F9000.000
G1 F1200.000
G1 X82.113 Y140.247 E0.02438
G1 X82.111 Y149.859 E0.30136
G1 X82.435 Y151.071 E0.03935
G1 X82.818 Y151.802 E0.02588
G1 X83.693 Y152.777 E0.04106
G1 X84.482 Y153.327 E0.03017
G1 X86.175 Y153.837 E0.05542
G1 X93.745 Y153.837 E0.23735
G1 X93.990 Y153.809 E0.00776
G1 X94.772 Y153.815 E0.02451
G1 X95.388 Y153.735 E0.01948
G1 X96.802 Y153.047 E0.04930
G1 X97.285 Y152.670 F9000.000
G1 F1200.000
G1 X97.740 Y152.220 E0.02007
G1 X98.273 Y151.413 E0.03032
G1 X98.656 Y150.189 E0.04021
G1 X98.673 Y148.933 E0.03939
G1 X110.000 Y147.427 E0.35827
G1 X121.312 Y148.931 E0.35780
G1 X121.319 Y149.733 E0.02515
G1 X121.509 Y150.698 E0.03085
G1 X122.223 Y152.064 E0.04833
G1 X122.877 Y152.669 E0.02792
G1 X123.285 Y153.046 F9000.000
G1 F1200.000
G1 X123.372 Y153.127 E0.00375
G1 X124.805 Y153.745 E0.04892
G1 X125.517 Y153.837 E0.02252
G1 X126.928 Y153.837 E0.04422
G1 X127.165 Y153.810 E0.00748
G1 X127.787 Y153.837 E0.01952
G1 X130.698 Y153.837 E0.09129
G1 X130.936 Y153.810 E0.00748
G1 X131.558 Y153.837 E0.01952
G1 X132.961 Y153.837 E0.04400
G1 X133.218 Y153.808 E0.00813
G1 X134.308 Y153.782 E0.03419
G1 X135.293 Y153.494 E0.03215
G1 X136.038 Y153.081 E0.02673
G1 X136.936 Y152.242 E0.03851
G1 X137.396 Y151.602 E0.02471
G1 X137.905 Y149.978 E0.05336
G1 X137.860 Y140.243 E0.30523
G1 X137.706 Y139.702 E0.01764
G1 X137.387 Y138.925 F9000.000
G1 F1200.000
G1 X137.083 Y138.368 E0.01989
G1 X136.127 Y137.383 E0.04303
G1 X135.603 Y137.074 E0.01907
G1 X140.169 Y102.697 E1.08733
G1 E-3.50000 F3600.000
;WIPE_START
G1 F7200.000
G1 X139.774 Y105.671 E-1.42500
;WIPE_END
G1 E-0.07500 F3600.000
G1 X140.169 Y102.697 F9000.000
G1 X140.169 Y102.697
G1 X141.066 Y95.947
G1 E5.00000 F2400.000
G1 F1200.000
G1 X141.818 Y90.282 E0.17919
G1 X141.818 Y89.924 E0.01123
G1 X141.519 Y88.707 E0.03930
G1 X137.688 Y80.657 E0.27952
G1 X134.598 Y74.394 E0.21899
G1 X131.269 Y67.795 E0.23172
G1 X130.138 Y66.583 E0.05199
G1 X129.154 Y66.048 E0.03511
G1 X128.073 Y65.781 E0.03491
G1 X91.981 Y65.774 E1.13166
G1 X90.915 Y66.021 E0.03430
G1 X89.766 Y66.658 E0.04119
G1 X88.720 Y67.811 E0.04881
G1 X82.335 Y80.608 E0.44843
G1 X78.481 Y88.707 E0.28123
G1 X78.193 Y89.837 E0.03656
G1 X78.179 Y90.227 E0.01224
G1 X78.990 Y96.341 E0.19337
G1 X79.368 Y96.338 F9000.000
G1 F1200.000
G1 X84.796 Y137.216 E1.29297
G1 X84.054 Y137.631 E0.02664
G1 X83.138 Y138.582 E0.04142
G1 X82.691 Y139.430 E0.03006
G1 X82.674 Y139.505 E0.00242
G1 E-3.50000 F3600.000
;WIPE_START
G1 F7200.000
G1 X82.691 Y139.430 E-0.03662
G1 X83.138 Y138.582 E-0.45532
G1 X84.054 Y137.631 E-0.62745
G1 X84.616 Y137.317 E-0.30561
;WIPE_END
G1 E-0.07500 F3600.000
G1 X82.674 Y139.505 F9000.000
G1 X82.674 Y139.505
G1 X82.485 Y141.988
G1 E5.00000 F2400.000
G1 F1200.000
G1 X82.488 Y149.833 E0.24598
G1 X82.793 Y150.951 E0.03633
G1 X83.140 Y151.604 E0.02319
G1 X83.957 Y152.507 E0.03818
G1 X84.672 Y152.999 E0.02722
G1 X86.202 Y153.460 E0.05011
G1 X93.733 Y153.460 E0.23613
G1 X93.970 Y153.432 E0.00748
G1 X94.737 Y153.439 E0.02404
G1 X95.308 Y153.365 E0.01807
G1 X95.953 Y153.047 E0.02256
G1 X96.717 Y152.670 F9000.000
G1 F1200.000
G1 X96.807 Y152.625 E0.00315
G1 X97.438 Y151.994 E0.02798
G1 X97.922 Y151.273 E0.02722
G1 X98.287 Y150.104 E0.03843
G1 X98.297 Y148.602 E0.04708
G1 X110.000 Y147.047 E0.37016
G1 X121.689 Y148.600 E0.36971
G1 X121.693 Y149.678 E0.03380
G1 X121.873 Y150.598 E0.02939
G1 X122.541 Y151.859 E0.04474
G1 X123.417 Y152.669 E0.03739
G1 X124.128 Y153.046 F9000.000
G1 F1200.000
G1 X124.881 Y153.375 E0.02576
G1 X125.530 Y153.460 E0.02052
G1 X126.916 Y153.460 E0.04347
G1 X127.151 Y153.432 E0.00739
G1 X127.791 Y153.460 E0.02009
G1 X130.687 Y153.460 E0.09081
G1 X130.921 Y153.432 E0.00740
G1 X131.562 Y153.460 E0.02009
G1 X132.950 Y153.460 E0.04352
G1 X133.193 Y153.431 E0.00770
G1 X134.227 Y153.413 E0.03242
G1 X135.166 Y153.138 E0.03066
G1 X135.833 Y152.764 E0.02399
G1 X136.663 Y151.981 E0.03578
G1 X137.071 Y151.408 E0.02206
G1 X137.527 Y149.951 E0.04788
G1 X137.493 Y142.476 E0.23436
G1 E-3.50000 F3600.000
;WIPE_START
G1 F7200.000
G1 X137.507 Y145.476 E-1.42500
;WIPE_END
G1 E-0.07500 F3600.000
G1 X137.493 Y142.476 F9000.000
G1 X137.493 Y142.476
G1 X137.325 Y139.733
G1 E5.00000 F2400.000
G1 F1200.000
G1 X137.235 Y139.422 E0.01016
G1 X136.766 Y138.574 E0.03039
G1 X135.878 Y137.667 E0.03979
G1 X135.196 Y137.278 E0.02461
G1 X140.691 Y95.908 E1.30852
G1 E-3.50000 F3600.000
;WIPE_START
G1 F7200.000
G1 X140.296 Y98.882 E-1.42500
;WIPE_END
G1 E-0.07500 F3600.000
G1 X140.691 Y95.908 F9000.000
G1 X140.691 Y95.908
G1 X141.388 Y90.657
G1 E5.00000 F2400.000
G1 F1200.000
G1 X141.443 Y90.246 E0.01300
G1 X141.441 Y89.949 E0.00931
G1 X141.171 Y88.852 E0.03543
G1 X137.349 Y80.820 E0.27888
G1 X134.260 Y74.561 E0.21884
G1 X130.945 Y67.989 E0.23081
G1 X129.930 Y66.898 E0.04671
G1 X129.037 Y66.408 E0.03193
G1 X128.049 Y66.158 E0.03196
G1 X92.003 Y66.151 E1.13021
G1 X91.027 Y66.382 E0.03145
G1 X90.023 Y66.935 E0.03595
G1 X89.046 Y68.003 E0.04538
G1 X82.673 Y80.775 E0.44754
G1 X78.829 Y88.852 E0.28047
G1 X78.564 Y89.907 E0.03412
G1 X78.556 Y90.221 E0.00983
G1 X78.616 Y90.671 E0.01425
G1 X78.996 Y90.681 F9000.000
G1 F1200.000
G1 X85.204 Y137.426 E1.47851
G1 X84.303 Y137.915 E0.03215
G1 X83.458 Y138.782 E0.03795
G1 X83.037 Y139.583 E0.02839
G1 X82.857 Y140.374 E0.02541
G1 X82.859 Y141.922 E0.04855
G1 E-3.50000 F3600.000
;WIPE_START
G1 F7200.000
G1 X82.857 Y140.374 E-0.73554
G1 X83.037 Y139.583 E-0.38495
G1 X83.335 Y139.016 E-0.30451
;WIPE_END
G1 E-0.07500 F3600.000
G1 X82.859 Y141.922 F9000.000
G1 X82.859 Y141.922
G1 X82.863 Y146.913
G1 E5.00000 F2400.000
G1 F1200.000
G1 X82.865 Y149.807 E0.09074
G1 X83.150 Y150.828 E0.03326
G1 X83.460 Y151.404 E0.02050
G1 X84.220 Y152.235 E0.03532
G1 X84.860 Y152.671 E0.02427
G1 X86.230 Y153.082 E0.04485
G1 X93.721 Y153.082 E0.23489
G1 X93.949 Y153.055 E0.00720
G1 X94.702 Y153.064 E0.02360
G1 X94.833 Y153.047 E0.00414
G1 X95.888 Y152.670 F9000.000
G1 F1200.000
G1 X96.562 Y152.337 E0.02357
G1 X97.158 Y151.741 E0.02641
G1 X97.593 Y151.087 E0.02462
G1 X97.910 Y150.073 E0.03332
G1 X97.922 Y148.272 E0.05647
G1 X109.772 Y146.685 E0.37484
G1 X110.000 Y146.670 E0.00718
G1 X110.228 Y146.685 E0.00717
G1 X122.066 Y148.271 E0.37449
G1 X122.066 Y149.624 E0.04244
G1 X122.238 Y150.497 E0.02790
G1 X122.858 Y151.651 E0.04107
G1 X123.783 Y152.495 E0.03925
G1 X124.184 Y152.669 E0.01371
G1 X125.267 Y153.046 F9000.000
G1 F1200.000
G1 X125.542 Y153.082 E0.00870
G1 X126.904 Y153.082 E0.04270
G1 X127.135 Y153.054 E0.00729
G1 X127.795 Y153.082 E0.02070
G1 X130.675 Y153.082 E0.09031
G1 X130.906 Y153.054 E0.00729
G1 X131.566 Y153.082 E0.02070
G1 X132.938 Y153.082 E0.04301
G1 X133.169 Y153.054 E0.00730
G1 X134.147 Y153.044 E0.03068
G1 X135.038 Y152.783 E0.02912
G1 X135.625 Y152.448 E0.02119
G1 X136.389 Y151.721 E0.03306
G1 X136.746 Y151.215 E0.01942
G1 X137.150 Y149.923 E0.04244
G1 X137.137 Y147.109 E0.08825
G1 E-3.50000 F3600.000
;WIPE_START
G1 F7200.000
G1 X137.150 Y149.923 E-1.33687
G1 X137.095 Y150.100 E-0.08813
;WIPE_END
G1 E-0.07500 F3600.000
G1 X137.137 Y147.109 F9000.000
G1 X137.137 Y147.109
G1 X137.116 Y142.462
G1 E5.00000 F2400.000
G1 F1200.000
G1 X137.106 Y140.301 E0.06777
G1 X136.894 Y139.584 E0.02343
G1 X136.477 Y138.818 E0.02733
G1 X135.628 Y137.951 E0.03806
G1 X134.788 Y137.485 E0.03012
G1 X141.004 Y90.684 E1.48029
G1 X140.842 Y89.077 F9000.000
G1 F1200.000
G1 X140.822 Y88.997 E0.00261
G1 X137.009 Y80.983 E0.27825
G1 X135.796 Y78.525 E0.08594
G1 E-3.50000 F3600.000
;WIPE_START
G1 F7200.000
G1 X137.009 Y80.983 E-1.30201
G1 X137.120 Y81.217 E-0.12299
;WIPE_END
G1 E-0.07500 F3600.000
G1 X135.796 Y78.525 F9000.000
G1 X135.796 Y78.525
G1 X129.751 Y67.246
G1 E5.00000 F2400.000
G1 F1200.000
G1 X129.659 Y67.179 E0.00358
G1 X129.199 Y66.922 F9000.000
G1 F1200.000
G1 X128.919 Y66.766 E0.01004
G1 X128.025 Y66.535 E0.02895
G1 X92.026 Y66.528 E1.12872
G1 X91.140 Y66.742 E0.02857
G1 X90.805 Y66.926 E0.01198
G1 E-3.50000 F3600.000
;WIPE_START
G1 F7200.000
G1 X91.140 Y66.742 E-0.18145
G1 X92.026 Y66.528 E-0.43287
;WIPE_END
G1 E-0.88568 F3600.000
G1 X90.805 Y66.926 F9000.000
G1 X90.805 Y66.926
G1 X83.527 Y79.907
G1 E5.00000 F2400.000
G1 F1200.000
G1 X83.011 Y80.942 E0.03625
G1 X79.178 Y88.997 E0.27970
G1 X79.158 Y89.078 E0.00262
G1 X79.506 Y89.223 F9000.000
G1 F1200.000
G1 X79.312 Y90.004 E0.02524
G1 X79.309 Y90.175 E0.00536
G1 X85.620 Y137.696 E1.50309
G1 X85.365 Y137.769 E0.00833
G1 X84.552 Y138.200 E0.02885
G1 X83.749 Y139.024 E0.03610
G1 X83.383 Y139.733 E0.02498
G1 X83.230 Y140.434 E0.02249
G1 X83.238 Y146.880 E0.20212
G1 E-3.50000 F3600.000
;WIPE_START
G1 F7200.000
G1 X83.234 Y143.880 E-1.42500
;WIPE_END
G1 E-0.07500 F3600.000
G1 X83.238 Y146.880 F9000.000
G1 X83.238 Y146.880
G1 X94.808 Y152.670
G1 E5.00000 F2400.000
G1 F1200.000
G1 X95.150 Y152.625 E0.01078
G1 X96.317 Y152.048 E0.04084
G1 X96.877 Y151.488 E0.02483
G1 X97.263 Y150.902 E0.02201
G1 X97.533 Y150.042 E0.02826
G1 X97.548 Y147.942 E0.06586
G1 X109.734 Y146.310 E0.38551
G1 X110.000 Y146.292 E0.00836
G1 X110.266 Y146.310 E0.00835
G1 X122.444 Y147.941 E0.38523
G1 X122.444 Y149.605 E0.05219
G1 X122.602 Y150.394 E0.02524
G1 X123.172 Y151.441 E0.03739
G1 X124.011 Y152.193 E0.03531
G1 X125.033 Y152.635 E0.03490
G1 X125.286 Y152.669 E0.00801
G1 E-3.50000 F3600.000
;WIPE_START
G1 F7200.000
G1 X125.033 Y152.635 E-0.12130
G1 X124.011 Y152.193 E-0.52876
G1 X123.172 Y151.441 E-0.53486
G1 X122.930 Y150.998 E-0.24008
;WIPE_END
G1 E-0.07500 F3600.000
G1 X125.286 Y152.669 F9000.000
G1 X125.286 Y152.669
G1 X136.760 Y147.095
G1 E5.00000 F2400.000
G1 F1200.000
G1 X136.729 Y140.330 E0.21211
G1 X136.552 Y139.745 E0.01917
G1 X136.189 Y139.062 E0.02425
G1 X135.379 Y138.236 E0.03628
G1 X134.584 Y137.805 E0.02835
G1 X134.375 Y137.735 E0.00693
G1 X140.691 Y90.175 E1.50429
G1 X140.688 Y90.004 E0.00536
G1 X140.494 Y89.223 E0.02524
G1 E-3.50000 F3600.000
;WIPE_START
G1 F7200.000
G1 X140.688 Y90.004 E-0.38239
G1 X140.691 Y90.175 E-0.08118
G1 X140.425 Y92.181 E-0.96143
;WIPE_END
G1 E-0.07500 F3600.000
G1 X140.494 Y89.223 F9000.000
G1 X140.494 Y89.223
G1 X135.455 Y78.687
G1 E5.00000 F2400.000
G1 F1200.000
G1 X133.586 Y74.899 E0.13244
G1 X130.295 Y68.375 E0.22910
G1 X129.536 Y67.556 E0.03500
G1 X129.450 Y67.493 F9000.000
G1 F1200.000
G1 X129.063 Y67.274 E0.01394
G1 E-3.50000 F3600.000
;WIPE_START
G1 F7200.000
G1 X129.450 Y67.493 E-0.21111
;WIPE_END
G1 E-1.28889 F3600.000
G1 X129.063 Y67.274 F9000.000
G1 X129.063 Y67.274
G1 X90.926 Y67.285
G1 E5.00000 F2400.000
G1 F1200.000
G1 X90.489 Y67.529 E0.01569
