; generated by PrusaSlicer 2.3.3+win64 on 2022-04-01 at 06:40:48 UTC

; 

; external perimeters extrusion width = 0.45mm
; perimeters extrusion width = 0.45mm
; infill extrusion width = 0.45mm
; solid infill extrusion width = 0.45mm
; top infill extrusion width = 0.40mm
; first layer extrusion width = 0.42mm

M201 X500 Y500 Z100 E5000 ; sets maximum accelerations, mm/sec^2
M203 X500 Y500 Z10 E60 ; sets maximum feedrates, mm/sec
M204 P500 R1000 T500 ; sets acceleration (P, T) and retract acceleration (R), mm/sec^2
M205 X8.00 Y8.00 Z0.40 E5.00 ; sets the jerk limits, mm/sec
M205 S0 T0 ; sets the minimum extruding and travel feed rate, mm/sec
M107
;TYPE:Custom
G90 ; use absolute coordinates
M83 ; extruder relative mode
M140 S60 ; set final bed temp
M104 S150 ; set temporary nozzle temp to prevent oozing during homing
G4 S10 ; allow partial nozzle warmup
G28 ; home all axis
G1 Z50 F240
G1 X2 Y10 F3000
M104 S205 ; set final nozzle temp
M190 S60 ; wait for bed temp to stabilize
M109 S205 ; wait for nozzle temp to stabilize
G1 Z0.28 F240
G92 E0
G1 Y140 E10 F1500 ; prime the nozzle
G1 X2.3 F5000
G92 E0
G1 Y10 E10 F1200 ; prime the nozzle
G92 E0
G21 ; set units to millimeters
G90 ; use absolute coordinates
M83 ; use relative distances for extrusion
; Filament gcode
;LAYER_CHANGE
;Z:0.2
;HEIGHT:0.2
;BEFORE_LAYER_CHANGE
G92 E0
;0.2


G1 E-5.00000 F3600.000
G1 Z0.200 F9000.000
;AFTER_LAYER_CHANGE
;0.2
G1 X102.660 Y102.907
G1 E5.00000 F2400.000
M204 S500
;TYPE:Skirt
;WIDTH:0.42
G1 F1200.000
G1 X104.136 Y101.679 E0.06020
G1 X105.886 Y100.716 E0.06263
G1 X107.800 Y100.104 E0.06303
G1 X108.780 Y99.941 E0.03113
G1 X109.867 Y99.871 E0.03418
G1 X111.804 Y100.027 E0.06091
G1 X112.753 Y100.241 E0.03049
G1 X113.790 Y100.589 E0.03431
G1 X115.544 Y101.482 E0.06171
G1 X116.788 Y102.409 E0.04865
G1 X117.500 Y103.090 E0.03088
G1 X118.248 Y103.963 E0.03605
G1 X118.803 Y104.775 E0.03083
G1 X119.642 Y106.507 E0.06034
G1 X120.132 Y108.398 E0.06126
G1 X120.250 Y110.256 E0.05837
G1 X120.162 Y111.391 E0.03569
G1 X119.978 Y112.385 E0.03170
G1 X119.348 Y114.205 E0.06039
G1 X118.858 Y115.135 E0.03296
G1 X118.319 Y115.943 E0.03046
G1 X117.053 Y117.360 E0.05958
G1 X115.467 Y118.572 E0.06257
G1 X113.718 Y119.441 E0.06124
G1 X111.780 Y119.977 E0.06303
G1 X109.851 Y120.129 E0.06067
G1 X108.754 Y120.056 E0.03449
G1 X107.802 Y119.897 E0.03026
G1 X105.904 Y119.292 E0.06247
G1 X104.194 Y118.357 E0.06110
G1 X102.658 Y117.090 E0.06243
G1 X101.412 Y115.571 E0.06160
G1 X100.484 Y113.824 E0.06202
G1 X99.932 Y111.970 E0.06065
G1 X99.744 Y109.996 E0.06216
G1 X99.934 Y108.024 E0.06214
G1 X100.491 Y106.160 E0.06099
G1 X101.404 Y104.440 E0.06106
G1 X102.622 Y102.954 E0.06023
G1 X102.912 Y103.192 F9000.000
G1 F1200.000
G1 X104.344 Y101.994 E0.05852
G1 X106.033 Y101.063 E0.06049
G1 X107.881 Y100.472 E0.06082
G1 X108.822 Y100.315 E0.02991
G1 X109.867 Y100.248 E0.03284
G1 X111.731 Y100.397 E0.05864
G1 X112.646 Y100.603 E0.02941
G1 X113.645 Y100.937 E0.03302
G1 X115.331 Y101.792 E0.05926
G1 X116.549 Y102.701 E0.04764
G1 X117.234 Y103.357 E0.02974
G1 X117.951 Y104.196 E0.03461
G1 X118.487 Y104.980 E0.02979
G1 X119.291 Y106.646 E0.05801
G1 X119.761 Y108.465 E0.05889
G1 X119.873 Y110.256 E0.05627
G1 X119.788 Y111.344 E0.03423
G1 X119.609 Y112.306 E0.03068
G1 X119.002 Y114.056 E0.05809
G1 X118.013 Y115.722 E0.06075
G1 X116.789 Y117.091 E0.05756
G1 X115.265 Y118.254 E0.06011
G1 X113.580 Y119.090 E0.05899
G1 X111.714 Y119.606 E0.06068
G1 X109.853 Y119.752 E0.05853
G1 X107.878 Y119.527 E0.06235
G1 X106.053 Y118.945 E0.06006
G1 X104.406 Y118.046 E0.05884
G1 X102.926 Y116.825 E0.06016
G1 X101.726 Y115.361 E0.05934
G1 X100.834 Y113.682 E0.05963
G1 X100.303 Y111.899 E0.05831
G1 X100.121 Y109.997 E0.05992
G1 X100.303 Y108.097 E0.05985
G1 X100.841 Y106.300 E0.05880
G1 X101.718 Y104.649 E0.05863
G1 X102.874 Y103.238 E0.05719
G1 X103.164 Y103.476 F9000.000
G1 F1200.000
G1 X104.556 Y102.305 E0.05701
G1 X106.177 Y101.412 E0.05804
G1 X107.957 Y100.841 E0.05859
G1 X109.867 Y100.625 E0.06027
G1 X111.659 Y100.768 E0.05639
G1 X113.497 Y101.284 E0.05983
G1 X115.119 Y102.105 E0.05701
G1 X116.309 Y102.992 E0.04656
G1 X116.967 Y103.624 E0.02861
G1 X117.655 Y104.428 E0.03317
G1 X118.168 Y105.182 E0.02858
G1 X118.945 Y106.797 E0.05621
G1 X119.392 Y108.546 E0.05661
G1 X119.496 Y110.256 E0.05370
G1 X119.414 Y111.298 E0.03277
G1 X119.245 Y112.208 E0.02903
G1 X118.657 Y113.905 E0.05630
G1 X117.707 Y115.502 E0.05827
G1 X116.529 Y116.818 E0.05537
G1 X115.063 Y117.936 E0.05780
G1 X113.441 Y118.739 E0.05675
G1 X111.643 Y119.235 E0.05847
G1 X109.851 Y119.375 E0.05638
G1 X107.958 Y119.159 E0.05973
G1 X106.197 Y118.597 E0.05794
G1 X104.614 Y117.731 E0.05658
G1 X103.190 Y116.556 E0.05788
G1 X102.040 Y115.152 E0.05693
G1 X101.181 Y113.534 E0.05742
G1 X100.673 Y111.827 E0.05584
G1 X100.498 Y109.998 E0.05763
G1 X100.673 Y108.174 E0.05743
G1 X101.182 Y106.462 E0.05603
G1 X102.029 Y104.862 E0.05676
G1 X103.126 Y103.522 E0.05428
G1 X102.156 Y102.671 F9000.000
G1 F1200.000
G1 X102.995 Y101.866 E0.03646
G1 X103.811 Y101.235 E0.03233
G1 X104.687 Y100.683 E0.03248
G1 X105.612 Y100.218 E0.03245
G1 X106.578 Y99.842 E0.03252
G1 X107.576 Y99.562 E0.03249
G1 X108.591 Y99.379 E0.03235
G1 X109.642 Y99.293 E0.03304
G1 X110.667 Y99.307 E0.03216
G1 X111.816 Y99.441 E0.03627
G1 X112.957 Y99.699 E0.03666
G1 X113.802 Y99.979 E0.02791
G1 X114.627 Y100.329 E0.02809
G1 X115.549 Y100.823 E0.03282
G1 X116.411 Y101.398 E0.03247
G1 X117.209 Y102.049 E0.03230
G1 X117.941 Y102.773 E0.03227
G1 X118.615 Y103.581 E0.03301
G1 X119.204 Y104.448 E0.03285
G1 X119.702 Y105.365 E0.03273
G1 X120.109 Y106.330 E0.03285
G1 X120.416 Y107.316 E0.03237
G1 X120.625 Y108.328 E0.03239
G1 X120.737 Y109.373 E0.03293
G1 X120.747 Y110.395 E0.03206
G1 X120.660 Y111.431 E0.03258
G1 X120.472 Y112.455 E0.03266
G1 X120.183 Y113.461 E0.03281
G1 X119.802 Y114.422 E0.03244
G1 X119.329 Y115.341 E0.03238
G1 X118.764 Y116.216 E0.03267
G1 X118.116 Y117.033 E0.03268
G1 X117.412 Y117.765 E0.03185
G1 X116.619 Y118.445 E0.03276
G1 X115.770 Y119.041 E0.03253
G1 X114.864 Y119.555 E0.03263
G1 X113.919 Y119.976 E0.03247
G1 X112.925 Y120.309 E0.03287
G1 X111.918 Y120.541 E0.03239
G1 X110.896 Y120.676 E0.03232
G1 X109.863 Y120.712 E0.03240
G1 X108.821 Y120.649 E0.03274
G1 X107.795 Y120.486 E0.03258
G1 X106.786 Y120.224 E0.03268
G1 X105.807 Y119.867 E0.03267
G1 X104.861 Y119.413 E0.03289
G1 X103.982 Y118.881 E0.03222
G1 X103.135 Y118.251 E0.03312
G1 X102.370 Y117.556 E0.03239
G1 X101.667 Y116.780 E0.03282
G1 X101.047 Y115.947 E0.03256
G1 X100.515 Y115.063 E0.03236
G1 X100.071 Y114.132 E0.03233
G1 X99.720 Y113.163 E0.03231
G1 X99.460 Y112.144 E0.03299
G1 X99.303 Y111.118 E0.03254
G1 X99.245 Y110.081 E0.03256
G1 X99.287 Y109.047 E0.03244
G1 X99.429 Y108.017 E0.03259
G1 X99.667 Y107.015 E0.03231
G1 X100.000 Y106.041 E0.03228
G1 X100.436 Y105.087 E0.03287
G1 X100.959 Y104.187 E0.03264
G1 X101.556 Y103.357 E0.03206
G1 X102.117 Y102.717 E0.02669
G1 E-3.50000 F3600.000
;WIPE_START
G1 F7200.000
G1 X102.995 Y101.866 E-0.58072
G1 X103.811 Y101.235 E-0.48981
G1 X104.442 Y100.837 E-0.35447
;WIPE_END
G1 E-0.07500 F3600.000
G1 X109.663 Y99.670 F9000.000
G1 E5.00000 F2400.000
G1 F1200.000
G1 X108.649 Y99.752 E0.03190
G1 X107.669 Y99.928 E0.03122
G1 X106.706 Y100.197 E0.03135
G1 X105.840 Y100.533 E0.02912
G1 X105.799 Y100.548 F9000.000
G1 F1200.000
G1 X104.880 Y101.007 E0.03221
G1 X104.279 Y101.385 E0.02225
G1 X103.686 Y101.808 F9000.000
G1 F1200.000
G1 X103.247 Y102.148 E0.01739
G1 X103.000 Y102.379 E0.01060
G1 X101.932 Y103.498 F9000.000
G1 F1200.000
G1 X101.819 Y103.636 E0.00563
G1 E-3.50000 F3600.000
;WIPE_START
G1 F7200.000
G1 X101.932 Y103.498 E-0.08526
;WIPE_END
G1 E-1.41474 F3600.000
G1 X109.663 Y99.670 F9000.000
G1 E5.00000 F2400.000
G1 F1200.000
G1 X110.652 Y99.684 E0.03102
G1 X111.763 Y99.814 E0.03505
G1 X112.847 Y100.060 E0.03487
G1 X113.676 Y100.334 E0.02738
G1 X114.471 Y100.673 E0.02709
G1 X115.363 Y101.151 E0.03173
G1 X115.529 Y101.263 E0.00628
G1 X115.881 Y101.498 F9000.000
G1 F1200.000
G1 X116.194 Y101.706 E0.01179
G1 X116.532 Y101.983 E0.01372
G1 E-3.50000 F3600.000
;WIPE_START
G1 F7200.000
G1 X116.194 Y101.706 E-0.20779
G1 X115.881 Y101.498 E-0.17858
;WIPE_END
G1 E-1.11363 F3600.000
G1 X117.925 Y116.667 F9000.000
G1 E5.00000 F2400.000
G1 F1200.000
G1 X117.659 Y116.965 E0.01252
G1 X116.827 Y117.770 F9000.000
G1 F1200.000
G1 X116.381 Y118.152 E0.01843
G1 X115.730 Y118.609 E0.02494
G1 X115.433 Y118.800 F9000.000
G1 F1200.000
G1 X114.687 Y119.222 E0.02689
G1 X113.774 Y119.628 E0.03133
G1 X112.814 Y119.949 E0.03173
G1 X111.842 Y120.172 E0.03126
G1 X110.856 Y120.301 E0.03119
G1 X109.859 Y120.335 E0.03127
G1 X108.853 Y120.273 E0.03160
G1 X107.863 Y120.115 E0.03144
G1 X106.890 Y119.862 E0.03154
G1 X105.865 Y119.477 E0.03431
G1 X105.740 Y119.417 F9000.000
G1 F1200.000
G1 X105.033 Y119.077 E0.02461
G1 X104.251 Y118.603 E0.02869
G1 X103.794 Y118.272 F9000.000
G1 F1200.000
G1 X103.367 Y117.954 E0.01667
G1 X102.970 Y117.593 E0.01683
G1 X102.012 Y116.600 F9000.000
G1 F1200.000
G1 X101.899 Y116.462 E0.00559
G1 X102.805 Y115.788 F9000.000
G1 F1200.000
G1 X102.282 Y115.080 E0.02762
G1 X101.828 Y114.320 E0.02776
G1 X101.450 Y113.520 E0.02773
G1 X101.152 Y112.688 E0.02771
G1 X100.932 Y111.811 E0.02835
G1 X100.800 Y110.929 E0.02794
G1 X100.753 Y110.037 E0.02801
G1 X100.792 Y109.148 E0.02790
G1 X100.917 Y108.263 E0.02805
G1 X101.125 Y107.403 E0.02773
G1 X101.414 Y106.568 E0.02769
G1 X101.791 Y105.750 E0.02824
G1 X102.242 Y104.980 E0.02800
G1 X102.747 Y104.283 E0.02698
G1 X102.773 Y104.251 F9000.000
G1 F1200.000
G1 X103.348 Y103.601 E0.02722
G1 X103.780 Y103.197 E0.01855
G1 X104.338 Y102.732 F9000.000
G1 F1200.000
G1 X104.702 Y102.452 E0.01438
G1 X104.870 Y102.348 E0.00620
G1 E-3.50000 F3600.000
;WIPE_START
G1 F7200.000
G1 X104.702 Y102.452 E-0.09389
G1 X104.338 Y102.732 E-0.21783
;WIPE_END
G1 E-1.18828 F3600.000
G1 X114.930 Y102.220 F9000.000
G1 E5.00000 F2400.000
G1 F1200.000
G1 X115.222 Y102.416 E0.01100
G1 X115.847 Y102.883 F9000.000
G1 F1200.000
G1 X116.225 Y103.193 E0.01531
G1 X116.852 Y103.817 E0.02775
G1 X117.431 Y104.516 E0.02846
G1 X117.933 Y105.261 E0.02817
G1 X118.357 Y106.049 E0.02806
G1 X118.704 Y106.879 E0.02820
G1 X118.963 Y107.725 E0.02775
G1 X119.140 Y108.594 E0.02780
G1 X119.233 Y109.493 E0.02835
G1 X119.239 Y110.371 E0.02753
G1 X119.160 Y111.264 E0.02810
G1 X118.996 Y112.143 E0.02804
G1 X118.745 Y113.005 E0.02816
G1 X118.415 Y113.828 E0.02781
G1 X118.007 Y114.614 E0.02776
G1 X117.519 Y115.364 E0.02804
G1 X117.030 Y115.976 E0.02456
G1 X116.847 Y116.180 F9000.000
G1 F1200.000
G1 X116.353 Y116.691 E0.02230
G1 X116.075 Y116.927 E0.01142
G1 X115.109 Y117.663 F9000.000
G1 F1200.000
G1 X114.876 Y117.818 E0.00879
G1 E-3.50000 F3600.000
;WIPE_START
G1 F7200.000
G1 X115.109 Y117.663 E-0.13321
;WIPE_END
G1 E-1.36679 F3600.000
G1 X106.289 Y118.428 F9000.000
G1 E5.00000 F2400.000
G1 F1200.000
G1 X106.228 Y118.399 E0.00214
G1 X104.870 Y117.656 F9000.000
G1 F1200.000
G1 X104.454 Y117.355 E0.01610
G1 X103.743 Y116.768 F9000.000
G1 F1200.000
G1 X103.414 Y116.467 E0.01398
G1 X102.820 Y115.807 E0.02784
G1 X103.100 Y115.555 F9000.000
G1 F1200.000
G1 X102.600 Y114.878 E0.02639
G1 X102.165 Y114.150 E0.02660
G1 X101.795 Y113.367 E0.02714
G1 X101.510 Y112.570 E0.02655
G1 X101.300 Y111.729 E0.02719
G1 X101.174 Y110.883 E0.02679
G1 X101.130 Y110.027 E0.02688
G1 X101.169 Y109.174 E0.02676
G1 X101.289 Y108.325 E0.02691
G1 X101.489 Y107.501 E0.02659
G1 X101.767 Y106.701 E0.02654
G1 X102.129 Y105.917 E0.02708
G1 X102.563 Y105.179 E0.02684
G1 X103.056 Y104.499 E0.02633
G1 X103.624 Y103.858 E0.02686
G1 X104.249 Y103.275 E0.02680
G1 X104.924 Y102.757 E0.02667
G1 X105.649 Y102.305 E0.02678
G1 X106.413 Y101.925 E0.02677
G1 X107.213 Y101.618 E0.02684
G1 X108.037 Y101.391 E0.02682
G1 X108.875 Y101.243 E0.02668
G1 X109.744 Y101.176 E0.02733
G1 X110.588 Y101.192 E0.02646
G1 X111.508 Y101.301 E0.02902
G1 X112.410 Y101.504 E0.02901
G1 X113.144 Y101.746 E0.02422
G1 X113.847 Y102.046 E0.02397
G1 X114.614 Y102.461 E0.02735
G1 X115.322 Y102.938 E0.02676
G1 X115.978 Y103.478 E0.02663
G1 X116.579 Y104.078 E0.02662
G1 X117.134 Y104.749 E0.02732
G1 X117.615 Y105.464 E0.02700
G1 X118.021 Y106.219 E0.02689
G1 X118.352 Y107.015 E0.02703
G1 X118.600 Y107.826 E0.02659
G1 X118.768 Y108.659 E0.02665
G1 X118.857 Y109.522 E0.02720
G1 X118.861 Y110.364 E0.02640
G1 X118.786 Y111.221 E0.02698
G1 X118.627 Y112.064 E0.02688
G1 X118.386 Y112.890 E0.02700
G1 X118.069 Y113.679 E0.02666
G1 X117.677 Y114.432 E0.02660
G1 X117.208 Y115.150 E0.02689
G1 X116.671 Y115.821 E0.02696
G1 X116.089 Y116.422 E0.02623
G1 X115.431 Y116.980 E0.02706
G1 X114.728 Y117.469 E0.02685
G1 X113.979 Y117.889 E0.02692
G1 X113.198 Y118.234 E0.02678
G1 X112.375 Y118.505 E0.02717
G1 X111.544 Y118.693 E0.02670
G1 X110.700 Y118.800 E0.02666
G1 X109.848 Y118.826 E0.02675
G1 X108.987 Y118.770 E0.02705
G1 X108.141 Y118.632 E0.02688
G1 X107.308 Y118.412 E0.02699
G1 X106.502 Y118.114 E0.02695
G1 X105.723 Y117.736 E0.02716
G1 X105.001 Y117.295 E0.02653
G1 X104.302 Y116.769 E0.02743
G1 X103.676 Y116.195 E0.02663
G1 X103.141 Y115.600 E0.02511
G1 X103.421 Y115.348 F9000.000
G1 F1200.000
G1 X102.909 Y114.662 E0.02684
G1 X102.493 Y113.965 E0.02545
G1 X102.140 Y113.215 E0.02598
G1 X101.868 Y112.452 E0.02540
G1 X101.668 Y111.647 E0.02603
G1 X101.549 Y110.837 E0.02564
G1 X101.507 Y110.018 E0.02574
G1 X101.545 Y109.201 E0.02563
G1 X101.661 Y108.387 E0.02577
G1 X101.853 Y107.599 E0.02544
G1 X102.120 Y106.834 E0.02539
G1 X102.467 Y106.084 E0.02592
G1 X102.883 Y105.378 E0.02568
G1 X103.355 Y104.728 E0.02519
G1 X103.900 Y104.115 E0.02572
G1 X104.499 Y103.557 E0.02566
G1 X105.146 Y103.062 E0.02554
G1 X105.840 Y102.630 E0.02565
G1 X106.573 Y102.266 E0.02564
G1 X107.339 Y101.974 E0.02570
G1 X108.128 Y101.757 E0.02568
G1 X108.931 Y101.616 E0.02555
G1 X109.764 Y101.553 E0.02619
G1 X110.572 Y101.568 E0.02533
G1 X111.435 Y101.671 E0.02724
G1 X112.301 Y101.866 E0.02786
G1 X113.003 Y102.096 E0.02316
G1 X113.691 Y102.390 E0.02344
G1 X114.426 Y102.788 E0.02624
G1 X115.103 Y103.245 E0.02561
G1 X115.731 Y103.763 E0.02550
G1 X116.306 Y104.338 E0.02549
G1 X116.837 Y104.982 E0.02618
G1 X117.296 Y105.666 E0.02583
G1 X117.684 Y106.389 E0.02572
G1 X118.000 Y107.151 E0.02587
G1 X118.237 Y107.927 E0.02544
G1 X118.397 Y108.724 E0.02550
G1 X118.481 Y109.551 E0.02605
G1 X118.484 Y110.357 E0.02526
G1 X118.411 Y111.178 E0.02586
G1 X118.258 Y111.984 E0.02572
G1 X118.026 Y112.775 E0.02584
G1 X117.722 Y113.529 E0.02550
G1 X117.347 Y114.249 E0.02545
G1 X116.898 Y114.936 E0.02573
G1 X116.383 Y115.578 E0.02581
G1 X115.825 Y116.152 E0.02511
G1 X115.194 Y116.686 E0.02591
G1 X114.521 Y117.154 E0.02571
G1 X113.803 Y117.556 E0.02578
G1 X113.054 Y117.885 E0.02564
G1 X112.266 Y118.144 E0.02603
G1 X111.470 Y118.323 E0.02556
G1 X110.662 Y118.425 E0.02553
G1 X109.846 Y118.449 E0.02562
G1 X109.021 Y118.395 E0.02592
G1 X108.211 Y118.261 E0.02574
G1 X107.414 Y118.050 E0.02585
G1 X106.643 Y117.764 E0.02581
G1 X105.896 Y117.401 E0.02601
G1 X105.206 Y116.978 E0.02539
G1 X104.536 Y116.474 E0.02629
G1 X103.938 Y115.924 E0.02547
G1 X103.461 Y115.393 E0.02237
G1 X103.742 Y115.141 F9000.000
G1 F1200.000
G1 X103.219 Y114.446 E0.02729
G1 X102.822 Y113.780 E0.02431
G1 X102.486 Y113.064 E0.02482
G1 X102.227 Y112.335 E0.02424
G1 X102.036 Y111.565 E0.02488
G1 X101.923 Y110.792 E0.02449
G1 X101.885 Y110.008 E0.02460
G1 X101.921 Y109.228 E0.02449
G1 X102.033 Y108.450 E0.02464
G1 X102.217 Y107.697 E0.02430
G1 X102.473 Y106.967 E0.02425
G1 X102.797 Y106.267 E0.02421
G1 X103.193 Y105.592 E0.02452
G1 X103.655 Y104.958 E0.02460
G1 X104.175 Y104.372 E0.02457
G1 X104.749 Y103.840 E0.02452
G1 X105.368 Y103.368 E0.02441
G1 X106.032 Y102.955 E0.02451
G1 X106.732 Y102.608 E0.02450
G1 X107.464 Y102.330 E0.02457
G1 X108.219 Y102.123 E0.02455
G1 X108.986 Y101.989 E0.02441
G1 X109.783 Y101.930 E0.02504
G1 X110.555 Y101.945 E0.02420
G1 X111.380 Y102.044 E0.02607
G1 X112.193 Y102.227 E0.02611
G1 X112.878 Y102.451 E0.02261
G1 X113.534 Y102.733 E0.02238
G1 X114.238 Y103.115 E0.02513
G1 X114.884 Y103.553 E0.02447
G1 X115.484 Y104.048 E0.02437
