; generated by PrusaSlicer 2.3.3+win64 on 2022-02-26 at 09:34:23 UTC

; 

; external perimeters extrusion width = 0.45mm
; perimeters extrusion width = 0.45mm
; infill extrusion width = 0.45mm
; solid infill extrusion width = 0.45mm
; top infill extrusion width = 0.40mm
; first layer extrusion width = 0.42mm

M201 X500 Y500 Z100 E5000 ; sets maximum accelerations, mm/sec^2
M203 X500 Y500 Z10 E60 ; sets maximum feedrates, mm/sec
M204 P500 R1000 T500 ; sets acceleration (P, T) and retract acceleration (R), mm/sec^2
M205 X8.00 Y8.00 Z0.40 E5.00 ; sets the jerk limits, mm/sec
M205 S0 T0 ; sets the minimum extruding and travel feed rate, mm/sec
M107
;TYPE:Custom
G90 ; use absolute coordinates
M83 ; extruder relative mode
M140 S60 ; set final bed temp
M104 S150 ; set temporary nozzle temp to prevent oozing during homing
G4 S10 ; allow partial nozzle warmup
G28 ; home all axis
G1 Z50 F240
G1 X2 Y10 F3000
M104 S205 ; set final nozzle temp
M190 S60 ; wait for bed temp to stabilize
M109 S205 ; wait for nozzle temp to stabilize
G1 Z0.28 F240
G92 E0
G1 Y140 E10 F1500 ; prime the nozzle
G1 X2.3 F5000
G92 E0
G1 Y10 E10 F1200 ; prime the nozzle
G92 E0
G21 ; set units to millimeters
G90 ; use absolute coordinates
M83 ; use relative distances for extrusion
; Filament gcode
;LAYER_CHANGE
;Z:0.2
;HEIGHT:0.2
;BEFORE_LAYER_CHANGE
G92 E0
;0.2


G1 E-5.00000 F3600.000
G1 Z0.200 F9000.000
;AFTER_LAYER_CHANGE
;0.2
G1 X89.540 Y83.463
G1 E5.00000 F2400.000
M204 S500
;TYPE:Skirt
;WIDTH:0.42
G1 F1200.000
G1 X90.070 Y82.880 E0.02471
G1 X90.717 Y82.437 E0.02457
G1 X91.566 Y82.123 E0.02839
G1 X92.309 Y82.011 E0.02358
G1 X127.592 Y82.008 E1.10627
G1 X128.459 Y82.121 E0.02740
G1 X129.410 Y82.489 E0.03196
G1 X130.133 Y83.040 E0.02853
G1 X130.682 Y83.761 E0.02838
G1 X136.518 Y95.679 E0.41609
G1 X140.726 Y104.521 E0.30704
G1 X140.938 Y105.105 E0.01947
G1 X141.040 Y105.718 E0.01947
G1 X141.023 Y106.384 E0.02089
G1 X140.874 Y107.038 E0.02103
G1 X131.974 Y133.332 E0.87039
G1 X131.454 Y134.354 E0.03594
G1 X130.863 Y135.008 E0.02764
G1 X130.080 Y135.546 E0.02980
G1 X129.255 Y135.862 E0.02768
G1 X128.364 Y135.982 E0.02822
G1 X91.694 Y135.983 E1.14976
G1 X90.568 Y135.796 E0.03577
G1 X89.502 Y135.262 E0.03738
G1 X88.638 Y134.414 E0.03795
G1 X88.088 Y133.373 E0.03693
G1 X79.154 Y107.027 E0.87225
G1 X78.982 Y105.961 E0.03388
G1 X79.062 Y105.231 E0.02302
G1 X79.301 Y104.532 E0.02316
G1 X84.768 Y93.097 E0.39741
G1 X89.513 Y83.517 E0.33520
G1 E-3.50000 F3600.000
;WIPE_START
G1 F7200.000
G1 X90.070 Y82.880 E-0.40186
G1 X90.717 Y82.437 E-0.37224
G1 X91.566 Y82.123 E-0.43015
G1 X92.025 Y82.053 E-0.22074
;WIPE_END
G1 E-0.07500 F3600.000
G1 X89.513 Y83.517 F9000.000
G1 X89.513 Y83.517
G1 X79.914 Y109.856
G1 E5.00000 F2400.000
G1 F1200.000
G1 X79.078 Y109.125 E0.03480
G1 X78.405 Y108.193 E0.03605
G1 X77.995 Y107.142 E0.03537
G1 X77.809 Y105.937 E0.03824
G1 X78.116 Y103.912 E0.06422
G1 X82.022 Y95.705 E0.28499
G1 X88.399 Y82.925 E0.44780
G1 X89.199 Y81.942 E0.03973
G1 X90.233 Y81.200 E0.03993
G1 X92.016 Y80.672 E0.05829
G1 X128.054 Y80.679 E1.12994
G1 X129.254 Y80.959 E0.03865
G1 X130.341 Y81.535 E0.03857
G1 X131.608 Y82.882 E0.05798
G1 X135.010 Y89.627 E0.23685
G1 X138.036 Y95.759 E0.21442
G1 X141.916 Y103.912 E0.28308
G1 X142.222 Y105.937 E0.06423
G1 X142.052 Y107.064 E0.03573
G1 X141.874 Y107.691 E0.02043
G1 X140.853 Y109.231 E0.05793
G1 X140.136 Y109.808 E0.02886
G1 X139.624 Y110.143 F9000.000
G1 F1200.000
G1 X139.531 Y110.200 E0.00341
G1 X137.933 Y110.637 E0.05197
G1 X130.465 Y110.603 E0.23415
G1 X129.245 Y110.270 E0.03963
G1 X128.418 Y109.832 E0.02937
G1 X127.460 Y108.966 E0.04049
G1 X127.081 Y108.700 E0.01450
G1 X126.705 Y108.525 E0.01301
G1 X126.304 Y108.418 E0.01301
G1 X125.891 Y108.381 E0.01301
G1 X125.477 Y108.418 E0.01301
G1 X125.076 Y108.525 E0.01301
G1 X124.700 Y108.700 E0.01301
G1 X124.311 Y108.973 E0.01491
G1 X123.297 Y109.873 E0.04251
G1 X122.197 Y110.400 E0.03824
G1 X121.016 Y110.636 E0.03775
G1 X98.945 Y110.636 E0.69204
G1 X97.553 Y110.291 E0.04496
G1 X96.649 Y109.818 E0.03199
G1 X95.711 Y108.967 E0.03972
G1 X95.331 Y108.700 E0.01455
G1 X94.955 Y108.525 E0.01301
G1 X94.554 Y108.418 E0.01301
G1 X94.141 Y108.381 E0.01301
G1 X93.727 Y108.418 E0.01301
G1 X93.326 Y108.525 E0.01301
G1 X92.950 Y108.700 E0.01301
G1 X92.570 Y108.966 E0.01455
G1 X91.552 Y109.873 E0.04275
G1 X90.683 Y110.310 E0.03049
G1 X89.709 Y110.585 E0.03175
G1 X82.022 Y110.636 E0.24101
G1 X80.379 Y110.053 E0.05468
G1 X80.225 Y109.598 F9000.000
G1 F1200.000
G1 X82.054 Y110.259 E0.06099
G1 X89.631 Y110.216 E0.23757
G1 X90.562 Y109.952 E0.03036
G1 X91.359 Y109.549 E0.02799
G1 X92.335 Y108.671 E0.04116
G1 X92.761 Y108.373 E0.01632
G1 X93.197 Y108.169 E0.01508
G1 X93.662 Y108.045 E0.01508
G1 X94.141 Y108.003 E0.01508
G1 X94.620 Y108.045 E0.01508
G1 X95.084 Y108.169 E0.01508
G1 X95.520 Y108.373 E0.01508
G1 X95.947 Y108.671 E0.01633
G1 X96.884 Y109.522 E0.03968
G1 X97.706 Y109.946 E0.02900
G1 X98.968 Y110.259 E0.04077
G1 X120.998 Y110.259 E0.69075
G1 X122.058 Y110.049 E0.03387
G1 X123.067 Y109.573 E0.03499
G1 X124.077 Y108.677 E0.04233
G1 X124.511 Y108.373 E0.01662
G1 X124.947 Y108.169 E0.01508
G1 X125.412 Y108.045 E0.01508
G1 X125.891 Y108.003 E0.01508
G1 X126.370 Y108.045 E0.01508
G1 X126.834 Y108.169 E0.01508
G1 X127.270 Y108.373 E0.01508
G1 X127.695 Y108.670 E0.01627
G1 X128.652 Y109.535 E0.04046
G1 X129.402 Y109.926 E0.02649
G1 X130.492 Y110.226 E0.03545
G1 X137.909 Y110.260 E0.23256
G1 X139.358 Y109.864 E0.04712
G1 X139.814 Y109.583 E0.01678
G1 X140.361 Y109.143 F9000.000
G1 F1200.000
G1 X140.594 Y108.955 E0.00939
G1 X141.519 Y107.559 E0.05252
G1 X141.681 Y106.995 E0.01838
G1 X141.845 Y105.909 E0.03445
G1 X141.563 Y104.049 E0.05899
G1 X137.697 Y95.925 E0.28209
G1 X134.673 Y89.796 E0.21430
G1 X131.284 Y83.076 E0.23598
G1 X130.135 Y81.853 E0.05260
G1 X129.142 Y81.320 E0.03533
G1 X128.031 Y81.056 E0.03581
G1 X92.043 Y81.049 E1.12839
G1 X90.426 Y81.526 E0.05287
G1 X89.474 Y82.202 E0.03660
G1 X88.726 Y83.113 E0.03695
G1 X82.360 Y95.871 E0.44708
G1 X78.468 Y104.049 E0.28395
G1 X78.186 Y105.909 E0.05899
G1 X78.355 Y107.027 E0.03545
G1 X78.726 Y107.994 E0.03248
G1 X79.344 Y108.857 E0.03327
G1 X79.673 Y109.147 E0.01377
G1 X79.999 Y108.934 F9000.000
G1 F1200.000
G1 X80.363 Y109.248 E0.01508
G1 X82.087 Y109.882 E0.05758
G1 X89.553 Y109.846 E0.23410
G1 X90.442 Y109.594 E0.02896
G1 X91.164 Y109.225 E0.02544
G1 X92.099 Y108.376 E0.03958
G1 X92.572 Y108.045 E0.01811
G1 X93.068 Y107.814 E0.01715
G1 X93.596 Y107.672 E0.01715
G1 X94.141 Y107.624 E0.01715
G1 X94.685 Y107.672 E0.01715
G1 X95.214 Y107.814 E0.01715
G1 X95.709 Y108.045 E0.01715
G1 X96.183 Y108.376 E0.01811
G1 X97.118 Y109.225 E0.03961
G1 X97.857 Y109.600 E0.02597
G1 X98.991 Y109.882 E0.03664
G1 X120.980 Y109.882 E0.68946
G1 X121.921 Y109.697 E0.03006
G1 X122.838 Y109.272 E0.03170
G1 X123.843 Y108.380 E0.04212
G1 X124.322 Y108.045 E0.01834
G1 X124.818 Y107.814 E0.01715
G1 X125.346 Y107.672 E0.01715
G1 X125.891 Y107.624 E0.01715
G1 X126.435 Y107.672 E0.01715
G1 X126.964 Y107.814 E0.01715
G1 X127.459 Y108.045 E0.01715
G1 X127.932 Y108.375 E0.01808
G1 X128.850 Y109.214 E0.03898
G1 X129.524 Y109.569 E0.02388
G1 X130.519 Y109.849 E0.03243
G1 X137.885 Y109.882 E0.23094
G1 X139.186 Y109.527 E0.04229
G1 X139.566 Y109.298 E0.01391
G1 X140.039 Y108.918 E0.01901
G1 X140.708 Y108.116 F9000.000
G1 F1200.000
G1 X141.165 Y107.426 E0.02595
G1 X141.310 Y106.927 E0.01631
G1 X141.468 Y105.881 E0.03316
G1 X141.211 Y104.186 E0.05375
G1 X137.358 Y96.091 E0.28109
G1 X134.336 Y89.965 E0.21418
G1 X130.959 Y83.270 E0.23512
G1 X129.930 Y82.170 E0.04721
G1 X128.986 Y81.664 E0.03359
G1 X128.009 Y81.433 E0.03147
G1 X92.069 Y81.426 E1.12687
G1 X90.618 Y81.852 E0.04743
G1 X89.713 Y82.494 E0.03481
G1 X89.055 Y83.300 E0.03261
G1 X82.698 Y96.038 E0.44637
G1 X78.821 Y104.186 E0.28292
G1 X78.563 Y105.881 E0.05375
G1 X78.725 Y106.951 E0.03393
G1 X79.047 Y107.796 E0.02836
G1 X79.369 Y108.249 E0.01742
G1 X79.712 Y108.087 F9000.000
G1 F1200.000
G1 X79.877 Y108.322 E0.00901
G1 X80.545 Y108.913 E0.02797
G1 X82.120 Y109.505 E0.05275
G1 X89.475 Y109.476 E0.23060
G1 X90.320 Y109.237 E0.02755
G1 X90.968 Y108.902 E0.02286
G1 X91.862 Y108.082 E0.03804
G1 X92.383 Y107.717 E0.01994
G1 X92.938 Y107.458 E0.01922
G1 X93.530 Y107.299 E0.01922
G1 X94.141 Y107.246 E0.01922
G1 X94.751 Y107.299 E0.01922
G1 X95.343 Y107.458 E0.01922
G1 X95.899 Y107.717 E0.01922
G1 X96.420 Y108.082 E0.01994
G1 X97.314 Y108.902 E0.03804
G1 X97.971 Y109.240 E0.02317
G1 X99.015 Y109.505 E0.03376
G1 X120.961 Y109.505 E0.68811
G1 X121.824 Y109.332 E0.02758
G1 X122.652 Y108.943 E0.02869
G1 X123.607 Y108.085 E0.04027
G1 X124.133 Y107.717 E0.02011
G1 X124.688 Y107.458 E0.01922
G1 X125.280 Y107.299 E0.01922
G1 X125.891 Y107.246 E0.01922
G1 X126.501 Y107.299 E0.01922
G1 X127.093 Y107.458 E0.01922
G1 X127.649 Y107.717 E0.01922
G1 X128.169 Y108.081 E0.01992
G1 X129.050 Y108.893 E0.03755
G1 X129.648 Y109.212 E0.02128
G1 X130.548 Y109.472 E0.02935
G1 X137.861 Y109.505 E0.22930
G1 X139.015 Y109.190 E0.03751
G1 X139.340 Y108.996 E0.01188
G1 X140.076 Y108.404 E0.02960
G1 X140.356 Y107.981 E0.01589
G1 E-3.50000 F3600.000
;WIPE_START
G1 F7200.000
G1 X140.076 Y108.404 E-0.24071
G1 X139.340 Y108.996 E-0.44845
G1 X139.015 Y109.190 E-0.18000
G1 X137.886 Y109.498 E-0.55583
;WIPE_END
G1 E-0.07500 F3600.000
G1 X140.356 Y107.981 F9000.000
G1 X140.356 Y107.981
G1 X140.867 Y104.380
G1 E5.00000 F2400.000
G1 F1200.000
G1 X140.858 Y104.323 E0.00180
G1 X137.020 Y96.256 E0.28010
G1 X135.806 Y93.798 E0.08597
G1 E-3.50000 F3600.000
;WIPE_START
G1 F7200.000
G1 X137.020 Y96.256 E-1.30235
G1 X137.130 Y96.490 E-0.12265
;WIPE_END
G1 E-0.07500 F3600.000
G1 X135.806 Y93.798 F9000.000
G1 X135.806 Y93.798
G1 X129.735 Y82.500
G1 E5.00000 F2400.000
G1 F1200.000
G1 X129.705 Y82.477 E0.00119
G1 X129.220 Y82.214 F9000.000
G1 F1200.000
G1 X128.872 Y82.024 E0.01243
G1 X127.986 Y81.810 E0.02858
G1 X92.096 Y81.803 E1.12531
G1 X91.747 Y81.905 E0.01141
G1 X91.108 Y82.091 F9000.000
G1 F1200.000
G1 X90.808 Y82.179 E0.00978
G1 X90.737 Y82.229 E0.00272
G1 E-3.50000 F3600.000
;WIPE_START
G1 F7200.000
G1 X90.808 Y82.179 E-0.04118
G1 X91.108 Y82.091 E-0.14817
;WIPE_END
G1 E-1.31064 F3600.000
G1 X90.737 Y82.229 F9000.000
G1 X90.737 Y82.229
G1 X83.920 Y94.434
G1 E5.00000 F2400.000
G1 F1200.000
G1 X83.036 Y96.205 E0.06207
G1 X79.173 Y104.323 E0.28189
G1 X79.164 Y104.380 E0.00183
G1 X79.517 Y104.518 F9000.000
G1 F1200.000
G1 X79.318 Y105.825 E0.04145
G1 X79.465 Y106.799 E0.03091
G1 X79.692 Y107.402 E0.02020
G1 X80.172 Y108.086 E0.02621
G1 X80.767 Y108.607 E0.02479
G1 X82.153 Y109.128 E0.04642
G1 X89.397 Y109.106 E0.22712
G1 X90.198 Y108.879 E0.02611
G1 X90.770 Y108.580 E0.02023
G1 X91.624 Y107.788 E0.03652
G1 X92.193 Y107.389 E0.02180
G1 X92.809 Y107.102 E0.02129
G1 X93.464 Y106.926 E0.02129
G1 X94.141 Y106.867 E0.02129
G1 X94.817 Y106.926 E0.02128
G1 X95.473 Y107.102 E0.02129
G1 X96.088 Y107.389 E0.02129
G1 X96.658 Y107.788 E0.02180
G1 X97.512 Y108.580 E0.03652
G1 X98.088 Y108.881 E0.02037
G1 X99.039 Y109.128 E0.03082
G1 X120.942 Y109.128 E0.68674
G1 X121.725 Y108.967 E0.02506
G1 X122.464 Y108.615 E0.02567
G1 X123.371 Y107.790 E0.03845
G1 X123.943 Y107.389 E0.02192
G1 X124.559 Y107.102 E0.02129
G1 X125.214 Y106.926 E0.02129
G1 X125.891 Y106.867 E0.02128
G1 X126.567 Y106.926 E0.02128
G1 X127.223 Y107.102 E0.02129
G1 X127.838 Y107.389 E0.02129
G1 X128.407 Y107.788 E0.02179
G1 X129.251 Y108.573 E0.03614
G1 X129.776 Y108.857 E0.01870
G1 X130.577 Y109.095 E0.02622
G1 X137.837 Y109.128 E0.22764
G1 X138.845 Y108.853 E0.03277
G1 X139.115 Y108.693 E0.00983
G1 X139.817 Y108.129 E0.02825
G1 X140.458 Y107.158 E0.03646
G1 X140.568 Y106.788 E0.01212
G1 X140.714 Y105.825 E0.03054
G1 X140.515 Y104.517 E0.04147
G1 E-3.50000 F3600.000
;WIPE_START
G1 F7200.000
G1 X140.714 Y105.825 E-0.62828
G1 X140.568 Y106.788 E-0.46274
G1 X140.458 Y107.158 E-0.18361
G1 X140.284 Y107.422 E-0.15038
;WIPE_END
G1 E-0.07500 F3600.000
G1 X140.515 Y104.517 F9000.000
G1 X140.515 Y104.517
G1 X135.468 Y93.964
G1 E5.00000 F2400.000
G1 F1200.000
G1 X133.661 Y90.302 E0.12805
G1 X130.310 Y83.657 E0.23334
G1 X129.525 Y82.814 E0.03610
G1 X129.497 Y82.793 F9000.000
G1 F1200.000
G1 X129.087 Y82.566 E0.01469
G1 E-3.50000 F3600.000
;WIPE_START
G1 F7200.000
G1 X129.497 Y82.793 E-0.22250
;WIPE_END
G1 E-1.27750 F3600.000
G1 X129.087 Y82.566 F9000.000
G1 X129.087 Y82.566
G1 X91.767 Y82.283
G1 E5.00000 F2400.000
G1 F1200.000
G1 X91.346 Y82.405 E0.01374
G1 X90.910 Y82.567 F9000.000
G1 F1200.000
G1 X90.259 Y83.016 E0.02480
G1 X89.710 Y83.676 E0.02692
G1 X84.259 Y94.599 E0.38276
G1 E-3.50000 F3600.000
;WIPE_START
G1 F7200.000
G1 X85.599 Y91.915 E-1.42500
;WIPE_END
G1 E-0.07500 F3600.000
G1 X84.259 Y94.599 F9000.000
G1 X84.259 Y94.599
G1 X80.990 Y108.301
G1 E5.00000 F2400.000
G1 F1200.000
G1 X80.439 Y107.818 E0.02297
G1 X80.016 Y107.207 E0.02330
G1 X79.835 Y106.724 E0.01619
G1 X79.695 Y105.796 E0.02940
G1 X79.878 Y104.597 E0.03804
G1 X83.713 Y96.539 E0.27982
G1 X90.037 Y83.865 E0.44410
G1 X90.530 Y83.280 E0.02399
G1 X91.184 Y82.836 E0.02478
G1 X92.149 Y82.557 E0.03150
G1 X127.938 Y82.564 E1.12216
G1 X128.638 Y82.743 E0.02264
G1 X129.303 Y83.116 E0.02391
G1 X129.985 Y83.850 E0.03141
G1 X133.324 Y90.471 E0.23249
G1 X136.342 Y96.588 E0.21387
G1 X140.154 Y104.597 E0.27811
G1 X140.337 Y105.796 E0.03804
G1 X140.198 Y106.718 E0.02921
G1 X140.105 Y107.023 E0.00999
G1 X139.558 Y107.853 E0.03119
G1 X138.890 Y108.390 E0.02687
G1 X138.677 Y108.514 E0.00774
G1 X137.813 Y108.751 E0.02808
G1 X130.607 Y108.718 E0.22594
G1 X129.906 Y108.503 E0.02301
G1 X129.454 Y108.255 E0.01615
G1 X128.646 Y107.495 E0.03478
G1 X128.027 Y107.061 E0.02369
G1 X127.352 Y106.746 E0.02335
G1 X126.633 Y106.554 E0.02336
G1 X125.891 Y106.489 E0.02335
G1 X125.149 Y106.554 E0.02335
G1 X124.429 Y106.746 E0.02336
G1 X123.754 Y107.061 E0.02335
G1 X123.133 Y107.496 E0.02376
G1 X122.273 Y108.289 E0.03667
G1 X121.624 Y108.603 E0.02263
G1 X120.922 Y108.750 E0.02249
G1 X99.064 Y108.750 E0.68532
G1 X98.206 Y108.522 E0.02783
G1 X97.712 Y108.259 E0.01757
G1 X96.896 Y107.495 E0.03504
G1 X96.277 Y107.061 E0.02370
G1 X95.602 Y106.746 E0.02335
G1 X94.883 Y106.554 E0.02335
G1 X94.141 Y106.489 E0.02335
G1 X93.399 Y106.554 E0.02335
G1 X92.679 Y106.746 E0.02335
G1 X92.004 Y107.061 E0.02335
G1 X91.385 Y107.495 E0.02370
G1 X90.570 Y108.260 E0.03505
G1 X90.076 Y108.522 E0.01754
G1 X89.319 Y108.736 E0.02465
G1 X82.187 Y108.750 E0.22363
G1 X81.046 Y108.322 E0.03821
G1 X81.213 Y107.995 F9000.000
G1 F1200.000
G1 X80.706 Y107.551 E0.02113
G1 X80.341 Y107.015 E0.02033
G1 X80.205 Y106.649 E0.01225
G1 X80.072 Y105.768 E0.02791
G1 X80.230 Y104.734 E0.03280
G1 X84.051 Y96.705 E0.27879
G1 X90.364 Y84.055 E0.44330
G1 X90.799 Y83.546 E0.02099
G1 X91.368 Y83.166 E0.02146
G1 X92.175 Y82.934 E0.02633
G1 X127.913 Y82.941 E1.12055
G1 X128.517 Y83.101 E0.01957
G1 X129.090 Y83.428 E0.02072
G1 X129.660 Y84.043 E0.02628
G1 X132.987 Y90.640 E0.23164
G1 X136.003 Y96.753 E0.21375
G1 X139.801 Y104.734 E0.27712
G1 X139.960 Y105.768 E0.03280
G1 X139.827 Y106.647 E0.02786
G1 X139.753 Y106.886 E0.00784
G1 X139.298 Y107.578 E0.02596
G1 X138.666 Y108.086 E0.02545
G1 X138.511 Y108.175 E0.00560
G1 X137.789 Y108.374 E0.02347
G1 X130.639 Y108.341 E0.22419
G1 X130.040 Y108.150 E0.01971
G1 X129.660 Y107.938 E0.01366
G1 X128.886 Y107.202 E0.03347
G1 X128.216 Y106.733 E0.02563
G1 X127.482 Y106.391 E0.02542
G1 X126.698 Y106.181 E0.02542
G1 X125.891 Y106.110 E0.02542
G1 X125.083 Y106.181 E0.02542
G1 X124.300 Y106.391 E0.02542
G1 X123.565 Y106.733 E0.02542
G1 X122.895 Y107.203 E0.02565
G1 X122.080 Y107.964 E0.03495
G1 X121.520 Y108.240 E0.01958
G1 X120.901 Y108.373 E0.01986
G1 X99.090 Y108.373 E0.68387
G1 X98.328 Y108.165 E0.02477
G1 X97.914 Y107.941 E0.01477
G1 X97.136 Y107.202 E0.03362
G1 X96.466 Y106.733 E0.02563
G1 X95.732 Y106.391 E0.02542
G1 X94.948 Y106.181 E0.02542
G1 X94.141 Y106.110 E0.02542
G1 X93.333 Y106.181 E0.02542
G1 X92.550 Y106.391 E0.02542
G1 X91.815 Y106.733 E0.02542
G1 X91.145 Y107.202 E0.02563
G1 X90.367 Y107.941 E0.03363
G1 X89.952 Y108.165 E0.01480
G1 X89.242 Y108.366 E0.02315
G1 X82.221 Y108.373 E0.22014
