; generated by PrusaSlicer 2.3.3+win64 on 2022-02-26 at 09:36:51 UTC

; 

; external perimeters extrusion width = 0.45mm
; perimeters extrusion width = 0.45mm
; infill extrusion width = 0.45mm
; solid infill extrusion width = 0.45mm
; top infill extrusion width = 0.40mm
; first layer extrusion width = 0.42mm

M201 X500 Y500 Z100 E5000 ; sets maximum accelerations, mm/sec^2
M203 X500 Y500 Z10 E60 ; sets maximum feedrates, mm/sec
M204 P500 R1000 T500 ; sets acceleration (P, T) and retract acceleration (R), mm/sec^2
M205 X8.00 Y8.00 Z0.40 E5.00 ; sets the jerk limits, mm/sec
M205 S0 T0 ; sets the minimum extruding and travel feed rate, mm/sec
M107
;TYPE:Custom
G90 ; use absolute coordinates
M83 ; extruder relative mode
M140 S60 ; set final bed temp
M104 S150 ; set temporary nozzle temp to prevent oozing during homing
G4 S10 ; allow partial nozzle warmup
G28 ; home all axis
G1 Z50 F240
G1 X2 Y10 F3000
M104 S205 ; set final nozzle temp
M190 S60 ; wait for bed temp to stabilize
M109 S205 ; wait for nozzle temp to stabilize
G1 Z0.28 F240
G92 E0
G1 Y140 E10 F1500 ; prime the nozzle
G1 X2.3 F5000
G92 E0
G1 Y10 E10 F1200 ; prime the nozzle
G92 E0
G21 ; set units to millimeters
G90 ; use absolute coordinates
M83 ; use relative distances for extrusion
; Filament gcode
;LAYER_CHANGE
;Z:0.2
;HEIGHT:0.2
;BEFORE_LAYER_CHANGE
G92 E0
;0.2


G1 E-5.00000 F3600.000
G1 Z0.200 F9000.000
;AFTER_LAYER_CHANGE
;0.2
G1 X93.066 Y97.507
G1 E5.00000 F2400.000
M204 S500
;TYPE:Skirt
;WIDTH:0.42
G1 F1200.000
G1 X94.150 Y97.341 E0.03438
G1 X125.822 Y97.340 E0.99305
G1 X126.720 Y97.440 E0.02833
G1 X127.602 Y97.732 E0.02915
G1 X128.489 Y98.216 E0.03167
G1 X129.475 Y98.956 E0.03867
G1 X130.863 Y100.336 E0.06134
G1 X131.607 Y101.299 E0.03817
G1 X132.185 Y102.351 E0.03762
G1 X132.477 Y103.298 E0.03107
G1 X132.552 Y104.055 E0.02387
G1 X132.527 Y117.704 E0.42795
G1 X132.318 Y118.635 E0.02992
G1 X131.868 Y119.559 E0.03224
G1 X131.256 Y120.304 E0.03020
G1 X130.479 Y120.898 E0.03070
G1 X129.451 Y121.344 E0.03512
G1 X128.348 Y121.504 E0.03495
G1 X91.628 Y121.502 E1.15133
G1 X90.563 Y121.334 E0.03382
G1 X89.563 Y120.895 E0.03422
G1 X88.743 Y120.256 E0.03261
G1 X88.102 Y119.431 E0.03276
G1 X87.666 Y118.436 E0.03404
G1 X87.497 Y117.378 E0.03359
G1 X87.495 Y104.079 E0.41700
G1 X87.558 Y103.368 E0.02238
G1 X87.731 Y102.694 E0.02183
G1 X88.042 Y101.969 E0.02473
G1 X88.994 Y100.556 E0.05341
G1 X89.795 Y99.672 E0.03742
G1 X90.608 Y98.925 E0.03459
G1 X91.930 Y97.991 E0.05075
G1 X93.011 Y97.531 E0.03685
G1 X93.157 Y97.877 F9000.000
G1 F1200.000
G1 X94.160 Y97.718 E0.03186
G1 X125.822 Y97.717 E0.99272
G1 X126.649 Y97.811 E0.02611
G1 X127.464 Y98.083 E0.02695
G1 X128.290 Y98.536 E0.02952
G1 X129.233 Y99.245 E0.03702
G1 X130.584 Y100.590 E0.05975
G1 X131.294 Y101.510 E0.03647
G1 X131.842 Y102.506 E0.03561
G1 X132.112 Y103.394 E0.02911
G1 X132.175 Y104.056 E0.02086
G1 X132.153 Y117.655 E0.42640
G1 X131.950 Y118.543 E0.02856
G1 X131.524 Y119.397 E0.02991
G1 X130.941 Y120.083 E0.02821
G1 X130.183 Y120.634 E0.02937
G1 X129.295 Y120.995 E0.03008
G1 X128.332 Y121.127 E0.03048
G1 X91.635 Y121.125 E1.15062
G1 X90.646 Y120.965 E0.03140
G1 X89.711 Y120.544 E0.03217
G1 X88.957 Y119.936 E0.03036
G1 X88.366 Y119.136 E0.03118
G1 X88.012 Y118.275 E0.02920
G1 X87.874 Y117.345 E0.02946
G1 X87.872 Y104.080 E0.41593
G1 X87.931 Y103.425 E0.02061
G1 X88.091 Y102.806 E0.02006
G1 X88.387 Y102.124 E0.02330
G1 X89.298 Y100.780 E0.05090
G1 X90.066 Y99.935 E0.03582
G1 X90.860 Y99.205 E0.03381
G1 X92.149 Y98.301 E0.04937
G1 X93.101 Y97.900 E0.03240
G1 E-3.50000 F3600.000
;WIPE_START
G1 F7200.000
G1 X94.160 Y97.718 E-0.51043
G1 X96.086 Y97.718 E-0.91457
;WIPE_END
G1 E-0.07500 F3600.000
G1 X93.101 Y97.900 F9000.000
G1 X93.101 Y97.900
G1 X86.640 Y103.015
G1 E5.00000 F2400.000
G1 F1200.000
G1 X86.885 Y102.213 E0.02630
G1 X87.230 Y101.452 E0.02620
G1 X87.758 Y100.601 E0.03138
G1 X88.331 Y99.854 E0.02954
G1 X89.111 Y98.999 E0.03627
G1 X89.975 Y98.203 E0.03684
G1 X90.851 Y97.534 E0.03456
G1 X91.586 Y97.083 E0.02704
G1 X92.800 Y96.586 E0.04112
G1 X94.052 Y96.380 E0.03980
G1 X125.972 Y96.381 E1.00083
G1 X126.893 Y96.496 E0.02909
G1 X127.732 Y96.747 E0.02744
G1 X128.891 Y97.335 E0.04077
G1 X129.954 Y98.104 E0.04113
G1 X130.861 Y98.923 E0.03831
G1 X131.693 Y99.825 E0.03848
G1 X132.446 Y100.827 E0.03931
G1 X132.776 Y101.374 E0.02001
G1 X133.055 Y101.940 E0.01979
G1 X133.394 Y102.952 E0.03348
G1 X133.487 Y117.710 E0.46274
G1 X133.226 Y118.946 E0.03958
G1 X132.698 Y120.043 E0.03818
G1 X131.913 Y121.003 E0.03890
G1 X130.894 Y121.767 E0.03992
G1 X129.715 Y122.265 E0.04012
G1 X128.437 Y122.464 E0.04057
G1 X91.591 Y122.464 E1.15526
G1 X90.272 Y122.248 E0.04192
G1 X89.055 Y121.710 E0.04171
G1 X88.045 Y120.913 E0.04034
G1 X87.237 Y119.853 E0.04180
G1 X86.739 Y118.685 E0.03982
G1 X86.535 Y117.379 E0.04146
G1 X86.640 Y103.075 E0.44848
G1 X87.009 Y103.098 F9000.000
G1 F1200.000
G1 X87.233 Y102.357 E0.02427
G1 X87.569 Y101.619 E0.02541
G1 X88.073 Y100.809 E0.02993
G1 X88.625 Y100.090 E0.02842
G1 X89.384 Y99.260 E0.03526
G1 X90.224 Y98.486 E0.03581
G1 X91.072 Y97.840 E0.03343
G1 X91.770 Y97.412 E0.02568
G1 X92.883 Y96.955 E0.03773
G1 X94.068 Y96.757 E0.03767
G1 X125.961 Y96.758 E0.99998
G1 X126.802 Y96.863 E0.02656
G1 X127.577 Y97.091 E0.02535
G1 X128.683 Y97.650 E0.03883
G1 X129.709 Y98.391 E0.03969
G1 X130.601 Y99.197 E0.03772
G1 X131.410 Y100.073 E0.03737
G1 X132.138 Y101.046 E0.03810
G1 X132.449 Y101.561 E0.01887
G1 X132.711 Y102.095 E0.01864
G1 X133.027 Y103.043 E0.03134
G1 X133.114 Y117.654 E0.45812
G1 X132.877 Y118.803 E0.03679
G1 X132.368 Y119.858 E0.03672
G1 X131.637 Y120.745 E0.03605
G1 X130.688 Y121.451 E0.03706
G1 X129.592 Y121.908 E0.03725
G1 X128.423 Y122.087 E0.03709
G1 X91.606 Y122.087 E1.15435
G1 X90.400 Y121.892 E0.03829
G1 X89.270 Y121.399 E0.03869
G1 X88.298 Y120.632 E0.03880
G1 X87.552 Y119.645 E0.03879
G1 X87.096 Y118.561 E0.03690
G1 X86.912 Y117.366 E0.03789
G1 X87.009 Y103.158 E0.44549
G1 X87.377 Y103.313 F9000.000
G1 F1200.000
G1 X87.378 Y103.181 E0.00414
G1 X87.590 Y102.479 E0.02301
G1 X87.906 Y101.788 E0.02383
G1 X88.388 Y101.017 E0.02850
G1 X88.919 Y100.326 E0.02730
G1 X89.656 Y99.521 E0.03425
G1 X90.472 Y98.770 E0.03477
G1 X91.292 Y98.146 E0.03230
G1 X91.953 Y97.742 E0.02429
G1 X93.006 Y97.312 E0.03565
G1 X94.083 Y97.134 E0.03424
G1 X125.949 Y97.135 E0.99914
G1 X126.711 Y97.229 E0.02407
G1 X127.424 Y97.436 E0.02326
G1 X127.647 Y97.548 E0.00783
G1 X127.804 Y97.627 F9000.000
G1 F1200.000
G1 X128.475 Y97.965 E0.02352
G1 X129.464 Y98.677 E0.03824
G1 X130.330 Y99.459 E0.03658
G1 X131.126 Y100.322 E0.03679
G1 X131.830 Y101.264 E0.03688
G1 X132.121 Y101.748 E0.01772
G1 X132.367 Y102.249 E0.01749
G1 X132.660 Y103.133 E0.02920
G1 X132.660 Y103.254 E0.00380
G1 E-3.50000 F3600.000
;WIPE_START
G1 F7200.000
G1 X132.660 Y103.133 E-0.05754
G1 X132.367 Y102.249 E-0.44244
G1 X132.121 Y101.748 E-0.26496
G1 X131.830 Y101.264 E-0.26846
G1 X131.337 Y100.603 E-0.39161
;WIPE_END
G1 E-0.07500 F3600.000
G1 X132.660 Y103.254 F9000.000
G1 X132.660 Y103.254
G1 X132.722 Y114.355
G1 E5.00000 F2400.000
G1 F1200.000
G1 X132.740 Y117.599 E0.10172
G1 X132.715 Y117.724 E0.00402
G1 X132.704 Y117.776 F9000.000
G1 F1200.000
G1 X132.526 Y118.663 E0.02836
G1 X132.062 Y119.636 E0.03381
G1 X131.361 Y120.487 E0.03456
G1 X130.483 Y121.133 E0.03417
G1 X129.512 Y121.539 E0.03301
G1 X128.408 Y121.710 E0.03501
G1 X91.622 Y121.710 E1.15341
G1 X90.486 Y121.524 E0.03609
G1 X89.445 Y121.064 E0.03567
G1 X88.553 Y120.353 E0.03577
G1 X87.869 Y119.439 E0.03579
G1 X87.453 Y118.438 E0.03398
G1 X87.289 Y117.354 E0.03437
G1 X87.308 Y114.325 E0.09498
G1 X88.062 Y113.816 F9000.000
G1 F1200.000
G1 X88.115 Y103.480 E0.32406
G1 E-3.50000 F3600.000
;WIPE_START
G1 F7200.000
G1 X88.100 Y106.480 E-1.42500
;WIPE_END
G1 E-0.07500 F3600.000
G1 X88.115 Y103.480 F9000.000
G1 X88.115 Y103.480
G1 X127.364 Y98.248
G1 E5.00000 F2400.000
G1 F1200.000
G1 X127.469 Y98.301 E0.00370
G1 E-3.50000 F3600.000
;WIPE_START
G1 F7200.000
G1 X127.364 Y98.248 E-0.05599
;WIPE_END
G1 E-1.44401 F3600.000
G1 X127.469 Y98.301 F9000.000
G1 X127.469 Y98.301
G1 X131.925 Y103.430
G1 E5.00000 F2400.000
G1 F1200.000
G1 X131.972 Y113.198 E0.30627
G1 E-3.50000 F3600.000
;WIPE_START
G1 F7200.000
G1 X131.958 Y110.198 E-1.42500
;WIPE_END
G1 E-0.07500 F3600.000
G1 X131.972 Y113.198 F9000.000
G1 X131.972 Y113.198
G1 X131.557 Y103.400
G1 E5.00000 F2400.000
G1 F1200.000
G1 X131.619 Y117.441 E0.44024
G1 X131.458 Y118.290 E0.02710
G1 X131.096 Y119.047 E0.02631
G1 X130.571 Y119.676 E0.02568
G1 X129.877 Y120.176 E0.02683
G1 X129.152 Y120.465 E0.02447
G1 X128.367 Y120.578 E0.02485
G1 X91.666 Y120.578 E1.15074
G1 X90.828 Y120.446 E0.02660
G1 X90.013 Y120.085 E0.02797
G1 X89.322 Y119.521 E0.02795
G1 X88.824 Y118.830 E0.02670
G1 X88.539 Y118.120 E0.02401
G1 X88.421 Y117.317 E0.02544
G1 X88.485 Y103.429 E0.43545
G1 X88.653 Y102.867 E0.01838
G1 X88.906 Y102.316 E0.01902
G1 X89.331 Y101.642 E0.02499
G1 X89.779 Y101.061 E0.02302
G1 X90.462 Y100.314 E0.03172
G1 X91.218 Y99.621 E0.03214
G1 X91.952 Y99.065 E0.02887
G1 X92.503 Y98.732 E0.02019
G1 X93.297 Y98.405 E0.02692
G1 X94.131 Y98.266 E0.02650
G1 X125.916 Y98.266 E0.99660
G1 X126.447 Y98.330 E0.01678
G1 X127.000 Y98.485 E0.01800
G1 X127.877 Y98.925 E0.03076
G1 X128.746 Y99.552 E0.03360
G1 X129.529 Y100.258 E0.03305
G1 X130.274 Y101.067 E0.03450
G1 X130.895 Y101.900 E0.03259
G1 X131.130 Y102.293 E0.01436
G1 X131.333 Y102.710 E0.01452
G1 X131.539 Y103.343 E0.02088
G1 X131.180 Y103.458 F9000.000
G1 F1200.000
G1 X131.245 Y117.391 E0.43685
G1 X131.106 Y118.151 E0.02422
G1 X130.766 Y118.862 E0.02472
G1 X130.300 Y119.414 E0.02265
G1 X129.679 Y119.855 E0.02389
G1 X129.036 Y120.105 E0.02162
G1 X128.354 Y120.201 E0.02159
G1 X91.682 Y120.201 E1.14985
G1 X90.914 Y120.078 E0.02438
G1 X90.192 Y119.752 E0.02483
G1 X89.583 Y119.247 E0.02480
G1 X89.146 Y118.632 E0.02368
G1 X88.898 Y118.003 E0.02119
G1 X88.798 Y117.305 E0.02211
G1 X88.854 Y103.511 E0.43249
G1 X89.010 Y102.989 E0.01710
G1 X89.243 Y102.486 E0.01736
G1 X89.645 Y101.851 E0.02357
G1 X90.063 Y101.310 E0.02145
G1 X90.735 Y100.575 E0.03121
G1 X91.466 Y99.905 E0.03108
G1 X92.171 Y99.372 E0.02772
G1 X92.686 Y99.062 E0.01884
G1 X93.382 Y98.773 E0.02363
G1 X94.147 Y98.643 E0.02434
G1 X125.904 Y98.643 E0.99573
G1 X126.386 Y98.702 E0.01523
G1 X126.878 Y98.842 E0.01605
G1 X127.693 Y99.254 E0.02861
G1 X128.516 Y99.851 E0.03189
G1 X129.269 Y100.531 E0.03182
G1 X129.990 Y101.315 E0.03338
G1 X130.576 Y102.102 E0.03077
G1 X130.802 Y102.480 E0.01380
G1 X130.988 Y102.862 E0.01334
G1 X131.161 Y103.401 E0.01775
G1 X130.802 Y103.516 F9000.000
G1 F1200.000
G1 X130.821 Y103.574 E0.00193
G1 X130.870 Y117.343 E0.43172
G1 X130.754 Y118.015 E0.02137
G1 X130.460 Y118.641 E0.02167
G1 X130.061 Y119.121 E0.01958
G1 X129.480 Y119.533 E0.02232
G1 X128.923 Y119.745 E0.01869
G1 X128.342 Y119.824 E0.01839
G1 X91.697 Y119.824 E1.14897
G1 X91.001 Y119.710 E0.02212
G1 X90.374 Y119.421 E0.02164
G1 X89.846 Y118.976 E0.02166
G1 X89.469 Y118.436 E0.02065
G1 X89.258 Y117.889 E0.01838
G1 X89.175 Y117.293 E0.01886
G1 X89.223 Y103.593 E0.42955
G1 X89.367 Y103.110 E0.01580
G1 X89.579 Y102.658 E0.01567
G1 X89.958 Y102.061 E0.02218
G1 X90.346 Y101.558 E0.01991
G1 X90.996 Y100.847 E0.03019
G1 X91.714 Y100.189 E0.03053
G1 X92.390 Y99.679 E0.02656
G1 X92.867 Y99.393 E0.01746
G1 X93.505 Y99.130 E0.02163
G1 X94.162 Y99.020 E0.02089
G1 X125.892 Y99.020 E0.99487
G1 X126.324 Y99.074 E0.01365
G1 X126.756 Y99.199 E0.01409
G1 X127.507 Y99.583 E0.02647
G1 X128.286 Y100.150 E0.03019
G1 X129.009 Y100.805 E0.03060
G1 X129.706 Y101.563 E0.03227
G1 X130.258 Y102.304 E0.02898
G1 X130.467 Y102.652 E0.01273
G1 X130.643 Y103.015 E0.01264
G1 X130.784 Y103.458 E0.01460
G1 X130.425 Y103.572 F9000.000
G1 F1200.000
G1 X130.453 Y103.660 E0.00291
G1 X130.496 Y117.299 E0.42763
G1 X130.401 Y117.879 E0.01845
G1 X130.130 Y118.457 E0.02001
G1 X129.791 Y118.857 E0.01644
G1 X129.286 Y119.209 E0.01929
G1 X128.814 Y119.384 E0.01579
G1 X128.330 Y119.447 E0.01529
G1 X91.711 Y119.447 E1.14816
G1 X91.131 Y119.355 E0.01841
G1 X90.593 Y119.113 E0.01850
G1 X90.140 Y118.738 E0.01845
G1 X89.792 Y118.240 E0.01905
G1 X89.619 Y117.778 E0.01548
G1 X89.552 Y117.282 E0.01569
G1 X89.592 Y103.675 E0.42662
G1 X89.724 Y103.232 E0.01449
G1 X89.915 Y102.830 E0.01395
G1 X90.271 Y102.271 E0.02080
G1 X90.630 Y101.807 E0.01839
G1 X91.269 Y101.108 E0.02968
G1 X91.962 Y100.474 E0.02945
G1 X92.609 Y99.987 E0.02539
G1 X93.049 Y99.723 E0.01611
G1 X93.591 Y99.498 E0.01838
G1 X94.179 Y99.397 E0.01871
G1 X125.880 Y99.397 E0.99397
G1 X126.260 Y99.446 E0.01203
G1 X126.631 Y99.556 E0.01211
G1 X127.321 Y99.911 E0.02435
G1 X128.055 Y100.448 E0.02851
G1 X128.749 Y101.078 E0.02940
G1 X129.421 Y101.811 E0.03116
G1 X129.939 Y102.506 E0.02719
G1 X130.139 Y102.839 E0.01216
G1 X130.297 Y103.166 E0.01141
G1 X130.407 Y103.514 E0.01144
G1 X130.048 Y103.626 F9000.000
G1 F1200.000
G1 X130.084 Y103.745 E0.00389
G1 X130.119 Y117.283 E0.42449
G1 X130.034 Y117.789 E0.01609
G1 X129.802 Y118.269 E0.01671
G1 X129.523 Y118.590 E0.01333
G1 X129.095 Y118.883 E0.01627
G1 X128.708 Y119.021 E0.01288
G1 X128.319 Y119.070 E0.01229
G1 X91.727 Y119.070 E1.14732
G1 X91.219 Y118.988 E0.01615
G1 X90.776 Y118.783 E0.01528
G1 X90.403 Y118.467 E0.01534
G1 X90.135 Y118.083 E0.01467
G1 X89.989 Y117.703 E0.01275
G1 X89.929 Y117.269 E0.01375
G1 X89.961 Y103.756 E0.42371
G1 X90.072 Y103.379 E0.01231
G1 X90.239 Y103.022 E0.01235
G1 X90.585 Y102.481 E0.02014
G1 X90.914 Y102.055 E0.01686
G1 X91.529 Y101.380 E0.02864
G1 X92.209 Y100.758 E0.02890
G1 X92.827 Y100.295 E0.02421
G1 X93.230 Y100.054 E0.01472
G1 X93.714 Y99.855 E0.01642
G1 X94.194 Y99.774 E0.01526
G1 X125.867 Y99.775 E0.99308
G1 X126.195 Y99.818 E0.01037
G1 X126.504 Y99.911 E0.01013
G1 X127.134 Y100.239 E0.02225
G1 X127.824 Y100.746 E0.02685
G1 X128.489 Y101.351 E0.02821
G1 X129.137 Y102.058 E0.03006
G1 X129.621 Y102.708 E0.02541
G1 X129.811 Y103.025 E0.01159
G1 X129.951 Y103.317 E0.01015
G1 X130.030 Y103.569 E0.00827
G1 X129.670 Y103.679 F9000.000
G1 F1200.000
G1 X129.716 Y103.828 E0.00488
G1 X129.742 Y117.270 E0.42145
G1 X129.680 Y117.655 E0.01224
G1 X129.497 Y118.047 E0.01356
G1 X129.285 Y118.297 E0.01027
G1 X128.940 Y118.539 E0.01322
G1 X128.637 Y118.650 E0.01012
G1 X128.306 Y118.693 E0.01046
G1 X91.740 Y118.693 E1.14651
G1 X91.352 Y118.634 E0.01232
G1 X90.960 Y118.452 E0.01354
G1 X90.670 Y118.201 E0.01204
G1 X90.461 Y117.892 E0.01167
G1 X90.351 Y117.594 E0.00998
G1 X90.306 Y117.258 E0.01063
G1 X90.331 Y103.836 E0.42082
G1 X90.430 Y103.500 E0.01098
G1 X90.574 Y103.196 E0.01057
G1 X90.898 Y102.691 E0.01878
G1 X91.198 Y102.304 E0.01537
G1 X91.802 Y101.641 E0.02813
G1 X92.457 Y101.043 E0.02780
G1 X93.044 Y100.603 E0.02302
G1 X93.411 Y100.385 E0.01337
G1 X93.801 Y100.222 E0.01323
G1 X94.211 Y100.151 E0.01306
G1 X125.855 Y100.152 E0.99219
G1 X126.101 Y100.183 E0.00778
G1 X126.378 Y100.267 E0.00905
G1 X126.945 Y100.565 E0.02010
G1 X127.592 Y101.043 E0.02522
G1 X128.229 Y101.624 E0.02703
G1 X128.852 Y102.306 E0.02896
G1 X129.302 Y102.910 E0.02363
G1 X129.483 Y103.211 E0.01101
G1 X129.605 Y103.466 E0.00887
G1 X129.652 Y103.622 E0.00509
G1 X129.293 Y103.730 F9000.000
G1 F1200.000
G1 X129.347 Y103.910 E0.00589
G1 X129.364 Y117.254 E0.41840
G1 X129.313 Y117.564 E0.00987
G1 X129.171 Y117.856 E0.01017
G1 X129.020 Y118.028 E0.00719
G1 X128.751 Y118.212 E0.01021
G1 X128.535 Y118.287 E0.00718
G1 X128.296 Y118.316 E0.00754
G1 X91.752 Y118.316 E1.14580
G1 X91.478 Y118.278 E0.00867
G1 X91.180 Y118.145 E0.01024
G1 X90.967 Y117.966 E0.00873
G1 X90.788 Y117.702 E0.00999
G1 X90.714 Y117.491 E0.00704
G1 X90.683 Y117.247 E0.00769
G1 X90.700 Y103.915 E0.41804
G1 X90.778 Y103.646 E0.00876
G1 X90.899 Y103.388 E0.00893
G1 X91.211 Y102.902 E0.01812
G1 X91.481 Y102.552 E0.01388
G1 X92.063 Y101.913 E0.02708
G1 X92.704 Y101.328 E0.02723
G1 X93.262 Y100.911 E0.02182
G1 X93.591 Y100.717 E0.01198
G1 X93.924 Y100.579 E0.01132
G1 X94.226 Y100.528 E0.00960
G1 X125.842 Y100.529 E0.99129
G1 X126.034 Y100.555 E0.00607
G1 X126.248 Y100.621 E0.00702
G1 X126.755 Y100.891 E0.01801
G1 X127.345 Y101.328 E0.02302
G1 X127.968 Y101.897 E0.02645
