; generated by PrusaSlicer 2.3.3+win64 on 2022-04-01 at 13:16:54 UTC

; 

; external perimeters extrusion width = 0.45mm
; perimeters extrusion width = 0.45mm
; infill extrusion width = 0.45mm
; solid infill extrusion width = 0.45mm
; top infill extrusion width = 0.40mm
; support material extrusion width = 0.38mm
; first layer extrusion width = 0.42mm

M201 X500 Y500 Z100 E5000 ; sets maximum accelerations, mm/sec^2
M203 X500 Y500 Z10 E60 ; sets maximum feedrates, mm/sec
M204 P500 R1000 T500 ; sets acceleration (P, T) and retract acceleration (R), mm/sec^2
M205 X8.00 Y8.00 Z0.40 E5.00 ; sets the jerk limits, mm/sec
M205 S0 T0 ; sets the minimum extruding and travel feed rate, mm/sec
M107
;TYPE:Custom
G90 ; use absolute coordinates
M83 ; extruder relative mode
M140 S60 ; set final bed temp
M104 S150 ; set temporary nozzle temp to prevent oozing during homing
G4 S10 ; allow partial nozzle warmup
G28 ; home all axis
G1 Z50 F240
G1 X2 Y10 F3000
M104 S205 ; set final nozzle temp
M190 S60 ; wait for bed temp to stabilize
M109 S205 ; wait for nozzle temp to stabilize
G1 Z0.28 F240
G92 E0
G1 Y140 E10 F1500 ; prime the nozzle
G1 X2.3 F5000
G92 E0
G1 Y10 E10 F1200 ; prime the nozzle
G92 E0
G21 ; set units to millimeters
G90 ; use absolute coordinates
M83 ; use relative distances for extrusion
; Filament gcode
;LAYER_CHANGE
;Z:0.2
;HEIGHT:0.2
;BEFORE_LAYER_CHANGE
G92 E0
;0.2


G1 E-5.00000 F3600.000
G1 Z0.200 F9000.000
;AFTER_LAYER_CHANGE
;0.2
G1 X81.863 Y81.374
G1 E5.00000 F2400.000
M204 S500
;TYPE:Skirt
;WIDTH:0.42
G1 F1200.000
G1 X82.370 Y80.920 E0.02132
G1 X82.957 Y80.577 E0.02132
G1 X83.605 Y80.357 E0.02146
G1 X84.279 Y80.273 E0.02132
G1 X135.646 Y80.102 E1.61057
G1 X136.287 Y80.165 E0.02018
G1 X136.904 Y80.347 E0.02018
G1 X137.475 Y80.644 E0.02018
G1 X137.980 Y81.043 E0.02018
G1 X138.400 Y81.531 E0.02018
G1 X138.719 Y82.090 E0.02018
G1 X138.927 Y82.699 E0.02018
G1 X139.015 Y83.337 E0.02018
G1 X139.018 Y136.575 E1.66924
G1 X138.953 Y137.183 E0.01919
G1 X138.780 Y137.766 E0.01905
G1 X138.504 Y138.312 E0.01919
G1 X138.137 Y138.796 E0.01905
G1 X137.616 Y139.260 E0.02188
G1 X137.006 Y139.609 E0.02202
G1 X136.337 Y139.825 E0.02202
G1 X135.641 Y139.897 E0.02194
G1 X85.799 Y139.897 E1.56278
G1 X83.438 Y139.600 E0.07460
G1 X82.714 Y139.300 E0.02457
G1 X82.082 Y138.845 E0.02443
G1 X81.620 Y138.327 E0.02174
G1 X81.273 Y137.722 E0.02188
G1 X81.057 Y137.059 E0.02188
G1 X80.982 Y136.365 E0.02188
G1 X80.982 Y83.595 E1.65457
G1 X81.047 Y82.986 E0.01919
G1 X81.220 Y82.404 E0.01905
G1 X81.496 Y81.858 E0.01919
G1 X81.827 Y81.421 E0.01717
G1 E-3.50000 F3600.000
;WIPE_START
G1 F7200.000
G1 X82.370 Y80.920 E-0.35095
G1 X82.957 Y80.577 E-0.32293
G1 X83.605 Y80.357 E-0.32508
G1 X84.279 Y80.273 E-0.32293
G1 X84.497 Y80.272 E-0.10311
;WIPE_END
G1 E-0.07500 F3600.000
G1 X81.827 Y81.421 F9000.000
G1 X81.827 Y81.421
G1 X92.926 Y80.056
G1 E5.00000 F2400.000
G1 F1200.000
G1 X92.408 Y79.584 E0.02197
G1 X91.179 Y78.975 E0.04300
G1 X90.020 Y78.750 E0.03702
G1 X83.692 Y78.774 E0.19841
G1 X82.040 Y79.306 E0.05441
G1 X81.242 Y79.849 E0.03026
G1 X80.558 Y80.531 E0.03027
G1 X79.808 Y81.779 E0.04566
G1 X79.462 Y83.147 E0.04425
G1 X79.456 Y92.636 E0.29751
G1 X79.850 Y94.082 E0.04700
G1 X80.518 Y95.126 E0.03885
G1 X80.793 Y95.384 E0.01185
G1 X81.170 Y95.737 F9000.000
G1 F1200.000
G1 X81.452 Y96.001 E0.01210
G1 X82.509 Y96.563 E0.03754
G1 X83.474 Y96.803 E0.03117
G1 X84.722 Y96.815 E0.03913
G1 X85.093 Y97.426 E0.02242
G1 X85.744 Y98.065 E0.02860
G1 X86.244 Y98.425 E0.01930
G1 X86.244 Y121.248 E0.71560
G1 X85.130 Y121.977 E0.04173
G1 X84.542 Y122.578 E0.02638
G1 X84.115 Y123.172 E0.02293
G1 X83.645 Y123.181 E0.01474
G1 X82.794 Y123.337 E0.02714
G1 X81.315 Y124.098 E0.05213
G1 X81.170 Y124.243 E0.00643
G1 X80.793 Y124.618 F9000.000
G1 F1200.000
G1 X80.436 Y124.972 E0.01578
G1 X79.811 Y126.004 E0.03784
G1 X79.456 Y127.374 E0.04434
G1 X79.456 Y136.841 E0.29683
G1 X79.989 Y138.614 E0.05804
G1 X80.588 Y139.502 E0.03360
G1 X81.352 Y140.240 E0.03330
G1 X82.256 Y140.801 E0.03336
G1 X83.779 Y141.237 E0.04967
G1 X85.451 Y141.253 E0.05243
G1 X85.699 Y141.228 E0.00781
G1 X86.304 Y141.253 E0.01899
G1 X89.231 Y141.253 E0.09175
G1 X89.485 Y141.226 E0.00801
G1 X90.235 Y141.233 E0.02352
G1 X91.350 Y141.016 E0.03563
G1 X92.660 Y140.321 E0.04649
G1 X92.889 Y140.085 E0.01030
G1 X93.257 Y139.708 F9000.000
G1 F1200.000
G1 X93.699 Y139.255 E0.01987
G1 X94.005 Y138.713 E0.01949
G1 X126.106 Y138.713 E1.00652
G1 X126.574 Y139.490 E0.02842
G1 X126.817 Y139.709 E0.01025
G1 X127.235 Y140.086 F9000.000
G1 F1200.000
G1 X127.626 Y140.439 E0.01652
G1 X129.137 Y141.123 E0.05200
G1 X130.030 Y141.253 E0.02829
G1 X132.972 Y141.253 E0.09224
G1 X133.211 Y141.228 E0.00755
G1 X133.816 Y141.253 E0.01898
G1 X135.234 Y141.253 E0.04447
G1 X135.504 Y141.224 E0.00849
G1 X136.438 Y141.217 E0.02929
G1 X137.588 Y140.933 E0.03713
G1 X138.576 Y140.383 E0.03545
G1 X139.606 Y139.379 E0.04513
G1 X140.214 Y138.340 E0.03775
G1 X140.531 Y137.126 E0.03932
G1 X140.544 Y127.598 E0.29877
G1 X140.173 Y126.137 E0.04725
G1 X139.540 Y125.062 E0.03911
G1 X139.206 Y124.724 E0.01489
G1 X138.829 Y124.342 F9000.000
G1 F1200.000
G1 X138.653 Y124.164 E0.00786
G1 X137.246 Y123.400 E0.05019
G1 X136.216 Y123.170 E0.03309
G1 X135.282 Y123.158 E0.02930
G1 X134.963 Y122.653 E0.01873
G1 X134.242 Y121.932 E0.03198
G1 X134.242 Y98.068 E0.74821
G1 X134.961 Y97.349 E0.03190
G1 X135.298 Y96.827 E0.01949
G1 X136.492 Y96.791 E0.03743
G1 X137.668 Y96.432 E0.03858
G1 X138.778 Y95.728 E0.04121
G1 X138.828 Y95.675 E0.00226
G1 X139.205 Y95.277 F9000.000
G1 F1200.000
G1 X139.612 Y94.848 E0.01855
G1 X140.183 Y93.836 E0.03645
G1 X140.533 Y92.475 E0.04405
G1 X140.510 Y82.742 E0.30517
G1 X140.204 Y81.634 E0.03604
G1 X139.659 Y80.685 E0.03429
G1 X138.916 Y79.898 E0.03395
G1 X138.297 Y79.413 E0.02466
G1 X136.661 Y78.815 E0.05462
G1 X135.302 Y78.754 E0.04265
G1 X130.773 Y78.747 E0.14201
G1 X130.518 Y78.774 E0.00804
G1 X129.660 Y78.768 E0.02690
G1 X128.296 Y79.120 E0.04417
G1 X127.169 Y79.822 E0.04163
G1 X127.054 Y79.942 E0.00522
G1 X126.692 Y80.321 F9000.000
G1 F1200.000
G1 X126.341 Y80.689 E0.01595
G1 X126.008 Y81.287 E0.02145
G1 X93.895 Y81.287 E1.00690
G1 X93.434 Y80.519 E0.02806
G1 X93.338 Y80.432 E0.00408
G1 X92.784 Y80.433 F9000.000
G1 F1200.000
G1 X93.157 Y80.777 E0.01588
G1 X93.678 Y81.664 E0.03225
G1 X126.234 Y81.664 E1.02079
G1 X126.632 Y80.930 E0.02616
G1 X127.215 Y80.319 E0.02650
G1 X127.684 Y79.940 F9000.000
G1 F1200.000
G1 X128.468 Y79.457 E0.02889
G1 X129.727 Y79.140 E0.04070
G1 X130.535 Y79.151 E0.02536
G1 X130.783 Y79.124 E0.00781
G1 X135.286 Y79.132 E0.14120
G1 X135.487 Y79.152 E0.00633
G1 X136.564 Y79.181 E0.03377
G1 X138.090 Y79.729 E0.05084
G1 X138.652 Y80.167 E0.02235
G1 X139.370 Y80.928 E0.03279
G1 X139.848 Y81.759 E0.03006
G1 X140.133 Y82.769 E0.03290
G1 X140.156 Y92.451 E0.30357
G1 X139.825 Y93.715 E0.04098
G1 X139.296 Y94.641 E0.03342
G1 X139.205 Y94.737 E0.00416
G1 X138.828 Y95.135 F9000.000
G1 F1200.000
G1 X138.555 Y95.423 E0.01244
G1 X137.533 Y96.079 E0.03807
G1 X136.407 Y96.423 E0.03693
G1 X135.087 Y96.454 E0.04138
G1 X134.679 Y97.098 E0.02389
G1 X133.865 Y97.912 E0.03612
G1 X133.865 Y122.088 E0.75801
G1 X134.680 Y122.903 E0.03616
G1 X135.069 Y123.534 E0.02324
G1 X136.154 Y123.543 E0.03400
G1 X137.138 Y123.763 E0.03163
G1 X138.406 Y124.450 E0.04520
G1 X138.829 Y124.875 E0.01880
G1 X139.206 Y125.253 F9000.000
G1 F1200.000
G1 X139.834 Y126.305 E0.03842
G1 X140.166 Y127.621 E0.04255
G1 X140.160 Y137.057 E0.29586
G1 X139.875 Y138.172 E0.03611
G1 X139.294 Y139.166 E0.03608
G1 X138.333 Y140.094 E0.04191
G1 X137.428 Y140.590 E0.03233
G1 X136.413 Y140.840 E0.03278
G1 X135.481 Y140.847 E0.02923
G1 X135.224 Y140.876 E0.00812
G1 X133.820 Y140.876 E0.04400
G1 X133.198 Y140.850 E0.01952
G1 X132.961 Y140.876 E0.00748
G1 X130.042 Y140.876 E0.09152
G1 X129.267 Y140.768 E0.02454
G1 X127.785 Y140.086 E0.05115
G1 X127.372 Y139.709 F9000.000
G1 F1200.000
G1 X126.850 Y139.232 E0.02218
G1 X126.323 Y138.336 E0.03258
G1 X93.780 Y138.336 E1.02037
G1 X93.410 Y139.011 E0.02411
G1 X92.730 Y139.708 E0.03055
G1 X92.318 Y140.085 F9000.000
G1 F1200.000
G1 X91.250 Y140.651 E0.03790
G1 X90.219 Y140.856 E0.03295
G1 X89.465 Y140.849 E0.02363
G1 X89.220 Y140.876 E0.00775
G1 X86.308 Y140.876 E0.09129
G1 X85.686 Y140.850 E0.01953
G1 X85.443 Y140.876 E0.00766
G1 X83.808 Y140.861 E0.05127
G1 X82.433 Y140.467 E0.04486
G1 X81.568 Y139.930 E0.03191
G1 X80.888 Y139.272 E0.02967
G1 X80.341 Y138.475 E0.03033
G1 X79.834 Y136.812 E0.05450
G1 X79.834 Y127.398 E0.29517
G1 X80.168 Y126.128 E0.04118
G1 X80.745 Y125.190 E0.03453
G1 X80.793 Y125.143 E0.00212
G1 X81.170 Y124.771 F9000.000
G1 F1200.000
G1 X81.559 Y124.387 E0.01714
G1 X82.889 Y123.703 E0.04688
G1 X83.697 Y123.555 E0.02575
G1 X84.311 Y123.548 E0.01927
G1 X84.822 Y122.831 E0.02758
G1 X85.385 Y122.256 E0.02525
G1 X86.381 Y121.609 E0.03722
G1 X86.621 Y121.516 E0.00809
G1 X86.621 Y98.230 E0.73010
G1 X85.998 Y97.785 E0.02401
G1 X85.375 Y97.175 E0.02733
G1 X84.939 Y96.440 E0.02679
G1 X83.501 Y96.426 E0.04510
G1 X82.626 Y96.204 E0.02832
G1 X81.653 Y95.681 E0.03463
G1 X81.170 Y95.229 E0.02073
G1 X80.793 Y94.859 F9000.000
G1 F1200.000
G1 X80.205 Y93.953 E0.03386
G1 X79.834 Y92.610 E0.04369
G1 X79.834 Y83.217 E0.29452
G1 X80.166 Y81.899 E0.04261
G1 X80.868 Y80.747 E0.04229
G1 X81.470 Y80.149 E0.02660
G1 X82.185 Y79.656 E0.02722
G1 X83.724 Y79.151 E0.05078
G1 X89.968 Y79.124 E0.19581
G1 X91.035 Y79.324 E0.03403
G1 X92.216 Y79.910 E0.04132
G1 X92.377 Y80.058 E0.00685
G1 X92.238 Y80.435 F9000.000
G1 F1200.000
G1 X92.878 Y81.032 E0.02744
G1 X93.458 Y82.041 E0.03648
G1 X126.462 Y82.041 E1.03481
G1 X126.923 Y81.171 E0.03085
G1 X127.681 Y80.378 E0.03439
G1 X127.779 Y80.317 E0.00361
G1 X128.391 Y79.938 F9000.000
G1 F1200.000
G1 X128.590 Y79.815 E0.00734
G1 X129.747 Y79.517 E0.03745
G1 X130.555 Y79.529 E0.02533
G1 X130.794 Y79.501 E0.00754
G1 X135.275 Y79.509 E0.14051
G1 X135.464 Y79.529 E0.00594
G1 X136.468 Y79.547 E0.03150
G1 X137.883 Y80.047 E0.04706
G1 X138.389 Y80.438 E0.02006
G1 X139.055 Y81.138 E0.03029
G1 X139.492 Y81.888 E0.02721
G1 X139.756 Y82.797 E0.02969
G1 X139.778 Y92.427 E0.30193
G1 X139.468 Y93.593 E0.03785
G1 X139.205 Y94.047 E0.01644
G1 X138.827 Y94.594 F9000.000
G1 F1200.000
G1 X138.330 Y95.119 E0.02268
G1 X137.397 Y95.726 E0.03489
G1 X136.322 Y96.054 E0.03524
G1 X134.875 Y96.081 E0.04538
G1 X134.397 Y96.847 E0.02832
G1 X133.667 Y97.577 E0.03238
G1 X133.487 Y97.697 E0.00676
G1 X133.487 Y122.303 E0.77152
G1 X133.667 Y122.423 E0.00676
G1 X134.397 Y123.153 E0.03238
G1 X134.856 Y123.911 E0.02776
G1 X136.092 Y123.915 E0.03876
G1 X137.030 Y124.125 E0.03012
G1 X138.199 Y124.767 E0.04183
G1 X138.829 Y125.407 E0.02816
G1 X139.206 Y125.969 F9000.000
G1 F1200.000
G1 X139.476 Y126.425 E0.01662
G1 X139.789 Y127.645 E0.03948
G1 X139.783 Y137.032 E0.29433
G1 X139.517 Y138.052 E0.03305
G1 X139.014 Y138.912 E0.03126
G1 X138.090 Y139.805 E0.04028
G1 X137.272 Y140.246 E0.02914
G1 X136.348 Y140.468 E0.02980
G1 X135.459 Y140.470 E0.02787
G1 X135.212 Y140.499 E0.00778
G1 X133.824 Y140.499 E0.04352
G1 X133.184 Y140.472 E0.02009
G1 X132.950 Y140.499 E0.00740
G1 X130.056 Y140.499 E0.09074
G1 X129.346 Y140.399 E0.02246
G1 X128.654 Y140.086 E0.02382
G1 X127.931 Y139.709 F9000.000
G1 F1200.000
G1 X127.127 Y138.973 E0.03418
G1 X126.542 Y137.959 E0.03671
G1 X93.552 Y137.959 E1.03436
G1 X93.120 Y138.769 E0.02879
G1 X92.215 Y139.708 E0.04087
G1 X91.513 Y140.085 F9000.000
G1 F1200.000
G1 X91.098 Y140.305 E0.01471
G1 X90.204 Y140.479 E0.02856
G1 X89.445 Y140.471 E0.02380
G1 X89.208 Y140.499 E0.00747
G1 X86.312 Y140.499 E0.09081
G1 X85.672 Y140.472 E0.02009
G1 X85.435 Y140.499 E0.00749
G1 X83.838 Y140.484 E0.05006
G1 X82.564 Y140.112 E0.04161
G1 X81.815 Y139.645 E0.02768
G1 X81.188 Y139.043 E0.02726
G1 X80.668 Y138.285 E0.02881
G1 X80.211 Y136.784 E0.04920
G1 X80.211 Y127.422 E0.29354
G1 X80.504 Y126.302 E0.03631
G1 X80.793 Y125.832 E0.01731
G1 X81.170 Y125.294 F9000.000
G1 F1200.000
G1 X81.802 Y124.677 E0.02770
G1 X82.985 Y124.069 E0.04168
G1 X83.748 Y123.929 E0.02435
G1 X84.580 Y123.924 E0.02607
G1 X84.702 Y123.648 E0.00945
G1 X85.102 Y123.084 E0.02168
G1 X85.639 Y122.535 E0.02410
G1 X86.563 Y121.940 E0.03443
G1 X86.998 Y121.789 E0.01446
G1 X86.998 Y97.993 E0.74610
G1 X86.820 Y97.909 E0.00616
G1 X86.251 Y97.505 E0.02189
G1 X85.658 Y96.924 E0.02603
G1 X85.157 Y96.064 E0.03120
G1 X83.569 Y96.055 E0.04981
G1 X82.783 Y95.860 E0.02539
G1 X81.854 Y95.361 E0.03307
G1 X81.170 Y94.713 E0.02952
G1 X80.793 Y94.179 F9000.000
G1 F1200.000
G1 X80.560 Y93.822 E0.01338
G1 X80.211 Y92.583 E0.04035
G1 X80.211 Y83.241 E0.29293
G1 X80.524 Y82.021 E0.03950
G1 X81.150 Y80.999 E0.03756
G1 X81.724 Y80.429 E0.02536
G1 X82.375 Y79.983 E0.02476
G1 X83.811 Y79.519 E0.04732
G1 X89.952 Y79.501 E0.19256
G1 X90.892 Y79.674 E0.02995
G1 X91.670 Y80.060 E0.02725
G1 X91.597 Y80.437 F9000.000
G1 F1200.000
G1 X91.787 Y80.530 E0.00665
G1 X92.599 Y81.288 E0.03482
G1 X93.237 Y82.418 E0.04069
G1 X126.692 Y82.418 E1.04897
G1 X127.215 Y81.412 E0.03555
G1 X127.937 Y80.655 E0.03279
G1 X128.485 Y80.315 E0.02021
G1 X129.618 Y79.934 F9000.000
G1 F1200.000
G1 X129.768 Y79.895 E0.00485
G1 X130.576 Y79.906 E0.02533
G1 X130.805 Y79.878 E0.00726
G1 X135.263 Y79.886 E0.13978
G1 X135.441 Y79.906 E0.00560
G1 X136.375 Y79.913 E0.02930
G1 X137.678 Y80.365 E0.04323
G1 X138.128 Y80.710 E0.01777
G1 X138.743 Y81.349 E0.02781
G1 X139.138 Y82.019 E0.02438
G1 X139.379 Y82.826 E0.02641
G1 X139.401 Y92.403 E0.30028
G1 X139.204 Y93.141 E0.02397
G1 X138.827 Y93.952 F9000.000
G1 F1200.000
G1 X138.690 Y94.191 E0.00864
G1 X138.105 Y94.816 E0.02685
G1 X137.215 Y95.395 E0.03329
G1 X136.241 Y95.685 E0.03187
G1 X134.622 Y95.706 E0.05075
G1 X134.547 Y95.893 E0.00632
G1 X134.115 Y96.596 E0.02588
G1 X133.418 Y97.292 E0.03086
G1 X133.110 Y97.481 E0.01133
G1 X133.110 Y122.519 E0.78504
G1 X133.418 Y122.708 E0.01133
G1 X134.114 Y123.403 E0.03082
G1 X134.640 Y124.287 E0.03226
G1 X136.069 Y124.292 E0.04481
G1 X136.919 Y124.486 E0.02732
G1 X137.991 Y125.082 E0.03846
G1 X138.656 Y125.768 E0.02995
G1 X138.829 Y126.060 E0.01065
G1 X139.206 Y126.883 F9000.000
G1 F1200.000
G1 X139.412 Y127.669 E0.02547
G1 X139.406 Y137.006 E0.29277
G1 X139.160 Y137.930 E0.02996
G1 X138.733 Y138.659 E0.02649
G1 X137.847 Y139.514 E0.03861
G1 X137.118 Y139.901 E0.02588
G1 X136.284 Y140.096 E0.02684
G1 X135.436 Y140.093 E0.02659
G1 X135.200 Y140.122 E0.00746
G1 X133.828 Y140.122 E0.04302
G1 X133.168 Y140.094 E0.02070
G1 X132.938 Y140.122 E0.00729
G1 X130.067 Y140.122 E0.09000
G1 X129.799 Y140.086 E0.00848
G1 X128.721 Y139.709 F9000.000
G1 F1200.000
G1 X128.273 Y139.510 E0.01538
G1 X127.404 Y138.716 E0.03691
G1 X126.763 Y137.582 E0.04083
G1 X93.276 Y137.582 E1.04994
G1 X93.210 Y137.797 E0.00705
G1 X92.827 Y138.530 E0.02593
G1 X92.002 Y139.399 E0.03757
G1 X91.419 Y139.708 E0.02071
G1 X90.257 Y140.085 F9000.000
G1 F1200.000
G1 X90.155 Y140.104 E0.00327
G1 X89.425 Y140.094 E0.02290
G1 X89.196 Y140.122 E0.00721
G1 X86.316 Y140.122 E0.09031
G1 X85.657 Y140.094 E0.02070
G1 X85.425 Y140.122 E0.00731
G1 X83.869 Y140.107 E0.04881
G1 X82.697 Y139.758 E0.03833
G1 X82.061 Y139.359 E0.02355
G1 X81.487 Y138.813 E0.02484
G1 X80.995 Y138.096 E0.02727
G1 X80.588 Y136.756 E0.04389
G1 X80.588 Y127.446 E0.29192
G1 X80.793 Y126.657 E0.02558
G1 X81.170 Y125.931 F9000.000
G1 F1200.000
G1 X81.335 Y125.661 E0.00993
G1 X82.046 Y124.966 E0.03116
G1 X83.080 Y124.435 E0.03646
G1 X83.799 Y124.303 E0.02294
G1 X84.835 Y124.301 E0.03247
G1 X85.023 Y123.847 E0.01539
G1 X85.400 Y123.315 E0.02046
G1 X85.892 Y122.815 E0.02199
G1 X86.744 Y122.272 E0.03166
G1 X87.375 Y122.064 E0.02084
G1 X87.375 Y97.733 E0.76287
G1 X87.017 Y97.586 E0.01214
G1 X86.482 Y97.207 E0.02058
G1 X85.942 Y96.674 E0.02377
G1 X85.377 Y95.687 E0.03566
G1 X83.634 Y95.683 E0.05464
G1 X82.939 Y95.516 E0.02242
G1 X82.055 Y95.041 E0.03146
G1 X81.373 Y94.385 E0.02968
G1 X81.170 Y94.079 E0.01152
G1 X80.793 Y93.271 F9000.000
G1 F1200.000
G1 X80.588 Y92.556 E0.02332
G1 X80.588 Y83.266 E0.29131
G1 X80.882 Y82.144 E0.03636
G1 X81.431 Y81.251 E0.03287
G1 X81.977 Y80.709 E0.02410
G1 X82.564 Y80.310 E0.02225
